P2
# Mixed environment with circular obstacles and terrain cost zones
256 256
255
0 0 0 0 0 0 0 0 0 0 0 0 0 0 0 0 0 0 0 0 0 0 0 0 0 0 0 0 0 0 0 0 0 0 0 0 0 0 0 0 0 0 0 0 0 0 0 0 0 0 0 0 0 0 0 0 0 0 0 0 0 0 0 0 0 0 0 0 0 0 0 0 0 0 0 0 0 0 0 0 0 0 0 0 0 0 0 0 0 0 0 0 0 0 0 0 0 0 0 0 0 0 0 0 0 0 0 0 0 0 0 0 0 0 0 0 0 0 0 0 0 0 0 0 0 0 0 0 0 0 0 0 0 0 0 0 0 0 0 0 0 0 0 0 0 0 0 0 0 0 0 0 0 0 0 0 0 0 0 0 0 0 0 0 0 0 0 0 0 0 0 0 0 0 0 0 0 0 0 0 0 0 0 0 0 0 0 0 0 0 0 0 0 0 0 0 0 0 0 0 0 0 0 0 0 0 0 0 0 0 0 0 0 0 0 0 0 0 0 0 0 0 0 0 0 0 0 0 0 0 0 0 0 0 0 0 0 0 0 0 0 0 0 0 0 0 0 0 0 0 0 0 0 0 0 0
0 0 0 0 0 0 0 0 0 0 0 0 0 0 0 0 0 0 0 0 0 0 0 0 0 0 0 0 0 0 0 0 0 0 0 0 0 0 0 0 0 0 0 0 0 0 0 0 0 0 0 0 0 0 0 0 0 0 0 0 0 0 0 0 0 0 0 0 0 0 0 0 0 0 0 0 0 0 0 0 0 0 0 0 0 0 0 0 0 0 0 0 0 0 0 0 0 0 0 0 0 0 0 0 0 0 0 0 0 0 0 0 0 0 0 0 0 0 0 0 0 0 0 0 0 0 0 0 0 0 0 0 0 0 0 0 0 0 0 0 0 0 0 0 0 0 0 0 0 0 0 0 0 0 0 0 0 0 0 0 0 0 0 0 0 0 0 0 0 0 0 0 0 0 0 0 0 0 0 0 0 0 0 0 0 0 0 0 0 0 0 0 0 0 0 0 0 0 0 0 0 0 0 0 0 0 0 0 0 0 0 0 0 0 0 0 0 0 0 0 0 0 0 0 0 0 0 0 0 0 0 0 0 0 0 0 0 0 0 0 0 0 0 0 0 0 0 0 0 0 0 0 0 0 0 0
0 0 0 0 0 0 0 0 0 0 0 0 0 0 0 0 0 0 0 0 0 0 0 0 0 0 0 0 0 0 0 0 0 0 0 0 0 0 0 0 0 0 0 0 0 0 0 0 0 0 0 0 0 0 0 0 0 0 0 0 0 0 0 0 0 0 0 0 0 0 0 0 0 0 0 0 0 0 0 0 0 0 0 0 0 0 0 0 0 0 0 0 0 0 0 0 0 0 0 0 0 0 0 0 0 0 0 0 0 0 0 0 0 0 0 0 0 0 0 0 0 0 0 0 0 0 0 0 0 0 0 0 0 0 0 0 0 0 0 0 0 0 0 0 0 0 0 0 0 0 0 0 0 0 0 0 0 0 0 0 0 0 0 0 0 0 0 0 0 0 0 0 0 0 0 0 0 0 0 0 0 0 0 0 0 0 0 0 0 0 0 0 0 0 0 0 0 0 0 0 0 0 0 0 0 0 0 0 0 0 0 0 0 0 0 0 0 0 0 0 0 0 0 0 0 0 0 0 0 0 0 0 0 0 0 0 0 0 0 0 0 0 0 0 0 0 0 0 0 0 0 0 0 0 0 0
0 0 0 0 0 0 0 0 0 0 0 0 0 0 0 0 0 0 0 0 0 0 0 0 0 0 0 0 0 0 0 0 0 0 0 0 0 0 0 0 0 0 0 0 0 0 0 0 0 0 0 0 0 0 0 0 0 0 0 0 0 0 0 0 0 0 0 0 0 0 0 0 0 0 0 0 0 0 0 0 0 0 0 0 0 0 0 0 0 0 0 0 0 0 0 0 0 0 0 0 0 0 0 0 0 0 0 0 0 0 0 0 0 0 0 0 0 0 0 0 0 0 0 0 0 0 0 0 0 0 0 0 0 0 0 0 0 0 0 0 0 0 0 0 0 0 0 0 0 0 0 0 0 0 0 0 0 0 0 0 0 0 0 0 0 0 0 0 0 0 0 0 0 0 0 0 0 0 0 0 0 0 0 0 0 0 0 0 0 0 0 0 0 0 0 0 0 0 0 0 0 0 0 0 0 0 0 0 0 0 0 0 0 0 0 0 0 0 0 0 0 0 0 0 0 0 0 0 0 0 0 0 0 0 0 0 0 0 0 0 0 0 0 0 0 0 0 0 0 0 0 0 0 0 0 0
0 0 0 0 0 0 0 0 0 0 0 0 0 0 0 0 0 0 0 0 0 0 0 0 0 0 0 0 0 0 0 0 0 0 0 0 0 0 0 0 0 0 0 0 0 0 0 0 0 0 0 0 0 0 0 0 0 0 0 0 0 0 0 0 0 0 0 0 0 0 0 0 0 0 0 0 0 0 0 0 0 0 0 0 0 0 0 0 0 0 0 0 0 0 0 0 0 0 0 0 0 0 0 0 0 0 0 0 0 0 0 0 0 0 0 0 0 0 0 0 0 0 0 0 0 0 0 0 0 0 0 0 0 0 0 0 0 0 0 0 0 0 0 0 0 0 0 0 0 0 0 0 0 0 0 0 0 0 0 0 0 0 0 0 0 0 0 0 0 0 0 0 0 0 0 0 0 0 0 0 0 0 0 0 0 0 0 0 0 0 0 0 0 0 0 0 0 0 0 0 0 0 0 0 0 0 0 0 0 0 0 0 0 0 0 0 0 0 0 0 0 0 0 0 0 0 0 0 0 0 0 0 0 0 0 0 0 0 0 0 0 0 0 0 0 0 0 0 0 0 0 0 0 0 0 0
0 0 0 0 0 240 240 240 240 240 240 240 240 240 240 240 240 240 240 240 240 240 240 240 240 240 240 240 240 240 240 240 240 240 240 240 240 240 240 240 240 240 240 240 240 240 240 240 240 240 240 240 240 240 240 240 240 240 240 240 240 240 240 240 240 240 240 240 240 240 240 240 240 240 240 240 240 240 240 240 240 240 240 240 240 240 240 240 240 240 240 240 240 240 240 240 240 240 240 240 240 240 240 240 240 240 240 240 240 240 240 240 240 240 240 240 240 240 240 240 240 240 240 240 240 240 240 240 240 240 240 240 240 240 240 240 240 240 240 240 240 240 240 240 240 240 240 240 240 240 240 240 240 240 240 240 240 240 240 240 240 240 240 240 240 240 240 240 240 240 240 240 240 240 240 240 240 240 240 240 240 240 240 240 240 240 240 240 240 240 240 240 240 240 240 240 240 240 240 240 240 240 240 240 240 240 240 240 240 240 240 240 240 240 240 240 240 240 240 240 240 240 240 240 240 240 240 240 240 240 240 240 240 240 240 240 240 240 240 240 240 240 240 240 240 240 240 240 240 240 240 0 0 0 0 0
0 0 0 0 0 240 240 240 240 240 240 240 240 240 240 240 240 240 240 240 240 240 240 240 240 240 240 240 240 240 240 240 240 240 240 240 240 240 240 240 240 240 240 240 240 240 240 240 240 240 240 240 240 240 240 240 240 240 240 240 240 240 240 240 240 240 240 240 240 240 240 240 240 240 240 240 240 240 240 240 240 240 240 240 240 240 240 240 240 240 240 240 240 240 240 240 240 240 240 240 240 240 240 240 240 240 240 240 240 240 240 240 240 240 240 240 240 240 240 240 240 240 240 240 240 240 240 240 240 240 240 240 240 240 240 240 240 240 240 240 240 240 240 240 240 240 240 240 240 240 240 240 240 240 240 240 240 240 240 240 240 240 240 240 240 240 240 240 240 240 240 240 240 240 240 240 240 240 240 240 240 240 240 240 240 240 240 240 240 240 240 240 240 240 240 240 240 240 240 240 240 240 240 240 240 240 240 240 240 240 240 240 240 240 240 240 240 240 240 240 240 240 240 240 240 240 240 240 240 240 240 240 240 240 240 240 240 240 240 240 240 240 240 240 240 240 240 240 240 240 240 0 0 0 0 0
0 0 0 0 0 240 240 240 240 240 240 240 240 240 240 240 240 240 240 240 240 240 240 240 240 240 240 240 240 240 240 240 240 240 240 240 240 240 240 240 240 240 240 240 240 240 240 240 240 240 240 240 240 240 240 240 240 240 240 240 240 240 240 240 240 240 240 240 240 240 240 240 240 240 240 240 240 240 240 240 240 240 240 240 240 240 240 240 240 240 240 240 240 240 240 240 240 240 240 240 240 240 240 240 240 240 240 240 240 240 240 240 240 240 240 240 240 240 240 240 240 240 240 240 240 240 240 240 240 240 240 240 240 240 240 240 240 240 240 240 240 240 240 240 240 240 240 240 240 240 240 240 240 240 240 240 240 240 240 240 240 240 240 240 240 240 240 240 240 240 240 240 240 240 240 240 240 240 240 240 240 240 240 240 240 240 240 240 240 240 240 240 240 240 240 240 240 240 240 240 240 240 240 240 240 240 240 240 240 240 240 240 240 240 240 240 240 240 240 240 240 240 240 240 240 240 240 240 240 240 240 240 240 240 240 240 240 240 240 240 240 240 240 240 240 240 240 240 240 240 240 0 0 0 0 0
0 0 0 0 0 240 240 240 240 240 240 240 240 240 240 240 240 240 240 240 240 240 240 240 240 240 240 240 240 240 240 240 240 240 240 240 240 240 240 240 240 240 240 240 240 240 240 240 240 240 240 240 240 240 240 240 240 240 240 240 240 240 240 240 240 240 240 240 240 240 240 240 240 240 240 240 240 240 240 240 240 240 240 240 240 240 240 240 240 240 240 240 240 240 240 240 240 240 240 240 240 240 240 240 240 240 240 240 240 240 240 240 240 240 240 240 240 240 240 240 240 240 240 240 240 240 240 240 240 240 240 240 240 240 240 240 240 240 240 240 240 240 240 240 240 240 240 240 240 240 240 240 240 240 240 240 240 240 240 240 240 240 240 240 240 240 240 240 240 240 240 240 240 240 240 240 240 240 240 240 240 240 240 240 240 240 240 240 240 240 240 240 240 240 240 240 240 240 240 240 240 240 240 240 240 240 240 240 240 240 240 240 240 240 240 240 240 240 240 240 240 240 240 240 240 240 240 240 240 240 240 240 240 240 240 240 240 240 240 240 240 240 240 240 240 240 240 240 240 240 240 0 0 0 0 0
0 0 0 0 0 240 240 240 240 240 240 240 240 240 240 240 240 240 240 240 240 240 240 240 240 240 240 240 240 240 240 240 240 240 240 240 240 240 240 240 240 240 240 240 240 240 240 240 240 240 240 240 240 240 240 240 240 240 240 240 240 240 240 240 240 240 240 240 240 240 240 240 240 240 240 240 240 240 240 240 240 240 240 240 240 240 240 240 240 240 240 240 240 240 240 240 240 240 240 240 240 240 240 240 240 240 240 240 240 240 240 240 240 240 240 240 240 240 240 240 240 240 240 240 240 240 240 240 240 240 240 240 240 240 240 240 240 240 240 240 240 240 240 240 240 240 240 240 240 240 240 240 240 240 240 240 240 240 240 240 240 240 240 240 240 240 240 240 240 240 240 240 240 240 240 240 240 240 240 240 240 240 240 240 240 240 240 240 240 240 240 240 240 240 240 240 240 240 240 240 240 240 240 240 240 240 240 240 240 240 240 240 240 240 240 240 240 240 240 240 240 240 240 240 240 240 240 240 240 240 240 240 240 240 240 240 240 240 240 240 240 240 240 240 240 240 240 240 240 240 240 0 0 0 0 0
0 0 0 0 0 240 240 240 240 240 240 240 240 240 240 240 240 240 240 240 240 240 240 240 240 240 240 240 240 240 240 240 240 240 240 240 240 240 240 240 240 240 240 240 240 240 240 240 240 240 240 240 240 240 240 240 240 240 240 240 240 240 240 240 240 240 240 240 240 240 240 240 240 240 240 240 240 240 240 240 240 240 240 240 240 240 240 240 240 240 240 240 240 240 240 240 240 240 240 240 240 240 240 240 240 240 240 240 240 240 240 240 240 240 240 240 240 240 240 240 240 240 240 240 240 240 240 240 240 240 240 240 240 240 240 240 240 240 240 240 240 240 240 240 240 240 240 240 240 240 240 240 240 240 240 240 240 240 240 240 240 240 240 240 240 240 240 240 240 240 240 240 240 240 240 240 240 240 240 240 220 240 240 240 240 240 240 240 240 240 240 240 240 240 240 240 240 240 240 240 240 240 240 240 240 240 240 240 240 240 240 240 240 240 240 240 240 240 240 240 240 240 240 240 240 240 240 240 240 240 240 240 240 240 240 240 240 240 240 240 240 240 240 240 240 240 240 240 240 240 240 0 0 0 0 0
0 0 0 0 0 240 240 240 240 240 240 240 240 240 240 240 240 240 240 240 240 240 240 240 240 240 240 240 240 240 240 240 240 240 240 240 240 240 240 240 240 240 240 240 240 240 240 240 240 240 240 240 240 240 240 240 240 240 240 240 240 240 240 240 240 240 240 240 240 240 240 240 240 240 240 240 240 240 240 240 240 240 240 240 240 240 240 240 240 240 240 240 240 240 240 240 240 240 240 240 240 240 240 240 240 240 240 240 240 240 240 240 240 240 240 240 240 240 240 240 240 240 240 240 240 240 240 240 240 240 240 240 240 240 240 240 240 240 240 240 240 240 240 240 240 240 240 240 240 240 240 240 240 240 240 240 240 240 240 240 240 240 240 240 240 240 240 240 240 240 240 218 217 216 215 214 213 213 213 212 212 212 213 213 213 214 215 216 217 218 240 240 240 240 240 240 240 240 240 240 240 240 240 240 240 240 240 240 240 240 240 240 240 240 240 240 240 240 240 240 240 240 240 240 240 240 240 240 240 240 240 240 240 240 240 240 240 240 240 240 240 240 240 240 240 240 240 240 240 240 240 0 0 0 0 0
0 0 0 0 0 240 240 240 240 240 240 240 240 240 240 240 240 240 240 240 240 240 240 240 240 240 240 240 240 240 240 240 240 240 240 240 240 240 240 240 240 240 240 240 240 240 240 240 240 240 240 240 240 240 240 240 240 240 240 240 240 240 240 240 240 240 240 240 240 240 240 240 240 240 240 240 240 240 240 240 240 240 240 240 240 240 240 240 240 240 240 240 240 240 240 240 240 240 240 240 240 240 240 240 240 240 240 240 240 240 240 240 240 240 240 240 240 240 240 240 240 240 240 240 240 240 240 240 240 240 240 240 240 240 240 240 240 240 240 240 240 240 240 240 240 240 240 240 240 240 240 240 240 240 240 240 240 240 240 240 240 240 240 240 240 240 220 218 216 214 213 211 210 209 208 207 206 206 205 205 205 205 205 206 206 207 208 209 210 211 213 214 216 218 220 240 240 240 240 240 240 240 240 240 240 240 240 240 240 240 240 240 240 240 240 240 240 240 240 240 240 240 240 240 240 240 240 240 240 240 240 240 240 240 240 240 240 240 240 240 240 240 240 240 240 240 240 240 240 240 240 0 0 0 0 0
0 0 0 0 0 240 240 240 240 240 240 240 240 240 240 240 240 240 240 240 240 240 240 240 240 240 240 240 240 240 240 240 240 240 240 240 240 240 240 240 240 240 240 240 240 240 240 240 240 240 240 240 240 240 240 240 240 240 240 240 240 240 240 240 240 240 240 240 240 240 240 240 240 240 240 240 240 240 240 240 240 240 240 240 240 240 240 240 240 240 240 240 240 240 240 240 240 240 240 240 240 240 240 240 240 240 240 240 240 240 240 240 240 240 240 240 240 240 240 240 240 240 240 240 240 240 240 240 240 240 240 240 240 240 240 240 240 240 240 240 240 240 240 240 240 240 240 240 240 240 240 240 240 240 240 240 240 240 240 240 240 240 240 219 217 215 213 211 209 207 205 204 203 202 201 200 199 199 198 198 198 198 198 199 199 200 201 202 203 204 205 207 209 211 213 215 217 219 240 240 240 240 240 240 240 240 240 240 240 240 240 240 240 240 240 240 240 240 240 240 240 240 240 240 240 240 240 240 240 240 240 240 240 240 240 240 240 240 240 240 240 240 240 240 240 240 240 240 240 240 240 0 0 0 0 0
0 0 0 0 0 240 240 240 240 240 240 240 240 240 240 240 240 240 240 240 240 240 240 240 240 240 240 240 240 240 240 240 240 240 240 240 240 240 240 240 240 240 240 240 240 240 240 240 240 240 240 240 240 240 240 240 240 240 240 240 240 240 240 240 240 240 240 240 240 240 240 240 240 240 240 240 240 240 240 240 240 240 240 240 240 240 240 240 240 240 240 240 240 240 240 240 240 240 240 240 240 240 240 240 240 240 240 240 240 240 240 240 240 240 240 240 240 240 240 240 240 240 240 240 240 240 240 240 240 240 240 240 240 240 240 240 240 240 240 240 240 240 240 240 240 240 240 240 240 240 240 240 240 240 240 240 240 240 240 240 240 218 215 213 210 208 206 204 202 200 198 197 196 195 194 193 192 191 191 191 191 191 191 191 192 193 194 195 196 197 198 200 202 204 206 208 210 213 215 218 240 240 240 240 240 240 240 240 240 240 240 240 240 240 240 240 240 240 240 240 240 240 240 240 240 240 240 240 240 240 240 240 240 240 240 240 240 240 240 240 240 240 240 240 240 240 240 240 240 240 240 0 0 0 0 0
0 0 0 0 0 240 240 240 240 240 240 240 240 240 240 240 240 240 240 240 240 240 240 240 240 240 240 240 240 240 240 240 240 240 240 240 240 240 240 240 240 240 240 240 240 240 240 240 240 240 240 240 240 240 240 240 240 240 240 240 220 240 240 240 240 240 240 240 240 240 240 240 240 240 240 240 240 240 240 240 240 240 240 240 240 240 240 240 240 240 240 240 240 240 240 240 240 240 240 240 240 240 240 240 240 240 240 240 240 240 240 240 240 240 240 240 240 240 240 240 240 240 240 240 240 240 240 240 240 240 240 240 240 240 240 240 240 240 240 240 240 240 240 240 240 240 240 240 240 240 240 240 240 240 240 240 240 240 240 217 214 211 208 206 203 201 199 197 195 193 191 190 189 187 186 185 185 184 184 184 184 184 184 184 185 185 186 187 189 190 191 193 195 197 199 201 203 206 208 211 214 217 240 240 240 240 240 240 240 240 240 240 240 240 240 240 240 240 240 240 240 240 240 240 240 240 240 240 240 240 240 240 240 240 240 240 240 240 240 240 240 240 240 240 240 240 240 240 240 240 240 0 0 0 0 0
0 0 0 0 0 240 240 240 240 240 240 240 240 240 240 240 240 240 240 240 240 240 240 240 240 240 240 240 240 240 240 240 240 240 240 240 240 240 240 240 240 240 240 240 240 240 240 240 240 240 240 219 217 216 215 214 214 213 213 212 212 212 213 213 214 214 215 216 217 219 240 240 240 240 240 240 240 240 240 240 240 240 240 240 240 240 240 240 240 240 240 240 240 240 240 240 240 240 240 240 240 240 240 240 240 240 240 240 240 240 240 240 240 240 240 240 240 240 240 240 240 240 240 240 240 240 240 240 240 240 240 240 240 240 240 240 240 240 240 240 240 240 240 240 240 240 240 240 240 240 240 240 240 240 240 240 240 217 214 211 207 205 202 199 197 194 192 190 188 186 184 183 181 180 179 178 178 177 177 176 176 176 177 177 178 178 179 180 181 183 184 186 188 190 192 194 197 199 202 205 207 211 214 217 240 240 240 240 240 240 240 240 240 240 240 240 240 240 240 240 240 240 240 240 240 240 240 240 240 240 240 240 240 240 240 240 240 240 240 240 240 240 240 240 240 240 240 240 240 240 240 0 0 0 0 0
0 0 0 0 0 240 240 240 240 240 240 240 240 240 240 240 240 240 240 240 240 240 240 240 240 240 240 240 240 240 240 240 240 240 240 240 240 240 240 240 240 240 240 240 240 240 240 219 217 215 213 212 210 209 208 207 206 206 205 205 205 205 205 206 206 207 208 209 210 212 213 215 217 219 240 240 240 240 240 240 240 240 240 240 240 240 240 240 240 240 240 240 240 240 240 240 240 240 240 240 240 240 240 240 240 240 240 240 240 240 240 240 240 240 240 240 240 240 240 240 240 240 240 240 240 240 240 240 240 240 240 240 240 240 240 240 240 240 240 240 240 240 240 240 240 240 240 240 240 240 240 240 240 240 240 218 214 211 207 204 201 198 195 192 190 187 185 183 181 179 177 176 174 173 172 171 170 170 169 169 169 169 169 170 170 171 172 173 174 176 177 179 181 183 185 187 190 192 195 198 201 204 207 211 214 218 240 240 240 240 240 240 240 240 240 240 240 240 240 240 240 240 240 240 240 240 240 240 240 240 240 240 240 240 240 240 240 240 240 240 240 240 240 240 240 240 240 240 240 240 240 0 0 0 0 0
0 0 0 0 0 240 240 240 240 240 240 240 240 240 240 240 240 240 240 240 240 240 240 240 240 240 240 240 240 240 240 240 240 240 240 240 240 240 240 240 240 240 240 240 219 217 214 212 210 208 206 205 203 202 201 200 199 199 198 198 198 198 198 199 199 200 201 202 203 205 206 208 210 212 214 217 219 240 240 240 240 240 240 240 240 240 240 240 240 240 240 240 240 240 240 240 240 240 240 240 240 240 240 240 240 240 240 240 240 240 240 240 240 240 240 240 240 240 240 240 240 240 240 240 240 240 240 240 240 240 240 240 240 240 240 240 240 240 240 240 240 240 240 240 240 240 240 240 240 240 240 240 240 219 215 211 208 204 201 198 194 191 189 186 183 181 178 176 174 172 170 169 167 166 165 164 163 163 162 162 162 162 162 163 163 164 165 166 167 169 170 172 174 176 178 181 183 186 189 191 194 198 201 204 208 211 215 219 240 240 240 240 240 240 240 240 240 240 240 240 240 240 240 240 240 240 240 240 240 240 240 240 240 240 240 240 240 240 240 240 240 240 240 240 240 240 240 240 240 240 240 0 0 0 0 0
0 0 0 0 0 240 240 240 240 240 240 240 240 240 240 240 240 240 240 240 240 240 240 240 240 240 240 240 240 240 240 240 240 240 240 240 240 240 240 240 240 240 218 215 212 210 207 205 203 201 199 198 196 195 194 193 192 191 191 191 191 191 191 191 192 193 194 195 196 198 199 201 203 205 207 210 212 215 218 240 240 240 240 240 240 240 240 240 240 240 240 240 240 240 240 240 240 240 240 240 240 240 240 240 240 240 240 240 240 240 240 240 240 240 240 240 240 240 240 240 240 240 240 240 240 240 240 240 240 240 240 240 240 240 240 240 240 240 240 240 240 240 240 240 240 240 240 240 240 240 240 240 217 213 209 205 202 198 195 191 188 185 182 179 176 174 171 169 167 165 163 162 160 159 158 157 156 155 155 155 155 155 155 155 156 157 158 159 160 162 163 165 167 169 171 174 176 179 182 185 188 191 195 198 202 205 209 213 217 240 240 240 240 240 240 240 240 240 240 240 240 240 240 240 240 240 240 240 240 240 240 240 240 240 240 240 240 240 240 240 240 240 240 240 240 240 240 240 240 240 240 0 0 0 0 0
0 0 0 0 0 240 240 240 240 240 240 240 240 240 240 240 240 240 240 240 240 240 240 240 240 240 240 240 240 240 240 240 240 240 240 240 240 240 240 240 217 214 211 208 206 203 201 198 196 194 192 191 189 188 187 186 185 184 184 184 184 184 184 184 185 186 187 188 189 191 192 194 196 198 201 203 206 208 211 214 217 240 240 240 240 240 240 240 240 240 240 240 240 240 240 240 240 240 240 240 240 240 240 240 240 240 240 240 240 240 240 240 240 240 240 240 240 240 240 240 240 240 240 240 240 240 240 240 240 240 240 240 240 240 240 240 240 240 240 240 240 240 240 240 240 240 240 240 240 240 220 215 211 207 203 199 195 192 188 185 181 178 175 172 170 167 165 162 160 158 156 155 153 152 151 150 149 148 148 148 148 148 148 148 149 150 151 152 153 155 156 158 160 162 165 167 170 172 175 178 181 185 188 192 195 199 203 207 211 215 220 240 240 240 240 240 240 240 240 240 240 240 240 240 240 240 240 240 240 240 240 240 240 240 240 240 240 240 240 240 240 240 240 240 240 240 240 240 240 240 240 0 0 0 0 0
0 0 0 0 0 240 240 240 240 240 240 240 240 240 240 240 240 240 240 240 240 240 240 240 240 240 240 240 240 240 240 240 240 240 240 240 240 240 218 214 211 208 205 202 199 196 194 191 189 187 185 184 182 181 180 179 178 177 177 176 176 176 177 177 178 179 180 181 182 184 185 187 189 191 194 196 199 202 205 208 211 214 218 240 240 240 240 240 240 240 240 240 240 240 240 240 240 240 240 240 240 240 240 240 240 240 240 240 240 240 240 240 240 240 240 240 240 240 240 240 240 240 240 240 240 240 240 240 240 240 240 240 240 240 240 240 240 240 240 240 240 240 240 240 240 240 240 240 240 218 214 209 205 201 197 193 189 185 182 178 175 172 169 166 163 160 158 155 153 151 149 148 146 145 144 143 142 141 141 140 140 140 141 141 142 143 144 145 146 148 149 151 153 155 158 160 163 166 169 172 175 178 182 185 189 193 197 201 205 209 214 218 240 240 240 240 240 240 240 240 240 240 240 240 240 240 240 240 240 240 240 240 240 240 240 240 240 240 240 240 240 240 240 240 240 240 240 240 240 240 240 0 0 0 0 0
0 0 0 0 0 240 240 240 240 240 240 240 240 240 240 240 240 240 240 240 240 240 240 240 240 240 240 240 240 240 240 240 240 240 240 240 219 215 212 208 205 201 198 195 192 190 187 185 182 180 178 177 175 174 172 171 171 170 169 169 169 169 169 170 171 171 172 174 175 177 178 180 182 185 187 190 192 195 198 201 205 208 212 215 219 240 240 240 240 240 240 240 240 240 240 240 240 240 240 240 240 240 240 240 240 240 240 240 240 240 240 240 240 240 240 240 240 240 240 240 240 240 240 240 240 240 240 240 240 240 240 240 240 240 240 240 240 240 240 240 240 240 240 240 240 240 240 240 217 213 208 204 199 195 191 187 183 179 176 172 169 165 162 159 156 154 151 149 146 144 142 141 139 138 136 135 135 134 133 133 133 133 133 134 135 135 136 138 139 141 142 144 146 149 151 154 156 159 162 165 169 172 176 179 183 187 191 195 199 204 208 213 217 240 240 240 240 240 240 240 240 240 240 240 240 240 240 240 240 240 240 240 240 240 240 240 240 240 240 240 240 240 240 240 240 240 240 240 240 240 240 0 0 0 0 0
0 0 0 0 0 240 240 240 240 240 240 240 240 240 240 240 240 240 240 240 240 240 240 240 240 240 240 240 240 240 240 240 240 240 240 217 213 209 205 202 198 195 192 189 186 183 180 178 176 173 171 170 168 167 165 164 163 163 162 162 162 162 162 163 163 164 165 167 168 170 171 173 176 178 180 183 186 189 192 195 198 202 205 209 213 217 240 240 240 240 240 240 240 240 240 240 240 240 240 240 240 240 240 240 240 240 240 240 240 240 240 240 240 240 240 240 240 240 240 240 240 240 240 240 240 240 240 240 240 240 240 240 240 240 240 240 240 240 240 240 240 240 240 240 240 240 240 216 212 207 202 198 194 189 185 181 177 173 169 166 162 159 156 153 150 147 144 142 140 137 135 134 132 131 129 128 127 127 126 126 126 126 126 127 127 128 129 131 132 134 135 137 140 142 144 147 150 153 156 159 162 166 169 173 177 181 185 189 194 198 202 207 212 216 240 240 240 240 240 240 240 240 240 240 240 240 240 240 240 240 240 240 240 240 240 240 240 240 240 240 240 240 240 240 240 240 240 240 240 240 240 0 0 0 0 0
0 0 0 0 0 240 240 240 240 240 240 240 240 240 240 240 240 240 240 240 240 240 240 240 240 240 240 240 240 240 240 240 240 220 215 211 207 203 199 196 192 189 185 182 179 176 174 171 169 167 165 163 161 160 158 157 156 156 155 155 155 155 155 156 156 157 158 160 161 163 165 167 169 171 174 176 179 182 185 189 192 196 199 203 207 211 215 220 240 240 240 240 240 240 240 240 240 240 240 240 240 240 240 240 240 240 240 240 240 240 240 240 240 240 240 240 240 240 240 240 240 240 240 240 240 240 240 240 240 240 240 240 240 240 240 240 240 240 240 240 240 240 240 240 240 240 216 211 206 202 197 192 188 184 179 175 171 167 163 160 156 153 149 146 143 140 138 135 133 131 129 127 125 124 122 121 120 120 119 119 119 119 119 120 120 121 122 124 125 127 129 131 133 135 138 140 143 146 149 153 156 160 163 167 171 175 179 184 188 192 197 202 206 211 216 240 240 240 240 240 240 240 240 240 240 240 240 240 240 240 240 240 240 240 240 240 240 240 240 240 240 240 240 240 240 240 240 240 240 240 240 0 0 0 0 0
0 0 0 0 0 240 240 240 240 240 240 240 240 240 240 240 240 240 240 240 240 240 240 240 240 240 240 240 240 240 240 240 218 214 209 205 201 197 193 189 186 182 179 176 173 170 167 164 162 160 158 156 154 152 151 150 149 148 148 148 148 148 148 148 149 150 151 152 154 156 158 160 162 164 167 170 173 176 179 182 186 189 193 197 201 205 209 214 218 240 240 240 240 240 240 240 240 240 240 240 240 240 240 240 240 240 240 240 240 240 240 240 240 240 240 240 240 240 240 240 240 240 240 240 240 240 240 240 240 240 240 240 240 240 240 240 240 240 240 240 240 240 240 240 240 216 211 206 201 196 191 187 182 178 173 169 165 161 157 153 150 146 143 140 137 134 131 128 126 124 122 120 118 116 115 114 113 112 112 112 112 112 112 112 113 114 115 116 118 120 122 124 126 128 131 134 137 140 143 146 150 153 157 161 165 169 173 178 182 187 191 196 201 206 211 216 240 240 240 240 240 240 240 240 240 240 240 240 240 240 240 240 240 240 240 240 240 240 240 240 240 240 240 240 240 240 240 240 240 240 240 0 0 0 0 0
0 0 0 0 0 240 240 240 240 240 240 240 240 240 240 240 240 240 240 240 240 240 240 240 240 240 240 240 240 240 240 217 213 208 204 199 195 191 187 183 180 176 172 169 166 163 160 158 155 153 151 149 147 145 144 143 142 141 141 140 140 140 141 141 142 143 144 145 147 149 151 153 155 158 160 163 166 169 172 176 180 183 187 191 195 199 204 208 213 217 240 240 240 240 240 240 240 240 240 240 240 240 240 240 240 240 240 240 240 240 240 240 240 240 240 240 240 240 240 240 240 240 240 240 240 240 240 240 240 240 240 240 240 240 240 240 240 240 240 240 240 240 240 240 216 211 206 201 196 191 186 181 177 172 168 163 159 155 151 147 144 140 136 133 130 127 124 122 119 117 115 113 111 109 108 107 106 105 105 104 104 104 105 105 106 107 108 109 111 113 115 117 119 122 124 127 130 133 136 140 144 147 151 155 159 163 168 172 177 181 186 191 196 201 206 211 216 240 240 240 240 240 240 240 240 240 240 240 240 240 240 240 240 240 240 240 240 240 240 240 240 240 240 240 240 240 240 240 240 240 240 0 0 0 0 0
0 0 0 0 0 240 240 240 240 240 240 240 240 240 240 240 240 240 240 240 240 240 240 240 240 240 240 240 240 240 217 212 207 202 198 194 189 185 181 177 173 170 166 163 160 156 154 151 148 146 144 142 140 138 137 136 135 134 134 133 133 133 134 134 135 136 137 138 140 142 144 146 148 151 154 156 160 163 166 170 173 177 181 185 189 194 198 202 207 212 217 240 240 240 240 240 240 240 240 240 240 240 240 240 240 240 240 240 240 240 240 240 240 240 240 240 240 240 240 240 240 240 240 240 240 240 240 240 240 240 240 240 240 240 240 240 240 240 240 240 240 240 240 216 211 206 201 196 190 185 181 176 171 166 162 158 153 149 145 141 137 134 130 127 124 120 118 115 112 110 108 106 104 102 101 100 99 98 98 97 97 97 98 98 99 100 101 102 104 106 108 110 112 115 118 120 124 127 130 134 137 141 145 149 153 158 162 166 171 176 181 185 190 196 201 206 211 216 240 240 240 240 240 240 240 240 240 240 240 240 240 240 240 240 240 240 240 240 240 240 240 240 240 240 240 240 240 240 240 240 240 0 0 0 0 0
0 0 0 0 0 240 240 240 240 240 240 240 240 240 240 240 240 240 240 240 240 240 240 240 240 240 240 240 240 216 211 206 202 197 192 188 184 179 175 171 167 163 160 156 153 150 147 144 142 139 137 135 133 131 130 129 128 127 126 126 126 126 126 127 128 129 130 131 133 135 137 139 142 144 147 150 153 156 160 163 167 171 175 179 184 188 192 197 202 206 211 216 240 240 240 240 240 240 240 240 240 240 240 240 240 240 240 240 240 240 240 240 240 240 240 240 240 240 240 240 240 240 240 240 240 240 240 240 240 240 240 240 240 240 240 240 240 240 240 240 240 240 217 212 206 201 196 190 185 180 175 170 166 161 156 152 148 143 139 135 131 127 124 120 117 114 111 108 106 103 101 99 97 95 94 93 92 91 90 90 90 90 90 91 92 93 94 95 97 99 101 103 106 108 111 114 117 120 124 127 131 135 139 143 148 152 156 161 166 170 175 180 185 190 196 201 206 212 217 240 240 240 240 240 240 240 240 240 240 240 240 240 240 240 240 240 240 240 240 240 240 240 240 240 240 240 240 240 240 240 240 0 0 0 0 0
0 0 0 0 0 240 240 240 240 240 240 240 240 240 240 240 240 240 240 240 240 240 240 240 240 240 240 240 216 211 206 201 196 191 187 182 178 173 169 165 161 157 154 150 147 143 140 138 135 132 130 128 126 124 123 122 121 120 119 119 119 119 119 120 121 122 123 124 126 128 130 132 135 138 140 143 147 150 154 157 161 165 169 173 178 182 187 191 196 201 206 211 216 240 240 240 240 240 240 240 240 240 240 240 240 240 240 240 240 240 240 240 240 240 240 240 240 240 240 240 240 240 240 240 240 240 240 240 240 240 240 240 240 240 240 240 240 240 240 240 240 218 213 207 202 196 191 185 180 175 170 165 160 155 151 146 142 137 133 129 125 121 118 114 111 107 104 102 99 96 94 92 90 88 87 86 85 84 83 83 83 83 83 84 85 86 87 88 90 92 94 96 99 102 104 107 111 114 118 121 125 129 133 137 142 146 151 155 160 165 170 175 180 185 191 196 202 207 213 218 240 240 240 240 240 240 240 240 240 240 240 240 240 240 240 240 240 240 240 240 240 240 240 240 240 240 240 240 240 240 240 0 0 0 0 0
0 0 0 0 0 240 240 240 240 240 240 240 240 240 240 240 240 240 240 240 240 240 240 240 240 240 240 217 211 206 201 196 191 186 181 177 172 168 163 159 155 151 147 144 140 137 134 131 128 126 123 121 119 117 116 114 113 113 112 112 112 112 112 113 113 114 116 117 119 121 123 126 128 131 134 137 140 144 147 151 155 159 163 168 172 177 181 186 191 196 201 206 211 217 240 240 240 240 240 240 240 240 240 240 240 240 240 240 240 240 240 240 240 240 240 240 240 240 240 240 240 240 240 240 240 240 240 240 240 240 240 240 240 240 240 240 240 240 240 240 220 214 208 202 197 191 186 181 175 170 165 160 155 150 145 141 136 132 127 123 119 115 111 108 104 101 98 95 92 90 87 85 83 81 80 78 77 77 76 76 76 76 76 77 77 78 80 81 83 85 87 90 92 95 98 101 104 108 111 115 119 123 127 132 136 141 145 150 155 160 165 170 175 181 186 191 197 202 208 214 220 240 240 240 240 240 240 240 240 240 240 240 240 240 240 240 240 240 240 240 240 240 240 240 240 240 240 240 240 240 240 0 0 0 0 0
0 0 0 0 0 240 240 240 240 240 240 240 240 240 240 240 240 240 240 240 240 240 240 240 240 240 217 212 206 201 196 191 186 181 176 171 167 162 158 153 149 145 141 138 134 131 127 124 121 119 116 114 112 110 109 107 106 105 105 104 104 104 105 105 106 107 109 110 112 114 116 119 121 124 127 131 134 138 141 145 149 153 158 162 167 171 176 181 186 191 196 201 206 212 217 240 240 240 240 240 240 240 240 240 240 240 240 240 240 240 240 240 240 240 240 240 240 240 240 240 240 240 240 240 240 240 240 240 240 240 240 240 240 240 240 240 240 240 240 240 215 209 204 198 192 187 181 176 170 165 160 155 150 145 140 135 131 126 122 117 113 109 105 102 98 95 91 88 85 83 80 78 76 74 73 71 70 69 69 68 68 68 69 69 70 71 73 74 76 78 80 83 85 88 91 95 98 102 105 109 113 117 122 126 131 135 140 145 150 155 160 165 170 176 181 187 192 198 204 209 215 240 240 240 240 240 240 240 240 240 240 240 240 240 240 240 240 240 240 240 240 240 240 240 240 240 240 240 240 240 240 0 0 0 0 0
0 0 0 0 0 240 240 240 240 240 240 240 240 240 240 240 240 240 240 240 240 240 240 240 240 218 213 207 202 196 191 186 181 176 171 166 161 156 152 148 143 139 135 131 128 124 121 118 115 112 110 107 105 103 102 100 99 98 98 97 97 97 98 98 99 100 102 103 105 107 110 112 115 118 121 124 128 131 135 139 143 148 152 156 161 166 171 176 181 186 191 196 202 207 213 218 240 240 240 240 240 240 240 240 240 240 240 240 240 240 240 240 240 240 240 240 240 240 240 240 240 240 240 240 240 240 240 240 240 240 240 240 240 240 240 240 240 240 240 217 211 205 199 194 188 182 177 171 166 160 155 150 145 140 135 130 125 120 116 112 107 103 99 95 92 88 85 82 79 76 74 71 69 67 66 64 63 62 62 61 61 61 62 62 63 64 66 67 69 71 74 76 79 82 85 88 92 95 99 103 107 112 116 120 125 130 135 140 145 150 155 160 166 171 177 182 188 194 199 205 211 217 240 240 240 240 240 240 240 240 240 240 240 240 240 240 240 240 240 240 240 240 240 240 240 240 240 240 240 240 240 0 0 0 0 0
0 0 0 0 0 240 240 240 240 240 240 240 240 240 240 240 240 240 240 240 240 240 240 240 220 214 208 202 197 191 186 181 176 170 165 160 156 151 146 142 137 133 129 125 121 118 114 111 108 105 103 100 98 96 95 93 92 91 90 90 90 90 90 91 92 93 95 96 98 100 103 105 108 111 114 118 121 125 129 133 137 142 146 151 156 160 165 170 176 181 186 191 197 202 208 214 220 240 240 240 240 240 240 240 240 240 240 240 240 240 240 240 240 240 240 240 240 240 240 240 240 240 240 240 240 240 240 240 240 240 240 240 240 240 240 240 240 240 219 213 207 201 195 189 184 178 172 166 161 155 150 145 140 134 129 124 120 115 110 106 101 97 93 89 85 82 78 75 72 69 67 64 62 60 59 57 56 55 54 54 54 54 54 55 56 57 59 60 62 64 67 69 72 75 78 82 85 89 93 97 101 106 110 115 120 124 129 134 140 145 150 155 161 166 172 178 184 189 195 201 207 213 219 240 240 240 240 240 240 240 240 240 240 240 240 240 240 240 240 240 240 240 240 240 240 240 240 240 240 240 240 0 0 0 0 0
0 0 0 0 0 240 240 240 240 240 240 240 240 240 240 240 240 240 240 240 240 240 240 240 215 209 204 198 192 187 181 176 171 165 160 155 150 145 141 136 132 127 123 119 115 112 108 105 102 99 96 94 91 89 88 86 85 84 83 83 83 83 83 84 85 86 88 89 91 94 96 99 102 105 108 112 115 119 123 127 132 136 141 145 150 155 160 165 171 176 181 187 192 198 204 209 215 240 240 240 240 240 240 240 240 240 240 240 240 240 240 240 240 240 240 240 240 240 240 240 240 240 240 240 240 240 240 240 240 240 240 240 240 240 240 240 240 240 215 209 203 197 191 185 179 173 168 162 156 151 145 140 135 129 124 119 114 109 105 100 96 91 87 83 79 76 72 69 66 63 60 58 55 53 52 50 49 48 47 47 47 47 47 48 49 50 52 53 55 58 60 63 66 69 72 76 79 83 87 91 96 100 105 109 114 119 124 129 135 140 145 151 156 162 168 173 179 185 191 197 203 209 215 240 240 240 240 240 240 240 240 240 240 240 240 240 240 240 240 240 240 240 240 240 240 240 240 240 240 240 240 0 0 0 0 0
0 0 0 0 0 240 240 240 240 240 240 240 240 240 240 240 240 240 240 240 240 240 240 217 211 205 199 194 188 182 177 171 166 160 155 150 145 140 135 131 126 122 117 113 109 105 102 98 95 92 89 87 84 82 81 79 78 77 76 76 76 76 76 77 78 79 81 82 84 87 89 92 95 98 102 105 109 113 117 122 126 131 135 140 145 150 155 160 166 171 177 182 188 194 199 205 211 217 240 240 240 240 240 240 240 240 240 240 240 240 240 240 240 240 240 240 240 240 240 240 240 240 240 240 240 240 240 240 240 240 240 240 240 240 240 240 240 218 211 205 199 193 187 181 175 169 163 158 152 146 141 135 130 124 119 114 109 104 99 95 90 86 81 77 73 69 66 62 59 56 53 51 48 46 45 43 42 41 40 40 0 40 40 41 42 43 45 46 48 51 53 56 59 62 66 69 73 77 81 86 90 95 99 104 109 114 119 124 130 135 141 146 152 158 163 169 175 181 187 193 199 205 211 218 240 240 240 240 240 240 240 240 240 240 240 240 240 240 240 240 240 240 240 240 240 240 240 240 240 240 240 0 0 0 0 0
0 0 0 0 0 240 240 240 240 240 240 240 240 240 240 240 240 240 240 240 240 240 219 213 207 201 195 189 184 178 172 167 161 156 150 145 140 135 130 125 120 116 112 107 103 99 96 92 89 86 83 80 78 76 74 72 71 70 69 68 68 68 69 70 71 72 74 76 78 80 83 86 89 92 96 99 103 107 112 116 120 125 130 135 140 145 150 156 161 167 172 178 184 189 195 201 207 213 219 240 240 240 240 240 240 240 240 240 240 240 240 240 240 240 240 240 240 240 240 240 240 240 240 240 240 240 240 240 240 240 240 240 240 240 240 240 240 214 208 202 195 189 183 177 171 165 159 153 148 142 136 131 125 120 114 109 104 99 94 89 84 80 76 71 67 63 60 56 53 50 47 44 42 0 0 0 0 0 0 0 0 0 0 0 0 0 0 0 42 44 47 50 53 56 60 63 67 71 76 80 84 89 94 99 104 109 114 120 125 131 136 142 148 153 159 165 171 177 183 189 195 202 208 214 240 240 240 240 240 240 240 240 240 240 240 240 240 240 240 240 240 240 240 240 240 240 240 240 240 240 240 0 0 0 0 0
0 0 0 0 0 240 240 240 240 240 240 240 240 240 240 240 240 240 240 240 240 240 215 209 203 197 191 185 179 173 168 162 156 151 145 140 135 130 125 120 115 110 106 101 97 93 89 86 82 79 76 73 71 69 67 65 64 63 62 61 61 61 62 63 64 65 67 69 71 73 76 79 82 86 89 93 97 101 106 110 115 120 125 130 135 140 145 151 156 162 168 173 179 185 191 197 203 209 215 240 240 240 240 240 240 240 240 240 240 240 240 240 240 240 240 240 240 240 240 240 240 240 240 240 240 240 240 240 240 240 240 240 240 240 240 240 217 211 204 198 192 185 179 173 167 161 155 149 143 137 132 126 120 115 109 104 99 94 89 84 79 74 70 65 61 57 53 50 46 43 40 0 0 0 0 0 0 0 0 0 0 0 0 0 0 0 0 0 0 0 40 43 46 50 53 57 61 65 70 74 79 84 89 94 99 104 109 115 120 126 132 137 143 149 155 161 167 173 179 185 192 198 204 211 217 240 240 240 240 240 240 240 240 240 240 240 240 240 240 240 240 240 240 240 240 240 240 240 240 240 240 0 0 0 0 0
0 0 0 0 0 240 240 240 240 240 240 240 240 240 240 240 240 240 240 240 240 218 212 205 199 193 187 181 175 169 163 158 152 146 141 135 130 125 120 114 110 105 100 96 91 87 83 79 76 73 69 67 64 62 60 58 56 55 55 54 54 54 55 55 56 58 60 62 64 67 69 73 76 79 83 87 91 96 100 105 110 114 120 125 130 135 141 146 152 158 163 169 175 181 187 193 199 205 212 218 240 240 240 240 240 240 240 240 240 240 240 240 240 240 240 240 240 240 240 240 240 240 240 240 240 240 240 240 240 240 240 240 240 240 240 240 214 207 201 195 188 182 176 169 163 157 151 145 139 133 127 122 116 110 105 99 94 89 84 78 74 69 64 60 55 51 47 43 40 0 0 0 0 0 0 0 0 0 0 0 0 0 0 0 0 0 0 0 0 0 0 0 40 43 47 51 55 60 64 69 74 78 84 89 94 99 105 110 116 122 127 133 139 145 151 157 163 169 176 182 188 195 201 207 214 240 240 240 240 240 240 240 240 240 240 240 240 240 240 240 240 240 240 240 240 240 240 240 240 240 240 0 0 0 0 0
0 0 0 0 0 240 240 240 240 240 240 240 240 240 240 240 240 240 240 240 240 214 208 202 196 189 183 177 171 165 159 153 148 142 136 131 125 120 114 109 104 99 95 90 86 81 77 73 70 66 63 60 57 55 53 51 49 48 47 47 47 47 47 48 49 51 53 55 57 60 63 66 70 73 77 81 86 90 95 99 104 109 114 120 125 131 136 142 148 153 159 165 171 177 183 189 196 202 208 214 240 240 240 240 240 240 240 240 240 240 240 240 240 240 240 240 240 240 240 240 240 240 240 240 240 240 240 240 240 240 240 240 240 240 240 217 211 204 198 191 185 178 172 166 160 153 147 141 135 129 123 117 112 106 100 95 89 84 78 73 68 63 59 54 50 45 41 0 0 0 0 0 0 0 0 0 0 0 0 0 0 0 0 0 0 0 0 0 0 0 0 0 0 0 41 45 50 54 59 63 68 73 78 84 89 95 100 106 112 117 123 129 135 141 147 153 160 166 172 178 185 191 198 204 211 217 240 240 240 240 240 240 240 240 240 240 240 240 240 240 240 240 240 240 240 240 240 240 240 240 240 0 0 0 0 0
0 0 0 0 0 240 240 240 240 240 240 240 240 240 240 240 240 240 240 240 217 211 205 198 192 186 180 173 167 161 155 149 143 137 132 126 120 115 110 104 99 94 89 84 80 76 71 67 63 60 56 53 51 48 46 44 42 41 40 40 0 40 40 41 42 44 46 48 51 53 56 60 63 67 71 76 80 84 89 94 99 104 110 115 120 126 132 137 143 149 155 161 167 173 180 186 192 198 205 211 217 240 240 240 240 240 240 240 240 240 240 240 240 240 240 240 240 240 240 240 240 240 240 240 240 240 240 240 240 240 240 240 240 240 240 214 207 201 194 188 181 175 169 162 156 150 144 137 131 125 119 113 107 101 96 90 84 79 74 68 63 58 53 48 44 0 0 0 0 0 0 0 0 0 0 0 0 0 0 0 0 0 0 0 0 0 0 0 0 0 0 0 0 0 0 0 44 48 53 58 63 68 74 79 84 90 96 101 107 113 119 125 131 137 144 150 156 162 169 175 181 188 194 201 207 214 240 240 240 240 240 240 240 240 240 240 240 240 240 240 240 240 240 240 240 240 240 240 240 240 240 0 0 0 0 0
0 0 0 0 0 240 240 240 240 240 240 240 240 240 240 240 240 240 240 240 214 208 201 195 189 182 176 170 163 157 151 145 139 133 127 122 116 110 105 99 94 89 84 79 74 70 65 61 57 54 50 47 44 41 0 0 0 0 0 0 0 0 0 0 0 0 0 41 44 47 50 54 57 61 65 70 74 79 84 89 94 99 105 110 116 122 127 133 139 145 151 157 163 170 176 182 189 195 201 208 214 240 240 240 240 240 240 240 240 240 240 240 240 240 240 240 240 240 240 240 240 240 240 240 240 240 240 240 240 240 240 240 240 240 218 211 205 198 191 185 178 172 165 159 153 146 140 134 127 121 115 109 103 97 91 86 80 74 69 63 58 53 48 43 0 0 0 0 0 0 0 0 0 0 0 0 0 0 0 0 0 0 0 0 0 0 0 0 0 0 0 0 0 0 0 0 0 43 48 53 58 63 69 74 80 86 91 97 103 109 115 121 127 134 140 146 153 159 165 172 178 185 191 198 205 211 218 240 240 240 240 240 240 240 240 240 240 240 240 240 240 240 240 240 240 240 240 240 240 240 240 0 0 0 0 0
0 0 0 0 0 240 240 240 240 240 240 240 240 240 240 240 240 240 240 218 211 205 198 192 185 179 172 166 160 154 147 141 135 129 123 117 112 106 100 95 89 84 79 74 69 64 60 55 51 47 44 40 0 0 0 0 0 0 0 0 0 0 0 0 0 0 0 0 0 40 44 47 51 55 60 64 69 74 79 84 89 95 100 106 112 117 123 129 135 141 147 154 160 166 172 179 185 192 198 205 211 218 240 240 240 240 240 240 240 240 240 240 240 240 240 240 240 240 240 240 240 240 240 240 240 240 240 240 240 240 240 240 240 240 215 208 202 195 189 182 175 169 162 156 149 143 136 130 124 118 111 105 99 93 87 81 76 70 64 59 53 48 43 0 0 0 0 0 0 0 0 0 0 0 0 0 0 0 0 0 0 0 0 0 0 0 0 0 0 0 0 0 0 0 0 0 0 0 43 48 53 59 64 70 76 81 87 93 99 105 111 118 124 130 136 143 149 156 162 169 175 182 189 195 202 208 215 240 240 240 240 240 240 240 240 240 240 240 240 240 240 240 240 240 240 240 240 240 240 240 240 0 0 0 0 0
0 0 0 0 0 240 240 240 240 240 240 240 240 240 240 240 240 240 240 215 208 202 195 189 182 176 169 163 156 150 144 138 131 125 119 113 107 101 96 90 84 79 74 69 64 59 54 50 45 41 0 0 0 0 0 0 0 0 0 0 0 0 0 0 0 0 0 0 0 0 0 41 45 50 54 59 64 69 74 79 84 90 96 101 107 113 119 125 131 138 144 150 156 163 169 176 182 189 195 202 208 215 240 240 240 240 240 240 240 240 240 240 240 240 240 240 240 240 240 240 240 240 240 240 240 240 240 240 240 240 240 240 240 219 213 206 199 192 186 179 172 166 159 153 146 140 133 127 120 114 108 102 95 89 83 77 71 65 60 54 48 43 0 0 0 0 0 0 0 0 0 0 0 0 0 0 0 0 0 0 0 0 0 0 0 0 0 0 0 0 0 0 0 0 0 0 0 0 0 43 48 54 60 65 71 77 83 89 95 102 108 114 120 127 133 140 146 153 159 166 172 179 186 192 199 206 213 219 240 240 240 240 240 240 240 240 240 240 240 240 240 240 240 240 240 240 240 240 240 240 240 0 0 0 0 0
0 0 0 0 0 240 240 240 240 240 240 240 240 240 240 240 240 240 219 212 206 199 192 186 179 173 166 160 153 147 140 134 128 121 115 109 103 97 91 86 80 74 69 64 58 53 49 44 0 0 0 0 0 0 0 0 0 0 0 0 0 0 0 0 0 0 0 0 0 0 0 0 0 44 49 53 58 64 69 74 80 86 91 97 103 109 115 121 128 134 140 147 153 160 166 173 179 186 192 199 206 212 219 240 240 240 240 240 240 240 240 240 240 240 240 240 240 240 240 240 240 240 240 240 240 240 240 240 240 240 240 240 240 217 210 203 197 190 183 176 170 163 156 150 143 137 130 124 117 111 104 98 92 85 79 73 67 61 55 50 44 0 0 0 0 0 0 0 0 0 0 0 0 0 0 0 0 0 0 0 0 0 0 0 0 0 0 0 0 0 0 0 0 0 0 0 0 0 0 0 44 50 55 61 67 73 79 85 92 98 104 111 117 124 130 137 143 150 156 163 170 176 183 190 197 203 210 217 240 240 240 240 240 240 240 240 240 240 240 240 240 240 240 240 240 240 240 240 240 240 240 0 0 0 0 0
0 0 0 0 0 240 240 240 240 240 240 240 240 240 240 240 240 240 217 210 203 196 190 183 176 170 163 156 150 143 137 131 124 118 112 105 99 93 87 81 76 70 64 59 53 48 43 0 0 0 0 0 0 0 0 0 0 0 0 0 0 0 0 0 0 0 0 0 0 0 0 0 0 0 43 48 53 59 64 70 76 81 87 93 99 105 112 118 124 131 137 143 150 156 163 170 176 183 190 196 203 210 217 240 240 240 240 240 240 240 240 240 240 240 240 240 240 240 240 240 240 240 240 240 240 240 240 240 240 240 240 240 240 215 208 201 194 187 181 174 167 160 154 147 140 134 127 120 114 107 101 95 88 82 76 69 63 57 51 45 0 0 0 0 0 0 0 0 0 0 0 0 0 0 0 0 0 0 0 0 0 0 0 0 0 0 0 0 0 0 0 0 0 0 0 0 0 0 0 0 0 45 51 57 63 69 76 82 88 95 101 107 114 120 127 134 140 147 154 160 167 174 181 187 194 201 208 215 240 240 240 240 240 240 240 240 240 240 240 240 240 240 240 240 240 240 240 240 240 240 240 0 0 0 0 0
0 0 0 0 0 240 240 240 240 240 240 240 240 240 240 240 240 240 214 207 201 194 187 180 174 167 160 154 147 140 134 127 121 114 108 102 96 89 83 77 71 65 60 54 49 43 0 0 0 0 0 0 0 0 0 0 0 0 0 0 0 0 0 0 0 0 0 0 0 0 0 0 0 0 0 43 49 54 60 65 71 77 83 89 96 102 108 114 121 127 134 140 147 154 160 167 174 180 187 194 201 207 214 240 240 240 240 240 240 240 240 240 240 240 240 240 240 240 240 240 240 240 240 240 240 240 240 240 240 240 240 240 220 213 206 199 192 185 178 171 165 158 151 144 138 131 124 118 111 104 98 91 85 78 72 66 60 53 47 41 0 0 0 0 0 0 0 0 0 0 0 0 0 0 0 0 0 0 0 0 0 0 0 0 0 0 0 0 0 0 0 0 0 0 0 0 0 0 0 0 0 41 47 53 60 66 72 78 85 91 98 104 111 118 124 131 138 144 151 158 165 171 178 185 192 199 206 213 220 240 240 240 240 240 240 240 240 240 240 240 240 240 240 240 240 240 240 240 240 240 240 0 0 0 0 0
0 0 0 0 0 240 240 240 240 240 240 240 240 240 240 240 240 219 212 205 198 191 185 178 171 164 158 151 144 138 131 124 118 111 105 98 92 86 79 73 67 61 55 50 44 0 0 0 0 0 0 0 0 0 0 0 0 0 0 0 0 0 0 0 0 0 0 0 0 0 0 0 0 0 0 0 44 50 55 61 67 73 79 86 92 98 105 111 118 124 131 138 144 151 158 164 171 178 185 191 198 205 212 219 240 240 240 240 240 240 240 240 240 240 240 240 240 240 240 240 240 240 240 240 240 240 240 240 240 240 240 240 218 211 204 197 190 183 176 169 162 155 149 142 135 128 122 115 108 102 95 88 82 75 69 62 56 50 43 0 0 0 0 0 0 0 0 0 0 0 0 0 0 0 0 0 0 0 0 0 0 0 0 0 0 0 0 0 0 0 0 0 0 0 0 0 0 0 0 0 0 0 43 50 56 62 69 75 82 88 95 102 108 115 122 128 135 142 149 155 162 169 176 183 190 197 204 211 218 240 240 240 240 240 240 240 240 240 240 240 240 240 240 240 240 240 240 240 240 240 240 0 0 0 0 0
0 0 0 0 0 240 240 240 240 240 240 240 240 240 240 240 240 217 210 203 196 189 182 176 169 162 155 148 142 135 128 121 115 108 102 95 89 82 76 70 63 57 51 45 0 0 0 0 0 0 0 0 0 0 0 0 0 0 0 0 0 0 0 0 0 0 0 0 0 0 0 0 0 0 0 0 0 45 51 57 63 70 76 82 89 95 102 108 115 121 128 135 142 148 155 162 169 176 182 189 196 203 210 217 240 240 240 240 240 240 240 240 240 240 240 240 240 240 240 240 240 240 240 240 240 240 240 240 240 240 240 240 216 209 202 195 188 181 174 167 160 153 146 140 133 126 119 112 106 99 92 85 79 72 66 59 53 46 40 0 0 0 0 0 0 0 0 0 0 0 0 0 0 0 0 0 0 0 0 0 0 0 0 0 0 0 0 0 0 0 0 0 0 0 0 0 0 0 0 0 0 0 40 46 53 59 66 72 79 85 92 99 106 112 119 126 133 140 146 153 160 167 174 181 188 195 202 209 216 240 240 240 240 240 240 240 240 240 240 240 240 240 240 240 240 240 240 240 240 240 240 0 0 0 0 0
0 0 0 0 0 240 240 240 240 240 240 240 240 240 240 240 240 215 208 201 194 187 180 173 167 160 153 146 139 132 126 119 112 105 99 92 86 79 73 66 60 54 47 41 0 0 0 0 0 0 0 0 0 0 0 0 0 0 0 0 0 0 0 0 0 0 0 0 0 0 0 0 0 0 0 0 0 41 47 54 60 66 73 79 86 92 99 105 112 119 126 132 139 146 153 160 167 173 180 187 194 201 208 215 240 240 240 240 240 240 240 240 240 240 240 240 240 240 240 240 240 240 240 240 240 240 240 240 240 240 240 240 214 207 200 193 186 179 172 165 158 151 144 137 131 124 117 110 103 96 90 83 76 69 63 56 50 43 0 0 0 0 0 0 0 0 0 0 0 0 0 0 0 0 0 0 0 0 0 0 0 0 0 0 0 0 0 0 0 0 0 0 0 0 0 0 0 0 0 0 0 0 0 43 50 56 63 69 76 83 90 96 103 110 117 124 131 137 144 151 158 165 172 179 186 193 200 207 214 240 240 240 240 240 240 240 240 240 240 240 240 240 240 240 240 240 240 240 240 240 240 0 0 0 0 0
0 0 0 0 0 240 240 240 240 240 240 240 240 240 240 240 240 213 206 199 192 185 178 171 165 158 151 144 137 130 123 116 110 103 96 89 83 76 69 63 56 50 44 0 0 0 0 0 0 0 0 0 0 0 0 0 0 0 0 0 0 0 0 0 0 0 0 0 0 0 0 0 0 0 0 0 0 0 44 50 56 63 69 76 83 89 96 103 110 116 123 130 137 144 151 158 165 171 178 185 192 199 206 213 240 240 240 240 240 240 240 240 240 240 240 240 240 240 240 240 240 240 240 240 240 240 240 240 240 240 240 240 213 205 198 191 184 177 170 163 156 149 142 135 129 122 115 108 101 94 87 80 74 67 60 53 47 40 0 0 0 0 0 0 0 0 0 0 0 0 0 0 0 0 0 0 0 0 0 0 0 0 0 0 0 0 0 0 0 0 0 0 0 0 0 0 0 0 0 0 0 0 0 40 47 53 60 67 74 80 87 94 101 108 115 122 129 135 142 149 156 163 170 177 184 191 198 205 213 240 240 240 240 240 240 240 240 240 240 240 240 240 240 240 240 240 240 240 240 240 240 0 0 0 0 0
0 0 0 0 0 240 240 240 240 240 240 240 240 240 240 240 219 212 205 198 191 184 177 170 163 156 149 142 135 128 121 114 107 100 94 87 80 73 67 60 53 47 40 0 0 0 0 0 0 0 0 0 0 0 0 0 0 0 0 0 0 0 0 0 0 0 0 0 0 0 0 0 0 0 0 0 0 0 40 47 53 60 67 73 80 87 94 100 107 114 121 128 135 142 149 156 163 170 177 184 191 198 205 212 219 240 240 240 240 240 240 240 240 240 240 240 240 240 240 240 240 240 240 240 240 240 240 240 240 240 240 218 211 204 197 190 183 176 169 162 155 148 141 134 127 120 113 106 99 92 85 78 71 64 58 51 44 0 0 0 0 0 0 0 0 0 0 0 0 0 0 0 0 0 0 0 0 0 0 0 0 0 0 0 0 0 0 0 0 0 0 0 0 0 0 0 0 0 0 0 0 0 0 0 44 51 58 64 71 78 85 92 99 106 113 120 127 134 141 148 155 162 169 176 183 190 197 204 211 218 240 240 240 240 240 240 240 240 240 240 240 240 240 240 240 240 240 240 240 240 240 0 0 0 0 0
0 0 0 0 0 240 240 240 240 240 240 240 240 240 240 240 217 210 203 196 189 182 175 168 161 154 147 140 133 126 119 112 105 98 91 84 78 71 64 57 51 44 0 0 0 0 0 0 0 0 0 0 0 0 0 0 0 0 0 0 0 0 0 0 0 0 0 0 0 0 0 0 0 0 0 0 0 0 0 44 51 57 64 71 78 84 91 98 105 112 119 126 133 140 147 154 161 168 175 182 189 196 203 210 217 240 240 240 240 240 240 240 240 240 240 240 240 240 240 240 240 240 240 240 240 240 240 240 240 240 240 217 210 203 196 189 181 174 167 160 153 146 139 132 125 118 111 104 97 90 83 76 69 62 55 48 42 0 0 0 0 0 0 0 0 0 0 0 0 0 0 0 0 0 0 0 0 0 0 0 0 0 0 0 0 0 0 0 0 0 0 0 0 0 0 0 0 0 0 0 0 0 0 0 42 48 55 62 69 76 83 90 97 104 111 118 125 132 139 146 153 160 167 174 181 189 196 203 210 217 240 240 240 240 240 240 240 240 240 240 240 240 240 240 240 240 240 240 240 240 240 0 0 0 0 0
0 0 0 0 0 240 240 240 240 240 240 240 240 240 240 240 216 209 202 195 188 181 174 167 160 152 145 138 131 124 117 110 103 96 89 82 76 69 62 55 48 41 0 0 0 0 0 0 0 0 0 0 0 0 0 0 0 0 0 0 0 0 0 0 0 0 0 0 0 0 0 0 0 0 0 0 0 0 0 41 48 55 62 69 76 82 89 96 103 110 117 124 131 138 145 152 160 167 174 181 188 195 202 209 216 240 240 240 240 240 240 240 240 240 240 240 240 240 240 240 240 240 240 240 240 240 240 240 240 240 240 216 209 202 195 187 180 173 166 159 152 145 138 131 124 116 109 102 95 88 81 74 67 60 53 46 0 0 0 0 0 0 0 0 0 0 0 0 0 0 0 0 0 0 0 0 0 0 0 0 0 0 0 0 0 0 0 0 0 0 0 0 0 0 0 0 0 0 0 0 0 0 0 0 0 46 53 60 67 74 81 88 95 102 109 116 124 131 138 145 152 159 166 173 180 187 195 202 209 216 240 240 240 240 240 240 240 240 240 240 240 240 240 240 240 240 240 240 240 240 240 0 0 0 0 0
0 0 0 0 0 240 240 240 240 240 240 240 240 240 240 240 215 208 201 194 187 180 172 165 158 151 144 137 130 123 116 109 102 95 88 81 74 67 60 53 46 0 0 0 0 0 0 0 0 0 0 0 0 0 0 0 0 0 0 0 0 0 0 0 0 0 0 0 0 0 0 0 0 0 0 0 0 0 0 0 46 53 60 67 74 81 88 95 102 109 116 123 130 137 144 151 158 165 172 180 187 194 201 208 215 240 240 240 240 240 240 240 240 240 240 240 240 240 240 240 240 240 240 240 240 240 240 240 240 240 240 215 208 201 194 186 179 172 165 158 151 144 136 129 122 115 108 101 94 87 80 73 66 59 52 45 0 0 0 0 0 0 0 0 0 0 0 0 0 0 0 0 0 0 0 0 0 0 0 0 0 0 0 0 0 0 0 0 0 0 0 0 0 0 0 0 0 0 0 0 0 0 0 0 0 45 52 59 66 73 80 87 94 101 108 115 122 129 136 144 151 158 165 172 179 186 194 201 208 215 240 240 240 240 240 240 240 240 240 240 240 240 240 240 240 240 240 240 240 240 240 0 0 0 0 0
0 0 0 0 0 240 240 240 240 240 240 240 240 240 240 240 214 207 200 193 186 179 171 164 157 150 143 136 129 122 114 107 100 93 86 79 72 65 58 51 44 0 0 0 0 0 0 0 0 0 0 0 0 0 0 0 0 0 0 0 0 0 0 0 0 0 0 0 0 0 0 0 0 0 0 0 0 0 0 0 44 51 58 65 72 79 86 93 100 107 114 122 129 136 143 150 157 164 171 179 186 193 200 207 214 240 240 240 240 240 240 240 240 240 240 240 240 240 240 240 240 240 240 240 240 240 240 240 240 240 240 214 207 200 193 185 178 171 164 157 150 143 135 128 121 114 107 100 93 86 78 71 64 57 50 43 0 0 0 0 0 0 0 0 0 0 0 0 0 0 0 0 0 0 0 0 0 0 0 0 0 0 0 0 0 0 0 0 0 0 0 0 0 0 0 0 0 0 0 0 0 0 0 0 0 43 50 57 64 71 78 86 93 100 107 114 121 128 135 143 150 157 164 171 178 185 193 200 207 214 240 240 240 240 240 240 240 240 240 240 240 240 240 240 240 240 240 240 240 240 240 0 0 0 0 0
0 0 0 0 0 240 240 240 240 240 240 240 240 240 240 240 214 206 199 192 185 178 171 163 156 149 142 135 128 121 113 106 99 92 85 78 71 64 56 49 42 0 0 0 0 0 0 0 0 0 0 0 0 0 0 0 0 0 0 0 0 0 0 0 0 0 0 0 0 0 0 0 0 0 0 0 0 0 0 0 42 49 56 64 71 78 85 92 99 106 113 121 128 135 142 149 156 163 171 178 185 192 199 206 214 240 240 240 240 240 240 240 240 240 240 240 240 240 240 240 240 240 240 240 240 240 240 240 240 240 240 213 206 199 192 185 178 170 163 156 149 142 135 127 120 113 106 99 92 85 77 70 63 56 49 42 0 0 0 0 0 0 0 0 0 0 0 0 0 0 0 0 0 0 0 0 0 0 0 0 0 0 0 0 0 0 0 0 0 0 0 0 0 0 0 0 0 0 0 0 0 0 0 0 0 42 49 56 63 70 77 85 92 99 106 113 120 127 135 142 149 156 163 170 178 185 192 199 206 213 240 240 240 240 240 240 240 240 240 240 240 240 240 240 240 240 240 240 240 240 240 0 0 0 0 0
0 0 0 0 0 240 240 240 240 240 240 240 240 240 240 240 213 206 199 191 184 177 170 163 156 148 141 134 127 120 113 105 98 91 84 77 70 63 55 48 41 0 0 0 0 0 0 0 0 0 0 0 0 0 0 0 0 0 0 0 0 0 0 0 0 0 0 0 0 0 0 0 0 0 0 0 0 0 0 0 41 48 55 63 70 77 84 91 98 105 113 120 127 134 141 148 156 163 170 177 184 191 199 206 213 240 240 240 240 240 240 240 240 240 240 240 240 240 240 240 240 240 240 240 240 240 240 240 240 240 240 213 206 199 191 184 177 170 163 155 148 141 134 127 120 112 105 98 91 84 77 69 62 55 48 41 0 0 0 0 0 0 0 0 0 0 0 0 0 0 0 0 0 0 0 0 0 0 0 0 0 0 0 0 0 0 0 0 0 0 0 0 0 0 0 0 0 0 0 0 0 0 0 0 0 41 48 55 62 69 77 84 91 98 105 112 120 127 134 141 148 155 163 170 177 184 191 199 206 213 240 240 240 240 240 240 240 240 240 240 240 240 240 240 240 240 240 240 240 240 240 0 0 0 0 0
0 0 0 0 0 240 240 240 240 240 240 240 240 240 240 240 213 205 198 191 184 177 169 162 155 148 141 134 126 119 112 105 98 90 83 76 69 62 55 47 40 0 0 0 0 0 0 0 0 0 0 0 0 0 0 0 0 0 0 0 0 0 0 0 0 0 0 0 0 0 0 0 0 0 0 0 0 0 0 0 40 47 55 62 69 76 83 90 98 105 112 119 126 134 141 148 155 162 169 177 184 191 198 205 213 240 240 240 240 240 240 240 240 240 240 240 240 240 240 240 240 240 240 240 240 240 240 240 240 240 240 213 205 198 191 184 177 169 162 155 148 141 133 126 119 112 105 98 90 83 76 69 62 54 47 40 0 0 0 0 0 0 0 0 0 0 0 0 0 0 0 0 0 0 0 0 0 0 0 0 0 0 0 0 0 0 0 0 0 0 0 0 0 0 0 0 0 0 0 0 0 0 0 0 0 40 47 54 62 69 76 83 90 98 105 112 119 126 133 141 148 155 162 169 177 184 191 198 205 213 240 240 240 240 240 240 240 240 240 240 240 240 240 240 240 240 240 240 240 240 240 0 0 0 0 0
0 0 0 0 0 240 240 240 240 240 240 240 240 240 240 240 212 205 198 191 184 176 169 162 155 148 140 133 126 119 112 104 97 90 83 76 68 61 54 47 40 0 0 0 0 0 0 0 0 0 0 0 0 0 0 0 0 0 0 0 0 0 0 0 0 0 0 0 0 0 0 0 0 0 0 0 0 0 0 0 40 47 54 61 68 76 83 90 97 104 112 119 126 133 140 148 155 162 169 176 184 191 198 205 212 240 240 240 240 240 240 240 240 240 240 240 240 240 240 240 240 240 240 240 240 240 240 240 240 240 240 212 205 198 191 184 176 169 162 155 148 140 133 126 119 112 104 97 90 83 76 68 61 54 47 40 0 0 0 0 0 0 0 0 0 0 0 0 0 0 0 0 0 0 0 0 0 0 0 0 0 0 0 0 0 0 0 0 0 0 0 0 0 0 0 0 0 0 0 0 0 0 0 0 0 40 47 54 61 68 76 83 90 97 104 112 119 126 133 140 148 155 162 169 176 184 191 198 205 212 240 240 240 240 240 240 240 240 240 240 240 240 240 240 240 240 240 240 240 240 240 0 0 0 0 0
0 0 0 0 0 240 240 240 240 240 240 240 240 240 240 220 212 205 198 191 184 176 169 162 155 148 140 133 126 119 112 104 97 90 83 76 68 61 54 47 0 0 0 0 0 0 0 0 0 0 0 0 0 0 0 0 0 0 0 0 0 0 0 0 0 0 0 0 0 0 0 0 0 0 0 0 0 0 0 0 0 47 54 61 68 76 83 90 97 104 112 119 126 133 140 148 155 162 169 176 184 191 198 205 212 220 240 240 240 240 240 240 240 240 240 240 240 240 240 240 240 240 240 240 240 240 240 240 240 240 220 212 205 198 191 184 176 169 162 155 148 140 133 126 119 112 104 97 90 83 76 68 61 54 47 0 0 0 0 0 0 0 0 0 0 0 0 0 0 0 0 0 0 0 0 0 0 0 0 0 0 0 0 0 0 0 0 0 0 0 0 0 0 0 0 0 0 0 0 0 0 0 0 0 0 0 47 54 61 68 76 83 90 97 104 112 119 126 133 140 148 155 162 169 176 184 191 198 205 212 220 240 240 240 240 240 240 240 240 240 240 240 240 240 240 240 240 240 240 240 240 0 0 0 0 0
0 0 0 0 0 240 240 240 240 240 240 240 240 240 240 240 212 205 198 191 184 176 169 162 155 148 140 133 126 119 112 104 97 90 83 76 68 61 54 47 40 0 0 0 0 0 0 0 0 0 0 0 0 0 0 0 0 0 0 0 0 0 0 0 0 0 0 0 0 0 0 0 0 0 0 0 0 0 0 0 40 47 54 61 68 76 83 90 97 104 112 119 126 133 140 148 155 162 169 176 184 191 198 205 212 240 240 240 240 240 240 240 240 240 240 240 240 240 240 240 240 240 240 240 240 240 240 240 240 240 240 212 205 198 191 184 176 169 162 155 148 140 133 126 119 112 104 97 90 83 76 68 61 54 47 40 0 0 0 0 0 0 0 0 0 0 0 0 0 0 0 0 0 0 0 0 0 0 0 0 0 0 0 0 0 0 0 0 0 0 0 0 0 0 0 0 0 0 0 0 0 0 0 0 0 40 47 54 61 68 76 83 90 97 104 112 119 126 133 140 148 155 162 169 176 184 191 198 205 212 240 240 240 240 240 240 240 240 240 240 240 240 240 240 240 240 240 240 240 240 240 0 0 0 0 0
0 0 0 0 0 240 240 240 240 240 240 240 240 240 240 240 213 205 198 191 184 177 169 162 155 148 141 134 126 119 112 105 98 90 83 76 69 62 55 47 40 0 0 0 0 0 0 0 0 0 0 0 0 0 0 0 0 0 0 0 0 0 0 0 0 0 0 0 0 0 0 0 0 0 0 0 0 0 0 0 40 47 55 62 69 76 83 90 98 105 112 119 126 134 141 148 155 162 169 177 184 191 198 205 213 240 240 240 240 240 240 240 240 240 240 240 240 240 240 240 240 240 240 240 240 240 240 240 240 240 240 213 205 198 191 184 177 169 162 155 148 141 133 126 119 112 105 98 90 83 76 69 62 54 47 40 0 0 0 0 0 0 0 0 0 0 0 0 0 0 0 0 0 0 0 0 0 0 0 0 0 0 0 0 0 0 0 0 0 0 0 0 0 0 0 0 0 0 0 0 0 0 0 0 0 40 47 54 62 69 76 83 90 98 105 112 119 126 133 141 148 155 162 169 177 184 191 198 205 213 240 240 240 240 240 240 240 240 240 240 240 240 240 240 240 240 240 240 240 240 240 0 0 0 0 0
0 0 0 0 0 240 240 240 240 240 240 240 240 240 240 240 213 206 199 191 184 177 170 163 156 148 141 134 127 120 113 105 98 91 84 77 70 63 55 48 41 0 0 0 0 0 0 0 0 0 0 0 0 0 0 0 0 0 0 0 0 0 0 0 0 0 0 0 0 0 0 0 0 0 0 0 0 0 0 0 41 48 55 63 70 77 84 91 98 105 113 120 127 134 141 148 156 163 170 177 184 191 199 206 213 240 240 240 240 240 240 240 240 240 240 240 240 240 240 240 240 240 240 240 240 240 240 240 240 240 240 213 206 199 191 184 177 170 163 155 148 141 134 127 120 112 105 98 91 84 77 69 62 55 48 41 0 0 0 0 0 0 0 0 0 0 0 0 0 0 0 0 0 0 0 0 0 0 0 0 0 0 0 0 0 0 0 0 0 0 0 0 0 0 0 0 0 0 0 0 0 0 0 0 0 41 48 55 62 69 77 84 91 98 105 112 120 127 134 141 148 155 163 170 177 184 191 199 206 213 240 240 240 240 240 240 240 240 240 240 240 240 240 240 240 240 240 240 240 240 240 0 0 0 0 0
0 0 0 0 0 240 240 240 240 240 240 240 240 240 240 240 214 206 199 192 185 178 171 163 156 149 142 135 128 121 113 106 99 92 85 78 71 64 56 49 42 0 0 0 0 0 0 0 0 0 0 0 0 0 0 0 0 0 0 0 0 0 0 0 0 0 0 0 0 0 0 0 0 0 0 0 0 0 0 0 42 49 56 64 71 78 85 92 99 106 113 121 128 135 142 149 156 163 171 178 185 192 199 206 214 240 240 240 240 240 240 240 240 240 240 240 240 240 240 240 240 240 240 240 240 240 240 240 240 240 240 213 206 199 192 185 178 170 163 156 149 142 135 127 120 113 106 99 92 85 77 70 63 56 49 42 0 0 0 0 0 0 0 0 0 0 0 0 0 0 0 0 0 0 0 0 0 0 0 0 0 0 0 0 0 0 0 0 0 0 0 0 0 0 0 0 0 0 0 0 0 0 0 0 0 42 49 56 63 70 77 85 92 99 106 113 120 127 135 142 149 156 163 170 178 185 192 199 206 213 240 240 240 240 240 240 240 240 240 240 240 240 240 240 240 240 240 240 240 240 240 0 0 0 0 0
0 0 0 0 0 240 240 240 240 240 240 240 240 240 240 240 214 207 200 193 186 179 171 164 157 150 143 136 129 122 114 107 100 93 86 79 72 65 58 51 44 0 0 0 0 0 0 0 0 0 0 0 0 0 0 0 0 0 0 0 0 0 0 0 0 0 0 0 0 0 0 0 0 0 0 0 0 0 0 0 44 51 58 65 72 79 86 93 100 107 114 122 129 136 143 150 157 164 171 179 186 193 200 207 214 240 240 240 240 240 240 240 240 240 240 240 240 240 240 240 240 240 240 240 240 240 240 240 240 240 240 214 207 200 193 185 178 171 164 157 150 143 135 128 121 114 107 100 93 86 78 71 64 57 50 43 0 0 0 0 0 0 0 0 0 0 0 0 0 0 0 0 0 0 0 0 0 0 0 0 0 0 0 0 0 0 0 0 0 0 0 0 0 0 0 0 0 0 0 0 0 0 0 0 0 43 50 57 64 71 78 86 93 100 107 114 121 128 135 143 150 157 164 171 178 185 193 200 207 214 240 240 240 240 240 240 240 240 240 240 240 240 240 240 240 240 240 240 240 240 240 0 0 0 0 0
0 0 0 0 0 240 240 240 240 240 240 240 240 240 240 240 215 208 201 194 187 180 172 165 158 151 144 137 130 123 116 109 102 95 88 81 74 67 60 53 46 0 0 0 0 0 0 0 0 0 0 0 0 0 0 0 0 0 0 0 0 0 0 0 0 0 0 0 0 0 0 0 0 0 0 0 0 0 0 0 46 53 60 67 74 81 88 95 102 109 116 123 130 137 144 151 158 165 172 180 187 194 201 208 215 240 240 240 240 240 240 240 240 240 240 240 240 240 240 240 240 240 240 240 240 240 240 240 240 240 240 215 208 201 194 186 179 172 165 158 151 144 136 129 122 115 108 101 94 87 80 73 66 59 52 45 0 0 0 0 0 0 0 0 0 0 0 0 0 0 0 0 0 0 0 0 0 0 0 0 0 0 0 0 0 0 0 0 0 0 0 0 0 0 0 0 0 0 0 0 0 0 0 0 0 45 52 59 66 73 80 87 94 101 108 115 122 129 136 144 151 158 165 172 179 186 194 201 208 215 240 240 240 240 240 240 240 240 240 240 240 240 240 240 240 240 240 240 240 240 240 0 0 0 0 0
0 0 0 0 0 240 240 240 240 240 240 240 240 240 240 240 216 209 202 195 188 181 174 167 160 152 145 138 131 124 117 110 103 96 89 82 76 69 62 55 48 41 0 0 0 0 0 0 0 0 0 0 0 0 0 0 0 0 0 0 0 0 0 0 0 0 0 0 0 0 0 0 0 0 0 0 0 0 0 41 48 55 62 69 76 82 89 96 103 110 117 124 131 138 145 152 160 167 174 181 188 195 202 209 216 240 240 240 240 240 240 240 240 240 240 240 240 240 240 240 240 240 240 240 240 240 240 240 240 240 240 216 209 202 195 187 180 173 166 159 152 145 138 131 124 116 109 102 95 88 81 74 67 60 53 46 0 0 0 0 0 0 0 0 0 0 0 0 0 0 0 0 0 0 0 0 0 0 0 0 0 0 0 0 0 0 0 0 0 0 0 0 0 0 0 0 0 0 0 0 0 0 0 0 0 46 53 60 67 74 81 88 95 102 109 116 124 131 138 145 152 159 166 173 180 187 195 202 209 216 240 240 240 240 240 240 240 240 240 240 240 240 240 240 240 240 240 240 240 240 240 0 0 0 0 0
0 0 0 0 0 240 240 240 240 240 240 240 240 240 240 240 217 210 203 196 189 182 175 168 161 154 147 140 133 126 119 112 105 98 91 84 78 71 64 57 51 44 0 0 0 0 0 0 0 0 0 0 0 0 0 0 0 0 0 0 0 0 0 0 0 0 0 0 0 0 0 0 0 0 0 0 0 0 0 44 51 57 64 71 78 84 91 98 105 112 119 126 133 140 147 154 161 168 175 182 189 196 203 210 217 240 240 240 240 240 240 240 240 240 240 240 240 240 240 240 240 240 240 240 240 240 240 240 240 240 240 217 210 203 196 189 181 174 167 160 153 146 139 132 125 118 111 104 97 90 83 76 69 62 55 48 42 0 0 0 0 0 0 0 0 0 0 0 0 0 0 0 0 0 0 0 0 0 0 0 0 0 0 0 0 0 0 0 0 0 0 0 0 0 0 0 0 0 0 0 0 0 0 0 42 48 55 62 69 76 83 90 97 104 111 118 125 132 139 146 153 160 167 174 181 189 196 203 210 217 240 240 240 240 240 240 240 240 240 240 240 240 240 240 240 240 240 240 240 240 240 0 0 0 0 0
0 0 0 0 0 240 240 240 240 240 240 240 240 240 240 240 219 212 205 198 191 184 177 170 163 156 149 142 135 128 121 114 107 100 94 87 80 73 67 60 53 47 40 0 0 0 0 0 0 0 0 0 0 0 0 0 0 0 0 0 0 0 0 0 0 0 0 0 0 0 0 0 0 0 0 0 0 0 40 47 53 60 67 73 80 87 94 100 107 114 121 128 135 142 149 156 163 170 177 184 191 198 205 212 219 240 240 240 240 240 240 240 240 240 240 240 240 240 240 240 240 240 240 240 240 240 240 240 240 240 240 218 211 204 197 190 183 176 169 162 155 148 141 134 127 120 113 106 99 92 85 78 71 64 58 51 44 0 0 0 0 0 0 0 0 0 0 0 0 0 0 0 0 0 0 0 0 0 0 0 0 0 0 0 0 0 0 0 0 0 0 0 0 0 0 0 0 0 0 0 0 0 0 0 44 51 58 64 71 78 85 92 99 106 113 120 127 134 141 148 155 162 169 176 183 190 197 204 211 218 240 240 240 240 240 240 240 240 240 240 240 240 240 240 240 240 240 240 240 240 240 0 0 0 0 0
0 0 0 0 0 240 240 240 240 240 240 240 240 240 240 240 240 213 206 199 192 185 178 171 165 158 151 144 137 130 123 116 110 103 96 89 83 76 69 63 56 50 44 0 0 0 0 0 0 0 0 0 0 0 0 0 0 0 0 0 0 0 0 0 0 0 0 0 0 0 0 0 0 0 0 0 0 0 44 50 56 63 69 76 83 89 96 103 110 116 123 130 137 144 151 158 165 171 178 185 192 199 206 213 240 240 240 240 240 240 240 240 240 240 240 240 240 240 240 240 240 240 240 240 240 240 240 240 240 240 240 240 213 205 198 191 184 177 170 163 156 149 142 135 129 122 115 108 101 94 87 80 74 67 60 53 47 40 0 0 0 0 0 0 0 0 0 0 0 0 0 0 0 0 0 0 0 0 0 0 0 0 0 0 0 0 0 0 0 0 0 0 0 0 0 0 0 0 0 0 0 0 0 40 47 53 60 67 74 80 87 94 101 108 115 122 129 135 142 149 156 163 170 177 184 191 198 205 213 240 240 240 240 240 240 240 240 240 240 240 240 240 240 240 240 240 240 240 240 240 240 0 0 0 0 0
0 0 0 0 0 240 240 240 240 240 240 240 240 240 240 240 240 215 208 201 194 187 180 173 167 160 153 146 139 132 126 119 112 105 99 92 86 79 73 66 60 54 47 41 0 0 0 0 0 0 0 0 0 0 0 0 0 0 0 0 0 0 0 0 0 0 0 0 0 0 0 0 0 0 0 0 0 41 47 54 60 66 73 79 86 92 99 105 112 119 126 132 139 146 153 160 167 173 180 187 194 201 208 215 240 240 240 240 240 240 240 240 240 240 240 240 240 240 240 240 240 240 240 240 240 240 240 240 240 240 240 240 214 207 200 193 186 179 172 165 158 151 144 137 131 124 117 110 103 96 90 83 76 69 63 56 50 43 0 0 0 0 0 0 0 0 0 0 0 0 0 0 0 0 0 0 0 0 0 0 0 0 0 0 0 0 0 0 0 0 0 0 0 0 0 0 0 0 0 0 0 0 0 43 50 56 63 69 76 83 90 96 103 110 117 124 131 137 144 151 158 165 172 179 186 193 200 207 214 240 240 240 240 240 240 240 240 240 240 240 240 240 240 240 240 240 240 240 240 240 240 0 0 0 0 0
0 0 0 0 0 240 240 240 240 240 240 240 240 240 240 240 240 217 210 203 196 189 182 176 169 162 155 148 142 135 128 121 115 108 102 95 89 82 76 70 63 57 51 45 0 0 0 0 0 0 0 0 0 0 0 0 0 0 0 0 0 0 0 0 0 0 0 0 0 0 0 0 0 0 0 0 0 45 51 57 63 70 76 82 89 95 102 108 115 121 128 135 142 148 155 162 169 176 182 189 196 203 210 217 240 240 240 240 240 240 240 240 240 240 240 240 240 240 240 240 240 240 240 240 240 240 240 240 240 240 240 240 216 209 202 195 188 181 174 167 160 153 146 140 133 126 119 112 106 99 92 85 79 72 66 59 53 46 40 0 0 0 0 0 0 0 0 0 0 0 0 0 0 0 0 0 0 0 0 0 0 0 0 0 0 0 0 0 0 0 0 0 0 0 0 0 0 0 0 0 0 0 40 46 53 59 66 72 79 85 92 99 106 112 119 126 133 140 146 153 160 167 174 181 188 195 202 209 216 240 240 240 240 240 240 240 240 240 240 240 240 240 240 240 240 240 240 240 240 240 240 0 0 0 0 0
0 0 0 0 0 240 240 240 240 240 240 240 240 240 240 240 240 219 212 205 198 191 185 178 171 164 158 151 144 138 131 124 118 111 105 98 92 86 79 73 67 61 55 50 44 0 0 0 0 0 0 0 0 0 0 0 0 0 0 0 0 0 0 0 0 0 0 0 0 0 0 0 0 0 0 0 44 50 55 61 67 73 79 86 92 98 105 111 118 124 131 138 144 151 158 164 171 178 185 191 198 205 212 219 240 240 240 240 240 240 240 240 240 240 240 240 240 240 240 240 240 240 240 240 240 240 240 240 220 240 240 240 218 211 204 197 190 183 176 169 162 155 149 142 135 128 122 115 108 102 95 88 82 75 69 62 56 50 43 0 0 0 0 0 0 0 0 0 0 0 0 0 0 0 0 0 0 0 0 0 0 0 0 0 0 0 0 0 0 0 0 0 0 0 0 0 0 0 0 0 0 0 43 50 56 62 69 75 82 88 95 102 108 115 122 128 135 142 149 155 162 169 176 183 190 197 204 211 218 240 240 240 240 240 240 240 240 240 240 240 240 240 240 240 240 240 240 240 240 240 240 0 0 0 0 0
0 0 0 0 0 240 240 240 240 240 240 240 240 240 240 240 240 240 214 207 201 194 187 180 174 167 160 154 147 140 134 127 121 114 108 102 96 89 83 77 71 65 60 54 49 43 0 0 0 0 0 0 0 0 0 0 0 0 0 0 0 0 0 0 0 0 0 0 0 0 0 0 0 0 0 43 49 54 60 65 71 77 83 89 96 102 108 114 121 127 134 140 147 154 160 167 174 180 187 194 201 207 214 240 240 240 240 240 240 240 240 240 240 240 240 240 240 240 219 218 217 216 215 214 213 213 213 212 212 212 213 213 213 213 206 199 192 185 178 171 165 158 151 144 138 131 124 118 111 104 98 91 85 78 72 66 60 53 47 41 0 0 0 0 0 0 0 0 0 0 0 0 0 0 0 0 0 0 0 0 0 0 0 0 0 0 0 0 0 0 0 0 0 0 0 0 0 0 0 0 0 41 47 53 60 66 72 78 85 91 98 104 111 118 124 131 138 144 151 158 165 171 178 185 192 199 206 213 220 240 240 240 240 240 240 240 240 240 240 240 240 240 240 240 240 240 240 240 240 240 240 0 0 0 0 0
0 0 0 0 0 240 240 240 240 240 240 240 240 240 240 240 240 240 217 210 203 196 190 183 176 170 163 156 150 143 137 131 124 118 112 105 99 93 87 81 76 70 64 59 53 48 43 0 0 0 0 0 0 0 0 0 0 0 0 0 0 0 0 0 0 0 0 0 0 0 0 0 0 0 43 48 53 59 64 70 76 81 87 93 99 105 112 118 124 131 137 143 150 156 163 170 176 183 190 196 203 210 217 240 240 240 240 240 240 240 240 240 240 240 218 216 215 213 212 211 209 208 208 207 206 206 205 205 205 205 205 206 206 207 208 201 194 187 181 174 167 160 154 147 140 134 127 120 114 107 101 95 88 82 76 69 63 57 51 45 0 0 0 0 0 0 0 0 0 0 0 0 0 0 0 0 0 0 0 0 0 0 0 0 0 0 0 0 0 0 0 0 0 0 0 0 0 0 0 0 0 45 51 57 63 69 76 82 88 95 101 107 114 120 127 134 140 147 154 160 167 174 181 187 194 201 208 215 240 240 240 240 240 240 240 240 240 240 240 240 240 240 240 240 240 240 240 240 240 240 240 0 0 0 0 0
0 0 0 0 0 240 240 240 240 240 240 240 240 240 240 240 240 240 219 212 206 199 192 186 179 173 166 160 153 147 140 134 128 121 115 109 103 97 91 86 80 74 69 64 58 53 49 44 0 0 0 0 0 0 0 0 0 0 0 0 0 0 0 0 0 0 0 0 0 0 0 0 0 44 49 53 58 64 69 74 80 86 91 97 103 109 115 121 128 134 140 147 153 160 166 173 179 186 192 199 206 212 219 240 240 240 240 240 240 240 240 217 215 213 211 209 208 206 205 203 202 201 200 200 199 199 198 198 198 198 198 199 199 200 200 201 197 190 183 176 170 163 156 150 143 137 130 124 117 111 104 98 92 85 79 73 67 61 55 50 44 0 0 0 0 0 0 0 0 0 0 0 0 0 0 0 0 0 0 0 0 0 0 0 0 0 0 0 0 0 0 0 0 0 0 0 0 0 0 0 44 50 55 61 67 73 79 85 92 98 104 111 117 124 130 137 143 150 156 163 170 176 183 190 197 203 210 217 240 240 240 240 240 240 240 240 240 240 240 240 240 240 240 240 240 240 240 240 240 240 240 0 0 0 0 0
0 0 0 0 0 240 240 240 240 240 240 240 240 240 240 240 240 240 240 215 208 202 195 189 182 176 169 163 156 150 144 138 131 125 119 113 107 101 96 90 84 79 74 69 64 59 54 50 45 41 0 0 0 0 0 0 0 0 0 0 0 0 0 0 0 0 0 0 0 0 0 41 45 50 54 59 64 69 74 79 84 90 96 101 107 113 119 125 131 138 144 150 156 163 169 176 182 189 195 202 208 215 240 240 240 240 240 240 218 215 213 211 208 206 204 202 201 199 198 196 195 194 193 192 192 191 191 191 191 191 191 191 192 192 193 194 195 192 186 179 172 166 159 153 146 140 133 127 120 114 108 102 95 89 83 77 71 65 60 54 48 43 0 0 0 0 0 0 0 0 0 0 0 0 0 0 0 0 0 0 0 0 0 0 0 0 0 0 0 0 0 0 0 0 0 0 0 0 0 43 48 54 60 65 71 77 83 89 95 102 108 114 120 127 133 140 146 153 159 166 172 179 186 192 199 206 213 219 240 240 240 240 240 240 240 240 240 240 240 240 240 240 240 240 240 240 240 240 240 240 240 0 0 0 0 0
0 0 0 0 0 240 240 240 240 240 240 240 240 240 240 240 240 240 240 218 211 205 198 192 185 179 172 166 160 154 147 141 135 129 123 117 112 106 100 95 89 84 79 74 69 64 60 55 51 47 44 40 0 0 0 0 0 0 0 0 0 0 0 0 0 0 0 0 0 40 44 47 51 55 60 64 69 74 79 84 89 95 100 106 112 117 123 129 135 141 147 154 160 166 172 179 185 192 198 205 211 218 240 240 240 240 217 214 211 209 206 204 201 199 197 195 194 192 191 189 188 187 186 185 185 184 184 184 184 184 184 184 185 185 186 187 188 189 189 182 175 169 162 156 149 143 136 130 124 118 111 105 99 93 87 81 76 70 64 59 53 48 43 0 0 0 0 0 0 0 0 0 0 0 0 0 0 0 0 0 0 0 0 0 0 0 0 0 0 0 0 0 0 0 0 0 0 0 43 48 53 59 64 70 76 81 87 93 99 105 111 118 124 130 136 143 149 156 162 169 175 182 189 195 202 208 215 240 240 240 240 240 240 240 240 240 240 240 240 240 240 240 240 240 240 240 240 240 240 240 240 0 0 0 0 0
0 0 0 0 0 240 240 240 240 240 240 240 240 240 240 240 240 240 240 240 214 208 201 195 189 182 176 170 163 157 151 145 139 133 127 122 116 110 105 99 94 89 84 79 74 70 65 61 57 54 50 47 44 41 0 0 0 0 0 0 0 0 0 0 0 0 0 41 44 47 50 54 57 61 65 70 74 79 84 89 94 99 105 110 116 122 127 133 139 145 151 157 163 170 176 182 189 195 201 208 214 240 240 240 216 213 210 207 205 202 199 197 195 192 190 189 187 185 184 182 181 180 179 178 177 177 177 176 176 176 177 177 177 178 179 180 181 182 184 185 178 172 165 159 153 146 140 134 127 121 115 109 103 97 91 86 80 74 69 63 58 53 48 43 0 0 0 0 0 0 0 0 0 0 0 0 0 0 0 0 0 0 0 0 0 0 0 0 0 0 0 0 0 0 0 0 0 43 48 53 58 63 69 74 80 86 91 97 103 109 115 121 127 134 140 146 153 159 165 172 178 185 191 198 205 211 218 240 240 240 240 240 240 240 240 240 240 240 240 240 240 240 240 240 240 240 240 240 240 240 240 0 0 0 0 0
0 0 0 0 0 240 240 240 240 240 240 240 240 240 240 240 240 240 240 240 217 211 205 198 192 186 180 173 167 161 155 149 143 137 132 126 120 115 110 104 99 94 89 84 80 76 71 67 63 60 56 53 51 48 46 44 42 41 40 40 0 40 40 41 42 44 46 48 51 53 56 60 63 67 71 76 80 84 89 94 99 104 110 115 120 126 132 137 143 149 155 161 167 173 180 186 192 198 205 211 217 240 217 213 210 207 204 201 198 195 193 190 188 186 184 182 180 178 177 175 174 173 172 171 170 170 169 169 169 169 169 170 170 171 172 173 174 175 177 178 180 175 169 162 156 150 144 137 131 125 119 113 107 101 96 90 84 79 74 68 63 58 53 48 44 0 0 0 0 0 0 0 0 0 0 0 0 0 0 0 0 0 0 0 0 0 0 0 0 0 0 0 0 0 0 0 44 48 53 58 63 68 74 79 84 90 96 101 107 113 119 125 131 137 144 150 156 162 169 175 181 188 194 201 207 214 240 240 240 240 240 240 240 240 240 240 240 240 240 240 240 240 240 240 240 240 240 240 240 240 240 0 0 0 0 0
0 0 0 0 0 240 240 240 240 240 240 240 240 240 240 240 240 240 240 240 240 214 208 202 196 189 183 177 171 165 159 153 148 142 136 131 125 120 114 109 104 99 95 90 86 81 77 73 70 66 63 60 57 55 53 51 49 48 47 47 47 47 47 48 49 51 53 55 57 60 63 66 70 73 77 81 86 90 95 99 104 109 114 120 125 131 136 142 148 153 159 165 171 177 183 189 196 202 208 214 217 214 210 207 203 200 197 194 191 189 186 183 181 179 177 175 173 171 169 168 167 166 165 164 163 163 162 162 162 162 162 163 163 164 165 166 167 168 169 171 173 175 172 166 160 153 147 141 135 129 123 117 112 106 100 95 89 84 78 73 68 63 59 54 50 45 41 0 0 0 0 0 0 0 0 0 0 0 0 0 0 0 0 0 0 0 0 0 0 0 0 0 0 0 41 45 50 54 59 63 68 73 78 84 89 95 100 106 112 117 123 129 135 141 147 153 160 166 172 178 185 191 198 204 211 217 240 240 240 240 240 240 240 240 240 240 240 240 240 240 240 240 240 240 240 240 240 240 240 240 240 0 0 0 0 0
0 0 0 0 0 240 240 240 240 240 240 240 240 240 240 240 240 240 240 240 240 218 212 205 199 193 187 181 175 169 163 158 152 146 141 135 130 125 120 114 110 105 100 96 91 87 83 79 76 73 69 67 64 62 60 58 56 55 55 54 54 54 55 55 56 58 60 62 64 67 69 73 76 79 83 87 91 96 100 105 110 114 120 125 130 135 141 146 152 158 163 169 175 181 187 193 199 205 212 215 211 208 204 200 197 194 191 188 185 182 179 177 174 172 170 168 166 164 162 161 160 159 158 157 156 155 155 155 155 155 155 155 156 157 158 159 160 161 162 164 166 168 170 169 163 157 151 145 139 133 127 122 116 110 105 99 94 89 84 78 74 69 64 60 55 51 47 43 40 0 0 0 0 0 0 0 0 0 0 0 0 0 0 0 0 0 0 0 0 0 0 0 40 43 47 51 55 60 64 69 74 78 84 89 94 99 105 110 116 122 127 133 139 145 151 157 163 169 176 182 188 195 201 207 214 240 240 240 240 240 240 240 240 240 240 240 240 240 240 240 240 240 240 240 240 240 240 240 240 240 240 0 0 0 0 0
0 0 0 0 0 240 240 240 240 240 240 240 240 240 240 240 240 240 240 240 240 240 215 209 203 197 191 185 179 173 168 162 156 151 145 140 135 130 125 120 115 110 106 101 97 93 89 86 82 79 76 73 71 69 67 65 64 63 62 61 61 61 62 63 64 65 67 69 71 73 76 79 82 86 89 93 97 101 106 110 115 120 125 130 135 140 145 151 156 162 168 173 179 185 191 197 203 209 213 209 205 201 198 194 191 187 184 181 178 175 172 170 167 165 163 161 159 157 155 154 153 151 150 149 149 148 148 148 148 148 148 148 149 149 150 151 153 154 155 157 159 161 163 165 167 161 155 149 143 137 132 126 120 115 109 104 99 94 89 84 79 74 70 65 61 57 53 50 46 43 40 0 0 0 0 0 0 0 0 0 0 0 0 0 0 0 0 0 0 0 40 43 46 50 53 57 61 65 70 74 79 84 89 94 99 104 109 115 120 126 132 137 143 149 155 161 167 173 179 185 192 198 204 211 217 240 240 240 240 240 240 240 240 240 240 240 240 240 240 240 240 240 240 240 240 240 240 240 240 240 240 0 0 0 0 0
0 0 0 0 0 240 240 240 240 240 240 240 240 240 240 240 240 240 240 240 240 240 219 213 207 201 195 189 184 178 172 167 161 156 150 145 140 135 130 125 120 116 112 107 103 99 96 92 89 86 83 80 78 76 74 72 71 70 69 68 68 68 69 70 71 72 74 76 78 80 83 86 89 92 96 99 103 107 112 116 120 125 130 135 140 145 150 156 161 167 172 178 184 189 195 201 207 211 207 203 199 195 191 188 184 181 178 175 171 169 166 163 161 158 156 154 152 150 148 147 145 144 143 142 142 141 141 140 140 140 141 141 142 142 143 144 145 147 148 150 152 154 156 158 161 163 159 153 148 142 136 131 125 120 114 109 104 99 94 89 84 80 76 71 67 63 60 56 53 50 47 44 42 0 0 0 0 0 0 0 0 0 0 0 0 0 0 0 42 44 47 50 53 56 60 63 67 71 76 80 84 89 94 99 104 109 114 120 125 131 136 142 148 153 159 165 171 177 183 189 195 202 208 214 240 240 240 240 240 240 240 240 240 240 240 240 240 240 240 240 240 240 240 240 240 240 240 240 240 240 240 0 0 0 0 0
0 0 0 0 0 240 240 240 240 240 240 240 240 240 240 240 240 240 240 240 240 240 240 217 211 205 199 194 188 182 177 171 166 160 155 150 145 140 135 131 126 122 117 113 109 105 102 98 95 92 89 87 84 82 81 79 78 77 76 76 76 76 76 77 78 79 81 82 84 87 89 92 95 98 102 105 109 113 117 122 126 131 135 140 145 150 155 160 166 171 177 182 188 194 199 205 209 205 201 197 193 189 185 182 178 175 171 168 165 162 159 156 154 151 149 147 145 143 141 140 138 137 136 135 134 134 133 133 133 133 133 134 134 135 136 137 138 140 141 143 145 147 149 151 154 156 159 158 152 146 141 135 130 124 119 114 109 104 99 95 90 86 81 77 73 69 66 62 59 56 53 51 48 46 45 43 42 41 40 40 0 40 40 41 42 43 45 46 48 51 53 56 59 62 66 69 73 77 81 86 90 95 99 104 109 114 119 124 130 135 141 146 152 158 163 169 175 181 187 193 199 205 211 218 240 240 240 240 240 240 240 240 240 240 240 240 240 240 240 240 240 240 240 240 240 240 240 240 240 240 240 0 0 0 0 0
0 0 0 0 0 240 240 240 240 240 240 240 240 240 240 240 240 240 240 240 240 240 240 240 215 209 204 198 192 187 181 176 171 165 160 155 150 145 141 136 132 127 123 119 115 112 108 105 102 99 96 94 91 89 88 86 85 84 83 83 83 83 83 84 85 86 88 89 91 94 96 99 102 105 108 112 115 119 123 127 132 136 141 145 150 155 160 165 171 176 181 187 192 198 204 208 204 199 195 191 187 183 179 175 172 168 165 162 158 155 153 150 147 145 142 140 138 136 134 133 131 130 129 128 127 127 126 126 126 126 126 127 127 128 129 130 131 133 134 136 138 140 142 145 147 150 153 155 156 151 145 140 135 129 124 119 114 109 105 100 96 91 87 83 79 76 72 69 66 63 60 58 55 53 52 50 49 48 47 47 47 47 47 48 49 50 52 53 55 58 60 63 66 69 72 76 79 83 87 91 96 100 105 109 114 119 124 129 135 140 145 151 156 162 168 173 179 185 191 197 203 209 215 240 240 240 240 240 240 240 240 240 240 240 240 240 240 240 240 240 240 240 240 240 240 240 240 240 240 240 240 0 0 0 0 0
0 0 0 0 0 240 240 240 240 240 240 240 240 240 240 240 240 240 240 240 240 240 240 240 220 214 208 202 197 191 186 181 176 170 165 160 156 151 146 142 137 133 129 125 121 118 114 111 108 105 103 100 98 96 95 93 92 91 90 90 90 90 90 91 92 93 95 96 98 100 103 105 108 111 114 118 121 125 129 133 137 142 146 151 156 160 165 170 176 181 186 191 197 202 207 202 198 194 189 185 181 177 173 169 166 162 159 155 152 149 146 143 140 138 135 133 131 129 127 126 124 123 122 121 120 119 119 119 119 119 119 119 120 121 122 123 124 126 127 129 131 133 135 138 140 143 146 149 152 155 150 145 140 134 129 124 120 115 110 106 101 97 93 89 85 82 78 75 72 69 67 64 62 60 59 57 56 55 54 54 54 54 54 55 56 57 59 60 62 64 67 69 72 75 78 82 85 89 93 97 101 106 110 115 120 124 129 134 140 145 150 155 161 166 172 178 184 189 195 201 207 213 219 240 240 240 240 240 240 240 240 240 240 240 240 240 240 240 240 240 240 240 240 240 240 240 240 240 240 240 240 0 0 0 0 0
0 0 0 0 0 240 240 240 240 240 240 240 240 240 240 240 240 240 240 240 240 240 240 240 240 218 213 207 202 196 191 186 181 176 171 166 161 156 152 148 143 139 135 131 128 124 121 118 115 112 110 107 105 103 102 100 99 98 98 97 97 97 98 98 99 100 102 103 105 107 110 112 115 118 121 124 128 131 135 139 143 148 152 156 161 166 171 176 181 186 191 196 202 206 201 197 192 188 184 179 175 171 167 163 159 156 152 149 145 142 139 136 134 131 129 126 124 122 120 119 117 116 115 114 113 112 112 112 112 112 112 112 113 114 115 116 117 119 120 122 124 126 129 131 134 136 139 142 145 149 152 150 145 140 135 130 125 120 116 112 107 103 99 95 92 88 85 82 79 76 74 71 69 67 66 64 63 62 62 61 61 61 62 62 63 64 66 67 69 71 74 76 79 82 85 88 92 95 99 103 107 112 116 120 125 130 135 140 145 150 155 160 166 171 177 182 188 194 199 205 211 217 240 240 240 240 240 240 240 240 240 240 240 240 240 240 240 240 240 240 240 240 240 240 240 240 240 240 240 240 240 0 0 0 0 0
0 0 0 0 0 240 240 240 240 240 240 240 240 240 240 240 240 240 240 240 240 240 240 240 240 240 217 212 206 201 196 191 186 181 176 171 167 162 158 153 149 145 141 138 134 131 127 124 121 119 116 114 112 110 109 107 106 105 105 104 104 104 105 105 106 107 109 110 112 114 116 119 121 124 127 131 134 138 141 145 149 153 158 162 167 171 176 181 186 191 196 201 206 201 196 191 187 182 178 173 169 165 161 157 153 149 146 142 139 136 133 130 127 124 122 119 117 115 113 112 110 109 108 107 106 105 105 104 104 104 105 105 106 107 108 109 110 112 113 115 117 119 122 124 127 130 133 136 139 142 146 149 150 145 140 135 131 126 122 117 113 109 105 102 98 95 91 88 85 83 80 78 76 74 73 71 70 69 69 68 68 68 69 69 70 71 73 74 76 78 80 83 85 88 91 95 98 102 105 109 113 117 122 126 131 135 140 145 150 155 160 165 170 176 181 187 192 198 204 209 215 240 240 240 240 240 240 240 240 240 240 240 240 240 240 240 240 240 240 240 240 240 240 240 240 240 240 240 240 240 240 0 0 0 0 0
0 0 0 0 0 240 240 240 240 240 240 240 240 240 240 240 240 240 240 240 240 240 240 240 240 240 240 217 211 206 201 196 191 186 181 177 172 168 163 159 155 151 147 144 140 137 134 131 128 126 123 121 119 117 116 114 113 113 112 112 112 112 112 113 113 114 116 117 119 121 123 126 128 131 134 137 140 144 147 151 155 159 163 168 172 177 181 186 191 196 201 205 200 195 191 186 181 177 172 168 163 159 155 151 147 143 140 136 133 129 126 123 120 118 115 113 110 108 106 105 103 102 100 99 99 98 97 97 97 97 97 98 99 99 100 102 103 105 106 108 110 113 115 118 120 123 126 129 133 136 140 143 147 150 145 141 136 132 127 123 119 115 111 108 104 101 98 95 92 90 87 85 83 81 80 78 77 77 76 76 76 76 76 77 77 78 80 81 83 85 87 90 92 95 98 101 104 108 111 115 119 123 127 132 136 141 145 150 155 160 165 170 175 181 186 191 197 202 208 214 220 240 240 240 240 240 240 240 240 240 240 240 240 240 240 240 240 240 240 240 240 240 240 240 240 240 240 240 240 240 240 0 0 0 0 0
0 0 0 0 0 240 240 240 240 240 240 240 240 240 240 240 240 240 240 240 240 240 240 240 240 240 240 240 216 211 206 201 196 191 187 182 178 173 169 165 161 157 154 150 147 143 140 138 135 132 130 128 126 124 123 122 121 120 119 119 119 119 119 120 121 122 123 124 126 128 130 132 135 138 140 143 147 150 154 157 161 165 169 173 178 182 187 191 196 201 205 200 195 190 185 180 176 171 166 162 158 153 149 145 141 137 133 130 126 123 120 117 114 111 108 106 104 101 99 98 96 95 93 92 91 91 90 90 90 90 90 91 91 92 93 95 96 98 99 101 104 106 108 111 114 117 120 123 126 130 133 137 141 145 149 146 142 137 133 129 125 121 118 114 111 107 104 102 99 96 94 92 90 88 87 86 85 84 83 83 83 83 83 84 85 86 87 88 90 92 94 96 99 102 104 107 111 114 118 121 125 129 133 137 142 146 151 155 160 165 170 175 180 185 191 196 202 207 213 218 240 240 240 240 240 240 240 240 240 240 240 240 240 240 240 240 240 240 240 240 240 240 240 240 240 240 240 240 240 240 240 0 0 0 0 0
0 0 0 0 0 240 240 240 240 240 240 240 240 240 240 240 240 240 240 240 240 240 240 240 240 240 240 240 240 216 211 206 202 197 192 188 184 179 175 171 167 163 160 156 153 150 147 144 142 139 137 135 133 131 130 129 128 127 126 126 126 126 126 127 128 129 130 131 133 135 137 139 142 144 147 150 153 156 160 163 167 171 175 179 184 188 192 197 202 206 200 195 190 185 180 175 170 166 161 156 152 148 143 139 135 131 127 124 120 117 113 110 107 104 102 99 97 95 93 91 89 88 86 85 84 84 83 83 83 83 83 84 84 85 86 88 89 91 93 95 97 99 102 104 107 110 113 117 120 124 127 131 135 139 143 148 148 143 139 135 131 127 124 120 117 114 111 108 106 103 101 99 97 95 94 93 92 91 90 90 90 90 90 91 92 93 94 95 97 99 101 103 106 108 111 114 117 120 124 127 131 135 139 143 148 152 156 161 166 170 175 180 185 190 196 201 206 212 217 240 240 240 240 240 240 240 240 240 240 240 240 240 240 240 240 240 240 240 240 240 240 240 240 240 240 240 240 240 240 240 240 0 0 0 0 0
0 0 0 0 0 240 240 240 240 240 240 240 240 240 240 240 240 240 240 240 240 240 240 240 240 240 240 240 240 240 217 212 207 202 198 194 189 185 181 177 173 170 166 163 160 156 154 151 148 146 144 142 140 138 137 136 135 134 134 133 133 133 134 134 135 136 137 138 140 142 144 146 148 151 154 156 160 163 166 170 173 177 181 185 189 194 198 202 206 201 195 190 185 180 175 170 165 160 155 151 146 142 137 133 129 125 121 117 114 110 107 104 101 98 95 92 90 88 86 84 82 80 79 78 77 76 76 76 76 76 76 76 77 78 79 80 82 84 86 88 90 92 95 98 101 104 107 110 114 117 121 125 129 133 137 142 146 149 145 141 137 134 130 127 124 120 118 115 112 110 108 106 104 102 101 100 99 98 98 97 97 97 98 98 99 100 101 102 104 106 108 110 112 115 118 120 124 127 130 134 137 141 145 149 153 158 162 166 171 176 181 185 190 196 201 206 211 216 240 240 240 240 240 240 240 240 240 240 240 240 240 240 240 240 240 240 240 240 240 240 240 240 240 240 240 240 240 240 240 240 240 0 0 0 0 0
0 0 0 0 0 240 240 240 240 240 240 240 240 240 240 240 240 240 240 240 240 240 240 240 240 240 240 240 240 240 240 217 213 208 204 199 195 191 187 183 180 176 172 169 166 163 160 158 155 153 151 149 147 145 144 143 142 141 141 140 140 140 141 141 142 143 144 145 147 149 151 153 155 158 160 163 166 169 172 176 180 183 187 191 195 199 204 207 201 196 191 185 180 175 170 165 160 155 150 145 141 136 132 127 123 119 115 111 108 104 100 97 94 91 88 86 83 81 79 77 75 73 72 71 70 69 69 68 68 68 69 69 70 71 72 73 75 77 79 81 83 86 88 91 94 97 100 104 108 111 115 119 123 127 132 136 141 145 150 147 144 140 136 133 130 127 124 122 119 117 115 113 111 109 108 107 106 105 105 104 104 104 105 105 106 107 108 109 111 113 115 117 119 122 124 127 130 133 136 140 144 147 151 155 159 163 168 172 177 181 186 191 196 201 206 211 216 240 240 240 240 240 240 240 240 240 240 240 240 240 240 240 240 240 240 240 240 240 240 240 240 240 240 240 240 240 240 240 240 240 240 0 0 0 0 0
0 0 0 0 0 240 240 240 240 240 240 240 240 240 240 240 240 240 240 240 240 240 240 240 240 240 240 240 240 240 240 240 218 214 209 205 201 197 193 189 186 182 179 176 173 170 167 164 162 160 158 156 154 152 151 150 149 148 148 148 148 148 148 148 149 150 151 152 154 156 158 160 162 164 167 170 173 176 179 182 186 189 193 197 201 205 208 202 197 191 186 180 175 170 165 160 154 149 145 140 135 130 126 122 117 113 109 105 101 98 94 91 88 84 82 79 76 74 72 70 68 66 65 64 63 62 62 61 61 61 62 62 63 64 65 66 68 70 72 74 76 79 82 84 88 91 94 98 101 105 109 113 117 122 126 130 135 140 145 149 150 146 143 140 137 134 131 128 126 124 122 120 118 116 115 114 113 112 112 112 112 112 112 112 113 114 115 116 118 120 122 124 126 128 131 134 137 140 143 146 150 153 157 161 165 169 173 178 182 187 191 196 201 206 211 216 240 240 240 240 240 240 240 240 240 240 240 240 240 240 240 240 240 240 240 240 240 240 240 240 240 240 240 240 240 240 240 240 240 240 240 0 0 0 0 0
0 0 0 0 0 240 240 240 240 240 240 240 240 240 240 240 240 240 240 240 240 240 240 240 240 240 240 240 240 240 240 240 240 220 215 211 207 203 199 196 192 189 185 182 179 176 174 171 169 167 165 163 161 160 158 157 156 156 155 155 155 155 155 156 156 157 158 160 161 163 165 167 169 171 174 176 179 182 185 189 192 196 199 203 207 209 204 198 192 187 181 176 170 165 160 154 149 144 139 134 130 125 120 116 112 107 103 99 95 91 88 84 81 78 75 72 70 67 65 63 61 59 58 57 56 55 54 54 54 54 54 55 56 57 58 59 61 63 65 67 70 72 75 78 81 84 88 91 95 99 103 107 112 116 120 125 130 134 139 144 149 153 149 146 143 140 138 135 133 131 129 127 125 124 122 121 120 120 119 119 119 119 119 120 120 121 122 124 125 127 129 131 133 135 138 140 143 146 149 153 156 160 163 167 171 175 179 184 188 192 197 202 206 211 216 240 240 240 240 240 240 240 240 240 240 240 240 240 240 240 240 240 240 240 240 240 240 240 240 240 240 240 240 240 240 240 240 240 240 240 240 0 0 0 0 0
0 0 0 0 0 240 240 240 240 240 240 240 240 240 240 240 240 240 240 240 240 240 240 240 240 240 240 240 240 240 240 240 240 240 240 217 213 209 205 202 198 195 192 189 186 183 180 178 176 173 171 170 168 167 165 164 163 163 162 162 162 162 162 163 163 164 165 167 168 170 171 173 176 178 180 183 186 189 192 195 198 202 205 209 211 205 199 194 188 182 177 171 166 160 155 149 144 139 134 129 124 119 115 110 106 101 97 93 89 85 82 78 75 71 68 66 63 60 58 56 54 52 51 50 49 48 47 47 47 47 47 48 49 50 51 52 54 56 58 60 63 66 68 71 75 78 82 85 89 93 97 101 106 110 115 119 124 129 134 139 144 149 155 153 150 147 144 142 140 137 135 134 132 131 129 128 127 127 126 126 126 126 126 127 127 128 129 131 132 134 135 137 140 142 144 147 150 153 156 159 162 166 169 173 177 181 185 189 194 198 202 207 212 216 240 240 240 240 240 240 240 240 240 240 240 240 240 240 240 240 240 240 240 240 240 240 240 240 240 240 240 240 240 240 240 240 240 240 240 240 240 0 0 0 0 0
0 0 0 0 0 240 240 240 240 240 240 240 240 240 240 240 240 240 240 240 240 240 240 240 240 240 240 240 240 240 240 240 240 240 240 240 219 215 212 208 205 201 198 195 192 190 187 185 182 180 178 177 175 174 172 171 171 170 169 169 169 169 169 170 171 171 172 174 175 177 178 180 182 185 187 190 192 195 198 201 205 208 212 213 207 201 195 189 184 178 172 166 161 155 150 145 139 134 129 124 119 114 109 105 100 96 91 87 83 79 75 72 68 65 62 59 56 54 51 49 47 45 44 42 41 41 40 40 0 40 40 41 41 42 44 45 47 49 51 54 56 59 62 65 68 72 75 79 83 87 91 96 100 105 109 114 119 124 129 134 139 145 150 155 156 154 151 149 146 144 142 141 139 138 136 135 135 134 133 133 133 133 133 134 135 135 136 138 139 141 142 144 146 149 151 154 156 159 162 165 169 172 176 179 183 187 191 195 199 204 208 213 217 240 240 240 240 240 240 240 240 240 240 240 240 240 240 240 240 240 240 240 240 240 240 240 240 240 240 240 240 240 240 240 240 240 240 240 240 240 240 0 0 0 0 0
0 0 0 0 0 240 240 240 240 240 240 240 240 240 240 240 240 240 240 240 240 240 240 240 240 240 240 240 240 240 240 240 240 240 240 240 240 240 218 214 211 208 205 202 199 196 194 191 189 187 185 184 182 181 180 179 178 177 177 176 176 176 177 177 178 179 180 181 182 184 185 187 189 191 194 196 199 202 205 208 211 214 215 209 203 197 191 185 179 173 168 162 156 151 145 140 134 129 124 119 114 109 104 99 95 90 86 81 77 73 69 66 62 59 55 52 49 47 44 42 40 0 0 0 0 0 0 0 0 0 0 0 0 0 0 0 40 42 44 47 49 52 55 59 62 66 69 73 77 81 86 90 95 99 104 109 114 119 124 129 134 140 145 151 156 160 158 155 153 151 149 148 146 145 144 143 142 141 141 140 140 140 141 141 142 143 144 145 146 148 149 151 153 155 158 160 163 166 169 172 175 178 182 185 189 193 197 201 205 209 214 218 240 240 240 240 240 240 240 240 240 240 240 240 240 240 240 240 240 240 240 240 240 240 240 240 240 240 240 240 240 240 240 240 240 240 240 240 240 240 240 0 0 0 0 0
0 0 0 0 0 240 240 240 240 240 240 240 240 240 240 240 240 240 240 240 240 240 240 240 240 240 240 240 240 240 240 240 240 240 240 240 240 240 240 240 217 214 211 208 206 203 201 198 196 194 192 191 189 188 187 186 185 184 184 184 184 184 184 184 185 186 187 188 189 191 192 194 196 198 201 203 206 208 211 214 217 217 211 205 199 193 187 181 175 169 163 158 152 146 141 135 130 124 119 114 109 104 99 94 89 84 80 76 71 67 63 59 56 52 49 46 43 40 0 0 0 0 0 0 0 0 0 0 0 0 0 0 0 0 0 0 0 0 0 40 43 46 49 52 56 59 63 67 71 76 80 84 89 94 99 104 109 114 119 124 130 135 141 146 152 158 163 162 160 158 156 155 153 152 151 150 149 148 148 148 148 148 148 148 149 150 151 152 153 155 156 158 160 162 165 167 170 172 175 178 181 185 188 192 195 199 203 207 211 215 220 240 240 240 240 240 240 240 240 240 240 240 240 240 240 240 240 240 240 240 240 240 240 240 240 240 240 240 240 240 240 240 240 240 240 240 240 240 240 240 240 0 0 0 0 0
0 0 0 0 0 240 240 240 240 240 240 240 240 240 240 240 240 240 240 240 240 240 240 240 240 240 240 240 240 240 240 240 240 240 240 240 240 240 240 240 240 240 218 215 212 210 207 205 203 201 199 198 196 195 194 193 192 191 191 191 191 191 191 191 192 193 194 195 196 198 199 201 203 205 207 210 212 215 218 240 240 214 208 201 195 189 183 177 171 165 159 153 148 142 136 130 125 119 114 109 104 98 93 88 84 79 74 70 65 61 57 53 49 46 42 0 0 0 0 0 0 0 0 0 0 0 0 0 0 0 0 0 0 0 0 0 0 0 0 0 0 0 42 46 49 53 57 61 65 70 74 79 84 88 93 98 104 109 114 119 125 130 136 142 148 153 159 165 167 165 163 162 160 159 158 157 156 155 155 155 155 155 155 155 156 157 158 159 160 162 163 165 167 169 171 174 176 179 182 185 188 191 195 198 202 205 209 213 217 240 240 240 240 240 240 240 240 240 240 240 240 240 240 240 240 240 240 240 240 240 240 240 240 240 240 240 240 240 240 240 240 240 240 240 240 240 240 240 240 240 240 0 0 0 0 0
0 0 0 0 0 240 240 240 240 240 240 240 240 240 240 240 240 240 240 240 240 240 240 240 240 240 240 240 240 240 240 240 240 240 240 240 240 240 240 240 240 240 240 240 219 217 214 212 210 208 206 205 203 202 201 200 199 199 198 198 198 198 198 199 199 200 201 202 203 205 206 208 210 212 214 217 219 240 240 240 217 210 204 198 191 185 179 173 167 161 155 149 143 137 132 126 120 115 109 104 99 93 88 83 78 73 69 64 60 55 51 47 43 40 0 0 0 0 0 0 0 0 0 0 0 0 0 0 0 0 0 0 0 0 0 0 0 0 0 0 0 0 0 40 43 47 51 55 60 64 69 73 78 83 88 93 99 104 109 115 120 126 132 137 143 149 155 161 167 172 170 169 167 166 165 164 163 163 162 162 162 162 162 163 163 164 165 166 167 169 170 172 174 176 178 181 183 186 189 191 194 198 201 204 208 211 215 219 240 240 240 240 240 240 240 240 240 240 240 240 240 240 240 240 240 240 240 240 240 240 240 240 240 240 240 240 240 240 240 240 240 240 240 240 240 240 240 240 240 240 240 0 0 0 0 0
0 0 0 0 0 240 240 240 240 240 240 240 240 240 240 240 240 240 240 240 240 240 240 240 240 240 240 240 240 240 240 240 240 240 240 240 240 240 240 240 240 240 240 240 240 240 240 219 217 215 213 212 210 209 208 207 206 206 205 205 205 205 205 206 206 207 208 209 210 212 213 215 217 219 240 240 240 240 240 240 213 207 200 194 188 182 175 169 163 157 151 145 139 133 127 122 116 110 105 99 94 88 83 78 73 68 63 59 54 50 45 41 0 0 0 0 0 0 0 0 0 0 0 0 0 0 0 0 0 0 0 0 0 0 0 0 0 0 0 0 0 0 0 0 0 41 45 50 54 59 63 68 73 78 83 88 94 99 105 110 116 122 127 133 139 145 151 157 163 169 175 176 174 173 172 171 170 170 169 169 169 169 169 170 170 171 172 173 174 176 177 179 181 183 185 187 190 192 195 198 201 204 207 211 214 218 240 240 240 240 240 240 240 240 240 240 240 240 240 240 240 240 240 240 240 240 240 240 240 240 240 240 240 240 240 240 240 240 240 240 240 240 240 240 240 240 240 240 240 240 240 0 0 0 0 0
0 0 0 0 0 240 240 240 240 240 240 240 240 240 240 240 240 240 240 240 240 240 240 240 240 240 240 240 240 240 240 240 240 240 240 240 240 240 240 240 240 240 240 240 240 240 240 240 240 240 240 219 217 216 215 214 214 213 213 212 212 212 213 213 214 214 215 216 217 219 240 240 240 240 240 240 240 240 240 216 210 203 197 191 184 178 172 166 159 153 147 141 135 129 123 117 112 106 100 95 89 84 78 73 68 63 58 53 48 44 0 0 0 0 0 0 0 0 0 0 0 0 0 0 0 0 0 0 0 0 0 0 0 0 0 0 0 0 0 0 0 0 0 0 0 0 0 44 48 53 58 63 68 73 78 84 89 95 100 106 112 117 123 129 135 141 147 153 159 166 172 178 181 180 179 178 178 177 177 176 176 176 177 177 178 178 179 180 181 183 184 186 188 190 192 194 197 199 202 205 207 211 214 217 240 240 240 240 240 240 240 240 240 240 240 240 240 240 240 240 240 240 240 240 240 240 240 240 240 240 240 240 240 240 240 240 240 240 240 240 240 240 240 240 240 240 240 240 240 240 240 0 0 0 0 0
0 0 0 0 0 240 240 240 240 240 240 240 240 240 240 240 240 240 240 240 240 240 240 240 240 240 240 240 240 240 240 240 240 240 240 240 240 240 240 240 240 240 240 240 240 240 240 240 240 240 240 240 240 240 240 240 240 240 240 240 220 240 240 240 240 240 240 240 240 240 240 240 240 240 240 240 240 240 240 213 207 200 194 187 181 175 168 162 156 149 143 137 131 125 119 113 107 101 96 90 84 79 73 68 63 58 53 48 43 0 0 0 0 0 0 0 0 0 0 0 0 0 0 0 0 0 0 0 0 0 0 0 0 0 0 0 0 0 0 0 0 0 0 0 0 0 0 0 43 48 53 58 63 68 73 79 84 90 96 101 107 113 119 125 131 137 143 149 156 162 168 175 181 187 186 185 185 184 184 184 184 184 184 184 185 185 186 187 189 190 191 193 195 197 199 201 203 206 208 211 214 217 240 240 240 240 240 240 240 240 240 240 240 240 240 240 240 240 240 240 240 240 240 240 240 240 240 240 240 240 240 240 240 240 240 240 240 240 240 240 240 240 240 240 240 240 240 240 240 240 240 0 0 0 0 0
0 0 0 0 0 240 240 240 240 240 240 240 240 240 240 240 240 240 240 240 240 240 240 240 240 240 240 240 240 240 240 240 240 240 240 240 240 240 240 240 240 240 240 240 240 240 240 240 240 240 240 240 240 240 240 240 240 240 240 240 240 240 240 240 240 240 240 240 240 240 240 240 240 240 240 240 240 240 217 210 204 197 191 184 178 171 165 159 152 146 140 133 127 121 115 109 103 97 91 86 80 74 69 63 58 53 48 42 0 0 0 0 0 0 0 0 0 0 0 0 0 0 0 0 0 0 0 0 0 0 0 0 0 0 0 0 0 0 0 0 0 0 0 0 0 0 0 0 0 42 48 53 58 63 69 74 80 86 91 97 103 109 115 121 127 133 140 146 152 159 165 171 178 184 191 193 192 191 191 191 191 191 191 191 192 193 194 195 196 197 198 200 202 204 206 208 210 213 215 218 240 240 240 240 240 240 240 240 240 240 240 240 240 240 240 240 240 240 240 240 240 240 240 240 240 240 240 240 240 240 240 240 240 240 240 240 240 240 240 240 240 240 240 240 240 240 240 240 240 240 240 0 0 0 0 0
0 0 0 0 0 240 240 240 240 240 240 240 240 240 240 240 240 240 240 240 240 240 240 240 240 240 240 240 240 240 240 240 240 240 240 240 240 240 240 240 240 240 240 240 240 240 240 240 240 240 240 240 240 240 240 240 240 240 240 240 240 240 240 240 240 240 240 240 240 240 240 240 240 240 240 240 240 240 214 207 201 194 188 181 175 168 162 155 149 142 136 130 124 117 111 105 99 93 87 81 76 70 64 59 53 48 42 0 0 0 0 0 0 0 0 0 0 0 0 0 0 0 0 0 0 0 0 0 0 0 0 0 0 0 0 0 0 0 0 0 0 0 0 0 0 0 0 0 0 0 42 48 53 59 64 70 76 81 87 93 99 105 111 117 124 130 136 142 149 155 162 168 175 181 188 194 199 199 198 198 198 198 198 199 199 200 201 202 203 204 205 207 209 211 213 215 217 219 240 240 240 240 240 240 240 240 240 240 240 240 240 240 240 240 240 240 240 240 240 240 240 240 240 240 240 240 240 240 240 240 240 240 240 240 240 240 240 240 240 240 240 240 240 240 240 240 240 240 240 240 240 0 0 0 0 0
0 0 0 0 0 240 240 240 240 240 240 240 240 240 240 240 240 240 240 240 240 240 240 240 240 240 240 240 240 240 240 240 240 240 240 240 240 240 240 240 240 240 240 240 240 240 240 240 240 240 240 240 240 240 240 240 240 240 240 240 240 240 240 240 240 240 240 240 240 240 240 240 240 240 240 240 240 218 211 205 198 191 185 178 171 165 158 152 145 139 133 126 120 114 108 101 95 89 83 77 71 65 60 54 48 43 0 0 0 0 0 0 0 0 0 0 0 0 0 0 0 0 0 0 0 0 0 0 0 0 0 0 0 0 0 0 0 0 0 0 0 0 0 0 0 0 0 0 0 0 0 43 48 54 60 65 71 77 83 89 95 101 108 114 120 126 133 139 145 152 158 165 171 178 185 191 198 205 205 205 205 205 205 206 206 207 208 209 210 211 213 214 216 218 220 240 240 240 240 240 240 240 240 240 240 240 240 240 240 240 240 240 240 240 240 240 240 240 240 240 240 240 240 240 240 240 240 240 240 240 240 240 240 240 240 240 240 240 240 240 240 240 240 240 240 240 240 240 240 240 240 0 0 0 0 0
0 0 0 0 0 240 240 240 240 240 240 240 240 240 240 240 240 240 240 240 240 240 240 240 240 240 240 240 240 240 240 240 240 240 240 240 240 240 240 240 240 240 240 240 240 240 240 240 240 240 240 240 240 240 240 240 240 240 240 240 240 240 240 240 240 240 240 240 240 240 240 240 240 240 240 240 240 215 209 202 195 189 182 175 169 162 155 149 142 136 129 123 117 110 104 98 91 85 79 73 67 61 55 50 44 0 0 0 0 0 0 0 0 0 0 0 0 0 0 0 0 0 0 0 0 0 0 0 0 0 0 0 0 0 0 0 0 0 0 0 0 0 0 0 0 0 0 0 0 0 0 0 44 50 55 61 67 73 79 85 91 98 104 110 117 123 129 136 142 149 155 162 169 175 182 189 195 202 209 212 212 212 213 213 213 214 215 216 217 218 240 240 240 240 240 240 240 240 240 240 240 240 240 240 240 240 240 240 240 240 240 240 240 240 240 240 240 240 240 240 240 240 240 240 240 240 240 240 240 240 240 240 240 240 240 240 240 240 240 240 240 240 240 240 240 240 240 240 240 240 240 0 0 0 0 0
0 0 0 0 0 240 240 240 240 240 240 240 240 240 240 240 240 240 240 240 240 240 240 240 240 240 240 240 240 240 240 240 240 240 240 240 240 240 240 240 240 240 240 240 240 240 240 240 240 240 240 240 240 240 240 240 240 240 240 240 240 240 240 240 240 240 240 240 240 240 240 240 240 240 240 240 240 213 206 199 193 186 179 172 166 159 153 146 139 133 126 120 113 107 100 94 88 82 75 69 63 57 51 45 0 0 0 0 0 0 0 0 0 0 0 0 0 0 0 0 0 0 0 0 0 0 0 0 0 0 0 0 0 0 0 0 0 0 0 0 0 0 0 0 0 0 0 0 0 0 0 0 0 45 51 57 63 69 75 82 88 94 100 107 113 120 126 133 139 146 153 159 166 172 179 186 193 199 206 213 220 240 240 240 240 240 240 240 240 240 240 240 240 240 240 240 240 240 240 240 240 240 240 240 240 240 240 240 240 240 240 240 240 240 240 240 240 240 240 240 240 240 240 240 240 240 240 240 240 240 240 240 240 240 240 240 240 240 240 240 240 240 240 240 240 240 240 240 240 240 240 0 0 0 0 0
0 0 0 0 0 240 240 240 240 240 240 240 240 240 240 240 240 240 240 240 240 240 240 240 240 240 240 240 240 240 240 240 240 240 240 240 240 240 240 240 240 240 240 240 240 240 240 240 240 240 240 240 240 240 240 240 240 240 240 240 240 240 240 240 240 240 240 240 240 240 240 240 240 240 240 240 217 211 204 197 190 183 177 170 163 156 150 143 136 130 123 117 110 104 97 91 84 78 72 66 59 53 47 41 0 0 0 0 0 0 0 0 0 0 0 0 0 0 0 0 0 0 0 0 0 0 0 0 0 0 0 0 0 0 0 0 0 0 0 0 0 0 0 0 0 0 0 0 0 0 0 0 0 41 47 53 59 66 72 78 84 91 97 104 110 117 123 130 136 143 150 156 163 170 177 183 190 197 204 211 217 240 240 240 240 240 240 240 240 240 240 240 240 240 240 240 240 240 240 240 240 240 240 240 240 240 240 240 240 240 240 240 240 240 240 240 240 240 240 240 240 240 240 240 240 240 240 240 240 240 240 240 240 240 240 240 240 240 240 240 240 240 240 240 240 240 240 240 240 240 240 0 0 0 0 0
0 0 0 0 0 240 240 240 240 240 240 240 240 240 240 240 240 240 240 240 240 240 240 240 240 240 240 240 240 240 240 240 240 240 240 240 240 240 240 240 240 240 240 240 240 240 240 240 240 240 240 240 240 240 240 240 240 240 240 240 240 240 240 240 240 240 240 240 240 240 240 240 240 240 240 240 215 208 201 195 188 181 174 167 161 154 147 140 134 127 120 114 107 101 94 88 81 75 68 62 56 49 43 0 0 0 0 0 0 0 0 0 0 0 0 0 0 0 0 0 0 0 0 0 0 0 0 0 0 0 0 0 0 0 0 0 0 0 0 0 0 0 0 0 0 0 0 0 0 0 0 0 0 0 43 49 56 62 68 75 81 88 94 101 107 114 120 127 134 140 147 154 161 167 174 181 188 195 201 208 215 240 240 240 240 240 240 240 240 240 240 240 240 240 240 240 240 240 240 240 240 240 240 240 240 240 240 240 240 240 240 240 240 240 240 240 240 240 240 240 240 240 240 240 240 240 240 240 240 240 240 240 240 240 240 240 240 240 240 240 240 240 240 240 240 240 240 240 240 240 240 0 0 0 0 0
0 0 0 0 0 240 240 240 240 240 240 240 240 240 240 240 240 240 240 240 240 240 240 240 240 240 240 240 240 240 240 240 240 240 240 240 240 240 240 240 240 240 240 240 240 240 240 240 240 240 240 240 240 240 240 240 240 240 240 240 240 240 240 240 240 240 240 240 240 240 240 240 240 240 240 240 213 206 199 192 186 179 172 165 158 151 145 138 131 124 118 111 104 98 91 84 78 71 65 59 52 46 40 0 0 0 0 0 0 0 0 0 0 0 0 0 0 0 0 0 0 0 0 0 0 0 0 0 0 0 0 0 0 0 0 0 0 0 0 0 0 0 0 0 0 0 0 0 0 0 0 0 0 0 40 46 52 59 65 71 78 84 91 98 104 111 118 124 131 138 145 151 158 165 172 179 186 192 199 206 213 240 240 240 240 240 240 240 240 240 240 240 240 240 240 240 240 240 240 240 240 240 240 240 240 240 240 240 240 240 240 240 240 240 240 240 240 240 240 240 240 240 240 240 240 240 240 240 240 240 240 240 240 240 240 240 240 240 240 240 240 240 240 240 240 240 240 240 240 240 240 0 0 0 0 0
0 0 0 0 0 240 240 240 240 240 240 240 240 240 240 240 240 240 240 240 240 240 240 240 240 240 240 240 240 240 240 240 240 240 240 240 240 240 240 240 240 240 240 240 240 240 240 240 240 240 240 240 240 240 240 240 240 240 240 240 240 240 240 240 240 240 240 240 240 240 240 240 240 240 240 218 211 204 197 190 184 177 170 163 156 149 142 135 129 122 115 108 102 95 88 82 75 68 62 55 49 42 0 0 0 0 0 0 0 0 0 0 0 0 0 0 0 0 0 0 0 0 0 0 0 0 0 0 0 0 0 0 0 0 0 0 0 0 0 0 0 0 0 0 0 0 0 0 0 0 0 0 0 0 0 42 49 55 62 68 75 82 88 95 102 108 115 122 129 135 142 149 156 163 170 177 184 190 197 204 211 218 240 240 240 240 240 240 240 240 240 240 240 240 240 240 240 240 240 240 240 240 240 240 240 240 240 240 240 240 240 240 240 240 240 240 240 240 240 240 240 240 240 240 240 240 240 240 240 240 240 240 240 240 240 240 240 240 240 240 240 240 240 240 240 240 240 240 240 240 240 0 0 0 0 0
0 0 0 0 0 240 240 240 240 240 240 240 240 240 240 240 240 240 240 240 240 240 240 240 240 240 240 240 240 240 240 240 240 240 240 240 240 240 240 240 240 240 240 240 240 240 240 240 240 240 240 240 240 240 240 240 240 240 240 240 240 240 240 240 240 240 240 240 240 240 240 240 240 240 240 216 209 202 195 189 182 175 168 161 154 147 140 133 126 119 113 106 99 92 86 79 72 66 59 52 46 0 0 0 0 0 0 0 0 0 0 0 0 0 0 0 0 0 0 0 0 0 0 0 0 0 0 0 0 0 0 0 0 0 0 0 0 0 0 0 0 0 0 0 0 0 0 0 0 0 0 0 0 0 0 0 46 52 59 66 72 79 86 92 99 106 113 119 126 133 140 147 154 161 168 175 182 189 195 202 209 216 240 240 240 240 240 240 240 240 240 240 240 240 240 240 240 240 240 240 240 240 240 240 240 240 240 240 240 240 240 240 240 240 240 240 240 240 240 240 240 240 240 240 240 240 240 240 240 240 240 240 240 240 240 240 240 240 240 240 240 240 240 240 240 240 240 240 240 240 240 0 0 0 0 0
0 0 0 0 0 240 240 240 240 240 240 240 240 240 240 240 240 240 240 240 240 240 240 240 240 240 240 240 240 240 240 240 240 240 240 240 240 240 240 240 240 240 240 240 240 240 240 240 240 240 240 240 240 240 240 240 240 240 240 240 240 240 240 240 240 240 240 240 240 240 240 240 240 240 240 215 208 201 194 187 180 173 166 159 152 145 138 131 124 117 110 104 97 90 83 76 70 63 56 49 43 0 0 0 0 0 0 0 0 0 0 0 0 0 0 0 0 0 0 0 0 0 0 0 0 0 0 0 0 0 0 0 0 0 0 0 0 0 0 0 0 0 0 0 0 0 0 0 0 0 0 0 0 0 0 0 43 49 56 63 70 76 83 90 97 104 110 117 124 131 138 145 152 159 166 173 180 187 194 201 208 215 240 240 240 240 240 240 240 240 240 240 240 240 240 240 240 240 240 240 240 240 240 240 240 240 240 240 240 240 240 240 240 240 240 240 240 240 240 240 240 240 240 240 240 240 240 240 240 240 240 240 240 240 240 240 240 240 240 240 240 240 240 240 240 240 240 240 240 240 240 0 0 0 0 0
0 0 0 0 0 240 240 240 240 240 240 240 240 240 240 240 240 240 240 240 240 240 240 240 240 240 240 240 240 240 240 240 240 240 240 240 240 240 240 240 240 240 240 240 240 240 240 240 240 240 240 240 240 240 240 240 240 240 240 240 240 240 240 240 240 240 240 240 240 240 240 240 240 240 240 213 206 199 192 185 178 171 164 157 150 143 136 129 122 115 108 101 95 88 81 74 67 60 54 47 40 0 0 0 0 0 0 0 0 0 0 0 0 0 0 0 0 0 0 0 0 0 0 0 0 0 0 0 0 0 0 0 0 0 0 0 0 0 0 0 0 0 0 0 0 0 0 0 0 0 0 0 0 0 0 0 40 47 54 60 67 74 81 88 95 101 108 115 122 129 136 143 150 157 164 171 178 185 192 199 206 213 240 240 240 240 240 240 240 240 240 240 240 240 240 240 240 240 240 240 240 240 240 240 240 240 240 240 240 240 240 240 240 240 240 240 240 240 240 240 240 240 240 240 240 240 240 240 240 240 240 240 240 240 240 240 240 240 240 240 240 240 240 240 240 240 240 240 240 240 240 0 0 0 0 0
0 0 0 0 0 240 240 240 240 240 240 240 240 240 240 240 240 240 240 240 240 240 240 240 240 240 240 240 240 240 240 240 240 240 240 240 240 240 240 240 240 240 240 240 240 240 240 240 240 240 240 240 240 240 240 240 240 240 240 240 240 240 240 240 240 240 240 240 240 240 240 240 240 240 219 212 205 198 191 184 177 169 162 155 148 141 134 127 120 113 106 99 93 86 79 72 65 58 51 44 0 0 0 0 0 0 0 0 0 0 0 0 0 0 0 0 0 0 0 0 0 0 0 0 0 0 0 0 0 0 0 0 0 0 0 0 0 0 0 0 0 0 0 0 0 0 0 0 0 0 0 0 0 0 0 0 0 44 51 58 65 72 79 86 93 99 106 113 120 127 134 141 148 155 162 169 177 184 191 198 205 212 219 240 240 240 240 240 240 240 240 240 240 240 240 240 240 240 240 240 240 240 240 240 240 240 240 240 240 240 240 240 240 240 240 240 240 240 240 240 240 240 240 240 240 240 240 240 240 240 240 240 240 240 240 240 240 240 240 240 240 240 240 240 240 240 240 240 240 240 240 0 0 0 0 0
0 0 0 0 0 240 240 240 240 240 240 240 240 240 240 240 240 240 240 240 240 240 240 240 240 240 240 240 240 240 240 240 240 240 240 240 240 240 240 240 240 240 240 240 240 240 240 240 240 240 240 240 240 240 240 240 240 240 240 240 240 240 240 240 240 240 240 240 240 240 240 240 240 240 218 211 203 196 189 182 175 168 161 154 147 140 133 126 119 112 105 98 91 84 77 70 63 56 49 42 0 0 0 0 0 0 0 0 0 0 0 0 0 0 0 0 0 0 0 0 0 0 0 0 0 0 0 0 0 0 0 0 0 0 0 0 0 0 0 0 0 0 0 0 0 0 0 0 0 0 0 0 0 0 0 0 0 42 49 56 63 70 77 84 91 98 105 112 119 126 133 140 147 154 161 168 175 182 189 196 203 211 218 240 240 240 240 240 240 240 240 240 240 240 240 240 240 240 240 240 240 240 240 240 240 240 240 240 240 240 240 240 240 240 240 240 240 240 240 240 240 240 240 240 240 240 240 240 240 240 240 240 240 240 240 240 240 240 240 240 240 240 240 240 240 240 240 240 240 240 240 0 0 0 0 0
0 0 0 0 0 240 240 240 240 240 240 240 240 240 240 240 240 240 240 240 240 240 240 240 240 240 240 240 240 240 240 240 240 240 240 240 240 240 240 240 240 240 240 240 240 240 240 240 240 240 240 240 240 240 240 240 240 240 240 240 240 240 240 240 240 240 240 240 240 240 240 240 240 240 217 209 202 195 188 181 174 167 160 153 145 138 131 124 117 110 103 96 89 82 75 68 61 54 47 40 0 0 0 0 0 0 0 0 0 0 0 0 0 0 0 0 0 0 0 0 0 0 0 0 0 0 0 0 0 0 0 0 0 0 0 0 0 0 0 0 0 0 0 0 0 0 0 0 0 0 0 0 0 0 0 0 0 40 47 54 61 68 75 82 89 96 103 110 117 124 131 138 145 153 160 167 174 181 188 195 202 209 217 240 240 240 240 240 240 240 240 240 240 240 240 240 240 240 240 240 240 240 240 240 240 240 240 240 240 240 240 240 240 240 240 240 240 240 240 240 240 240 240 240 240 240 240 240 240 240 240 240 240 240 240 240 240 240 240 240 240 240 240 240 240 240 240 240 240 240 240 0 0 0 0 0
0 0 0 0 0 240 240 240 240 240 240 240 240 240 240 240 240 240 240 240 240 240 240 240 240 240 240 240 240 240 240 240 240 240 240 240 240 240 240 240 240 240 240 240 240 240 240 240 240 240 240 240 240 240 240 240 240 240 240 240 240 240 240 240 240 240 240 240 240 240 240 240 240 240 216 208 201 194 187 180 173 166 159 151 144 137 130 123 116 109 102 95 88 80 73 66 59 52 45 0 0 0 0 0 0 0 0 0 0 0 0 0 0 0 0 0 0 0 0 0 0 0 0 0 0 0 0 0 0 0 0 0 0 0 0 0 0 0 0 0 0 0 0 0 0 0 0 0 0 0 0 0 0 0 0 0 0 0 45 52 59 66 73 80 88 95 102 109 116 123 130 137 144 151 159 166 173 180 187 194 201 208 216 240 240 240 240 240 240 240 240 240 240 240 240 240 240 240 240 240 240 240 240 240 240 240 240 240 240 240 240 240 240 240 240 240 240 240 240 240 240 240 240 240 240 240 240 240 240 240 240 240 240 240 240 240 240 240 240 240 240 240 240 240 240 240 240 240 240 240 240 0 0 0 0 0
0 0 0 0 0 240 240 240 240 240 240 240 240 240 240 240 240 240 240 240 240 240 240 240 240 240 240 240 240 240 240 240 240 240 240 240 240 240 240 240 240 240 240 240 240 240 240 240 240 240 240 240 240 240 240 240 240 240 240 240 240 240 240 240 240 240 240 240 240 240 240 240 240 240 215 208 200 193 186 179 172 165 158 150 143 136 129 122 115 108 100 93 86 79 72 65 58 51 44 0 0 0 0 0 0 0 0 0 0 0 0 0 0 0 0 0 0 0 0 0 0 0 0 0 0 0 0 0 0 0 0 0 0 0 0 0 0 0 0 0 0 0 0 0 0 0 0 0 0 0 0 0 0 0 0 0 0 0 44 51 58 65 72 79 86 93 100 108 115 122 129 136 143 150 158 165 172 179 186 193 200 208 215 240 240 240 240 240 240 240 240 240 240 240 240 240 240 240 240 240 240 240 240 240 240 240 240 240 240 240 240 240 240 240 240 240 240 240 240 240 240 240 240 240 240 240 240 240 240 240 240 240 240 240 240 240 240 240 240 240 240 240 240 240 240 240 240 240 240 240 240 0 0 0 0 0
0 0 0 0 0 240 240 240 240 240 240 240 240 240 240 240 240 240 240 240 240 240 240 240 240 240 240 240 240 240 240 240 240 240 240 240 240 240 240 240 240 240 240 240 240 240 240 240 240 240 240 240 240 240 240 240 240 240 240 240 240 240 240 240 240 240 240 240 240 240 240 240 240 240 214 207 200 192 185 178 171 164 157 149 142 135 128 121 114 107 99 92 85 78 71 64 57 50 42 0 0 0 0 0 0 0 0 0 0 0 0 0 0 0 0 0 0 0 0 0 0 0 0 0 0 0 0 0 0 0 0 0 0 0 0 0 0 0 0 0 0 0 0 0 0 0 0 0 0 0 0 0 0 0 0 0 0 0 42 50 57 64 71 78 85 92 99 107 114 121 128 135 142 149 157 164 171 178 185 192 200 207 214 240 240 240 240 240 240 240 240 240 240 240 240 240 240 240 240 240 240 240 240 240 240 240 240 240 240 240 240 240 240 240 240 240 240 240 240 240 240 240 240 240 240 240 240 240 240 240 240 240 240 240 240 240 240 240 240 240 240 240 240 240 240 240 240 240 240 240 240 0 0 0 0 0
0 0 0 0 0 240 240 240 240 240 240 240 240 240 240 240 240 240 240 240 240 240 240 240 240 240 240 240 240 240 240 240 240 240 240 240 240 240 240 240 240 240 240 240 240 240 240 240 240 240 240 240 240 240 240 240 240 240 240 240 240 240 240 240 240 240 240 240 240 240 240 240 240 240 213 206 199 192 185 177 170 163 156 149 142 134 127 120 113 106 99 91 84 77 70 63 56 49 41 0 0 0 0 0 0 0 0 0 0 0 0 0 0 0 0 0 0 0 0 0 0 0 0 0 0 0 0 0 0 0 0 0 0 0 0 0 0 0 0 0 0 0 0 0 0 0 0 0 0 0 0 0 0 0 0 0 0 0 41 49 56 63 70 77 84 91 99 106 113 120 127 134 142 149 156 163 170 177 185 192 199 206 213 240 240 240 240 240 240 240 240 240 240 240 240 240 240 240 240 240 240 240 240 240 240 240 240 240 240 240 240 240 240 240 240 240 240 240 240 240 240 240 240 240 240 240 240 240 240 240 240 240 240 240 240 240 240 240 240 240 240 240 240 240 240 240 240 240 240 240 240 0 0 0 0 0
0 0 0 0 0 240 240 240 240 240 240 240 240 240 240 240 240 240 240 240 240 240 240 240 240 240 240 240 240 240 240 240 240 240 240 240 240 240 240 240 240 240 240 240 240 240 240 240 240 240 240 240 240 240 240 240 240 240 240 240 240 240 240 240 240 240 240 240 240 240 240 240 240 240 213 206 199 191 184 177 170 163 155 148 141 134 127 119 112 105 98 91 84 76 69 62 55 48 41 0 0 0 0 0 0 0 0 0 0 0 0 0 0 0 0 0 0 0 0 0 0 0 0 0 0 0 0 0 0 0 0 0 0 0 0 0 0 0 0 0 0 0 0 0 0 0 0 0 0 0 0 0 0 0 0 0 0 0 41 48 55 62 69 76 84 91 98 105 112 119 127 134 141 148 155 163 170 177 184 191 199 206 213 240 240 240 240 240 240 240 240 240 240 240 240 240 240 240 240 240 240 240 240 240 240 240 240 240 240 240 240 240 240 240 240 240 240 240 240 240 240 240 240 240 240 240 240 240 240 240 240 240 240 240 240 240 240 240 240 240 240 240 240 240 240 240 240 240 240 240 240 0 0 0 0 0
0 0 0 0 0 240 240 240 240 240 240 240 240 240 240 240 240 240 240 240 240 240 240 240 240 240 240 240 240 240 240 240 240 240 240 240 240 240 240 240 240 240 240 240 240 240 240 240 240 240 240 240 240 240 240 240 240 240 240 240 240 240 240 240 240 240 240 240 240 240 240 240 240 240 213 205 198 191 184 177 169 162 155 148 141 133 126 119 112 105 97 90 83 76 69 62 54 47 40 0 0 0 0 0 0 0 0 0 0 0 0 0 0 0 0 0 0 0 0 0 0 0 0 0 0 0 0 0 0 0 0 0 0 0 0 0 0 0 0 0 0 0 0 0 0 0 0 0 0 0 0 0 0 0 0 0 0 0 40 47 54 62 69 76 83 90 97 105 112 119 126 133 141 148 155 162 169 177 184 191 198 205 213 240 240 240 240 240 240 240 240 240 240 240 240 240 240 240 240 240 240 240 240 240 240 240 240 240 240 240 240 240 240 240 240 240 240 240 240 240 240 240 240 240 240 240 240 240 240 240 240 240 240 240 240 240 240 240 240 240 240 240 240 240 240 240 240 240 240 240 240 0 0 0 0 0
0 0 0 0 0 240 240 240 240 240 240 240 240 240 240 240 240 240 240 240 240 240 240 240 240 240 240 240 240 240 240 240 240 240 240 240 240 240 240 240 240 240 240 240 240 240 240 240 240 240 240 240 240 240 240 240 240 240 240 240 240 240 240 240 240 240 240 240 240 240 240 240 240 240 212 205 198 191 184 176 169 162 155 148 140 133 126 119 112 104 97 90 83 76 68 61 54 47 40 0 0 0 0 0 0 0 0 0 0 0 0 0 0 0 0 0 0 0 0 0 0 0 0 0 0 0 0 0 0 0 0 0 0 0 0 0 0 0 0 0 0 0 0 0 0 0 0 0 0 0 0 0 0 0 0 0 0 0 40 47 54 61 68 76 83 90 97 104 112 119 126 133 140 148 155 162 169 176 184 191 198 205 212 240 240 240 240 240 240 240 240 240 240 240 240 240 240 240 240 240 240 240 240 240 240 240 240 240 240 240 240 240 240 240 240 240 240 240 240 240 240 240 240 240 240 240 240 240 240 240 240 240 240 240 240 240 240 240 240 240 240 240 240 240 240 240 240 240 240 240 240 0 0 0 0 0
0 0 0 0 0 240 240 240 240 240 240 240 240 240 240 240 240 240 240 240 240 240 240 240 240 240 240 240 240 240 240 240 240 240 240 240 240 240 240 240 240 240 240 240 240 240 240 240 240 240 240 240 240 240 240 240 240 240 240 240 240 240 240 240 240 240 240 240 240 240 240 240 240 220 212 205 198 191 184 176 169 162 155 148 140 133 126 119 112 104 97 90 83 76 68 61 54 47 0 0 0 0 0 0 0 0 0 0 0 0 0 0 0 0 0 0 0 0 0 0 0 0 0 0 0 0 0 0 0 0 0 0 0 0 0 0 0 0 0 0 0 0 0 0 0 0 0 0 0 0 0 0 0 0 0 0 0 0 0 47 54 61 68 76 83 90 97 104 112 119 126 133 140 148 155 162 169 176 184 191 198 205 212 220 240 240 240 240 240 240 240 240 240 240 240 240 240 240 240 240 240 240 240 240 240 240 240 240 240 240 240 240 240 240 240 240 240 240 240 240 240 240 240 240 240 240 240 240 240 240 240 240 240 240 240 240 240 240 240 240 240 240 240 240 240 240 240 240 240 240 240 0 0 0 0 0
0 0 0 0 0 240 240 240 240 240 240 240 240 240 240 240 240 240 240 240 240 240 240 240 240 240 240 240 240 240 240 240 240 240 240 240 240 240 240 240 240 240 240 240 240 240 240 240 240 240 240 240 240 240 240 240 240 240 240 240 240 240 240 240 240 240 240 240 240 240 240 240 240 240 212 205 198 191 184 176 169 162 155 148 140 133 126 119 112 104 97 90 83 76 68 61 54 47 40 0 0 0 0 0 0 0 0 0 0 0 0 0 0 0 0 0 0 0 0 0 0 0 0 0 0 0 0 0 0 0 0 0 0 0 0 0 0 0 0 0 0 0 0 0 0 0 0 0 0 0 0 0 0 0 0 0 0 0 40 47 54 61 68 76 83 90 97 104 112 119 126 133 140 148 155 162 169 176 184 191 198 205 212 240 240 240 240 240 240 240 240 240 240 240 240 240 240 240 240 240 240 240 240 240 240 240 240 240 240 240 240 240 240 240 240 240 240 240 240 240 240 240 240 240 240 240 240 240 240 240 240 240 240 240 240 240 240 240 240 240 240 240 240 240 240 240 240 240 240 240 240 0 0 0 0 0
0 0 0 0 0 240 240 240 240 240 240 240 240 240 240 240 240 240 240 240 240 240 240 240 240 240 240 240 240 240 240 240 240 240 240 240 240 240 240 240 240 240 240 240 240 240 240 240 240 240 240 240 240 240 240 240 240 240 240 240 220 240 240 240 240 240 240 240 240 240 240 240 240 240 213 205 198 191 184 177 169 162 155 148 141 133 126 119 112 105 97 90 83 76 69 62 54 47 40 0 0 0 0 0 0 0 0 0 0 0 0 0 0 0 0 0 0 0 0 0 0 0 0 0 0 0 0 0 0 0 0 0 0 0 0 0 0 0 0 0 0 0 0 0 0 0 0 0 0 0 0 0 0 0 0 0 0 0 40 47 54 62 69 76 83 90 97 105 112 119 126 133 141 148 155 162 169 177 184 191 198 205 213 240 240 240 240 240 240 240 240 240 240 240 240 240 240 240 240 240 240 240 240 240 240 240 240 240 240 240 240 240 240 240 240 240 240 240 240 240 240 240 240 240 240 240 240 240 240 240 240 240 240 240 240 240 240 240 240 240 240 240 240 240 240 240 240 240 240 240 240 0 0 0 0 0
0 0 0 0 0 240 240 240 240 240 240 240 240 240 240 240 240 240 240 240 240 240 240 240 240 240 240 240 240 240 240 240 240 240 240 240 240 240 240 240 240 240 240 240 240 240 240 240 240 240 240 218 217 216 215 214 213 213 213 212 212 212 213 213 213 214 215 216 217 218 240 240 240 240 213 206 199 191 184 177 170 163 155 148 141 134 127 119 112 105 98 91 84 76 69 62 55 48 41 0 0 0 0 0 0 0 0 0 0 0 0 0 0 0 0 0 0 0 0 0 0 0 0 0 0 0 0 0 0 0 0 0 0 0 0 0 0 0 0 0 0 0 0 0 0 0 0 0 0 0 0 0 0 0 0 0 0 0 41 48 55 62 69 76 84 91 98 105 112 119 127 134 141 148 155 163 170 177 184 191 199 206 213 240 240 240 240 240 240 240 240 240 240 240 240 240 240 240 240 240 240 240 240 240 240 240 240 240 240 240 240 240 240 240 240 240 240 240 240 240 240 240 240 240 240 240 240 240 240 240 240 240 240 240 240 240 240 240 240 240 240 240 240 240 240 240 240 240 240 240 240 0 0 0 0 0
0 0 0 0 0 240 240 240 240 240 240 240 240 240 240 240 240 240 240 240 240 240 240 240 240 240 240 240 240 240 240 240 240 240 240 240 240 240 240 240 240 240 240 240 240 240 220 218 216 214 213 211 210 209 208 207 206 206 205 205 205 205 205 206 206 207 208 209 210 211 213 214 216 218 213 206 199 192 185 177 170 163 156 149 142 134 127 120 113 106 99 91 84 77 70 63 56 49 41 0 0 0 0 0 0 0 0 0 0 0 0 0 0 0 0 0 0 0 0 0 0 0 0 0 0 0 0 0 0 0 0 0 0 0 0 0 0 0 0 0 0 0 0 0 0 0 0 0 0 0 0 0 0 0 0 0 0 0 41 49 56 63 70 77 84 91 99 106 113 120 127 134 142 149 156 163 170 177 185 192 199 206 213 240 240 240 240 240 240 240 240 240 240 240 240 240 240 240 240 240 240 240 240 240 240 240 240 240 240 240 240 240 240 240 240 240 240 240 240 240 240 240 240 240 240 240 240 240 240 240 240 240 240 240 240 240 240 240 240 240 240 240 240 240 240 240 240 240 240 240 240 0 0 0 0 0
0 0 0 0 0 240 240 240 240 240 240 240 240 240 240 240 240 240 240 240 240 240 240 240 240 240 240 240 240 240 240 240 240 240 240 240 240 240 240 240 240 240 240 219 217 215 213 211 209 207 205 204 203 202 201 200 199 199 198 198 198 198 198 199 199 200 201 202 203 204 205 207 209 211 213 207 200 192 185 178 171 164 157 149 142 135 128 121 114 107 99 92 85 78 71 64 57 50 42 0 0 0 0 0 0 0 0 0 0 0 0 0 0 0 0 0 0 0 0 0 0 0 0 0 0 0 0 0 0 0 0 0 0 0 0 0 0 0 0 0 0 0 0 0 0 0 0 0 0 0 0 0 0 0 0 0 0 0 42 50 57 64 71 78 85 92 99 107 114 121 128 135 142 149 157 164 171 178 185 192 200 207 214 240 240 240 240 240 240 240 240 240 240 240 240 240 240 240 240 240 240 240 240 240 240 240 240 240 240 240 240 240 240 240 240 240 240 240 240 240 240 240 240 240 240 240 240 240 240 240 240 240 240 240 240 240 240 240 240 240 240 240 240 240 240 240 240 240 240 240 240 0 0 0 0 0
0 0 0 0 0 240 240 240 240 240 240 240 240 240 240 240 240 240 240 240 240 240 240 240 240 240 240 240 240 240 240 240 240 240 240 240 240 240 240 240 240 218 215 213 210 208 206 204 202 200 198 197 196 195 194 193 192 191 191 191 191 191 191 191 192 193 194 195 196 197 198 200 202 204 206 208 200 193 186 179 172 165 158 150 143 136 129 122 115 108 100 93 86 79 72 65 58 51 44 0 0 0 0 0 0 0 0 0 0 0 0 0 0 0 0 0 0 0 0 0 0 0 0 0 0 0 0 0 0 0 0 0 0 0 0 0 0 0 0 0 0 0 0 0 0 0 0 0 0 0 0 0 0 0 0 0 0 0 44 51 58 65 72 79 86 93 100 108 115 122 129 136 143 150 158 165 172 179 186 193 200 208 215 240 240 240 240 240 240 240 240 240 240 240 240 240 240 240 240 240 240 240 240 240 240 240 240 240 240 240 240 240 240 240 240 240 240 240 240 240 240 240 240 240 240 240 240 240 240 240 240 240 240 240 240 240 240 240 240 240 240 240 240 240 240 240 240 240 240 240 240 0 0 0 0 0
0 0 0 0 0 240 240 240 240 240 240 240 240 240 240 240 240 240 240 240 240 240 240 240 240 240 240 240 240 240 240 240 240 240 240 240 240 240 240 217 214 211 208 206 203 201 199 197 195 193 191 190 189 187 186 185 185 184 184 184 184 184 184 184 185 185 186 187 189 190 191 193 195 197 199 201 201 194 187 180 173 166 159 151 144 137 130 123 116 109 102 95 88 80 73 66 59 52 45 0 0 0 0 0 0 0 0 0 0 0 0 0 0 0 0 0 0 0 0 0 0 0 0 0 0 0 0 0 0 0 0 0 0 0 0 0 0 0 0 0 0 0 0 0 0 0 0 0 0 0 0 0 0 0 0 0 0 0 45 52 59 66 73 80 88 95 102 109 116 123 130 137 144 151 159 166 173 180 187 194 201 208 216 240 240 240 240 240 240 240 240 240 240 240 240 240 240 240 240 240 240 240 240 240 240 240 240 240 240 240 240 240 240 240 240 240 240 240 240 240 240 240 240 240 240 240 240 240 240 240 240 240 240 240 240 240 240 240 240 240 240 240 240 240 240 240 240 240 240 240 240 0 0 0 0 0
0 0 0 0 0 240 240 240 240 240 240 240 240 240 240 240 240 240 240 240 240 240 240 240 240 240 240 240 240 240 240 240 240 240 240 240 240 217 214 211 207 205 202 199 197 194 192 190 188 186 184 183 181 180 179 178 178 177 177 176 176 176 177 177 178 178 179 180 181 183 184 186 188 190 192 194 197 195 188 181 174 167 160 153 145 138 131 124 117 110 103 96 89 82 75 68 61 54 47 40 0 0 0 0 0 0 0 0 0 0 0 0 0 0 0 0 0 0 0 0 0 0 0 0 0 0 0 0 0 0 0 0 0 0 0 0 0 0 0 0 0 0 0 0 0 0 0 0 0 0 0 0 0 0 0 0 0 40 47 54 61 68 75 82 89 96 103 110 117 124 131 138 145 153 160 167 174 181 188 195 202 209 213 213 214 214 215 216 217 219 240 240 240 240 240 240 240 240 240 240 240 240 240 240 240 240 240 240 240 240 240 240 240 240 240 240 240 240 240 240 240 240 240 240 240 240 240 240 240 240 240 240 240 240 240 240 240 240 240 240 240 240 240 240 240 240 240 240 240 240 240 0 0 0 0 0
0 0 0 0 0 240 240 240 240 240 240 240 240 240 240 240 240 240 240 240 240 240 240 240 240 240 240 240 240 240 240 240 240 240 240 218 214 211 207 204 201 198 195 192 190 187 185 183 181 179 177 176 174 173 172 171 170 170 169 169 169 169 169 170 170 171 172 173 174 176 177 179 181 183 185 187 190 192 189 182 175 168 161 154 147 140 133 126 119 112 105 98 91 84 77 70 63 56 49 42 0 0 0 0 0 0 0 0 0 0 0 0 0 0 0 0 0 0 0 0 0 0 0 0 0 0 0 0 0 0 0 0 0 0 0 0 0 0 0 0 0 0 0 0 0 0 0 0 0 0 0 0 0 0 0 0 0 42 49 56 63 70 77 84 91 98 105 112 119 126 133 140 147 154 161 168 175 182 189 196 203 205 205 206 206 207 208 209 210 212 213 215 217 219 240 240 240 240 240 240 240 240 240 240 240 240 240 240 240 240 240 240 240 240 240 240 240 240 240 240 240 240 240 240 240 240 240 240 240 240 240 240 240 240 240 240 240 240 240 240 240 240 240 240 240 240 240 240 240 240 240 0 0 0 0 0
0 0 0 0 0 240 240 240 240 240 240 240 240 240 240 240 240 240 240 240 240 240 240 240 240 240 240 240 240 240 240 240 240 219 215 211 208 204 201 198 194 191 189 186 183 181 178 176 174 172 170 169 167 166 165 164 163 163 162 162 162 162 162 163 163 164 165 166 167 169 170 172 174 176 178 181 183 186 189 184 177 169 162 155 148 141 134 127 120 113 106 99 93 86 79 72 65 58 51 44 0 0 0 0 0 0 0 0 0 0 0 0 0 0 0 0 0 0 0 0 0 0 0 0 0 0 0 0 0 0 0 0 0 0 0 0 0 0 0 0 0 0 0 0 0 0 0 0 0 0 0 0 0 0 0 0 0 44 51 58 65 72 79 86 93 99 106 113 120 127 134 141 148 155 162 169 177 184 191 198 198 198 198 199 199 200 201 202 203 205 206 208 210 212 214 217 219 240 240 240 240 240 240 240 240 240 240 240 240 240 240 240 240 240 240 240 240 240 240 240 240 240 240 240 240 240 240 240 240 240 240 240 240 240 240 240 240 240 240 240 240 240 240 240 240 240 240 240 240 240 240 0 0 0 0 0
0 0 0 0 0 240 240 240 240 240 240 240 240 240 240 240 240 240 240 240 240 240 240 240 240 240 240 240 240 240 240 240 217 213 209 205 202 198 195 191 188 185 182 179 176 174 171 169 167 165 163 162 160 159 158 157 156 155 155 155 155 155 155 155 156 157 158 159 160 162 163 165 167 169 171 174 176 179 182 185 178 171 164 157 150 143 136 129 122 115 108 101 95 88 81 74 67 60 54 47 40 0 0 0 0 0 0 0 0 0 0 0 0 0 0 0 0 0 0 0 0 0 0 0 0 0 0 0 0 0 0 0 0 0 0 0 0 0 0 0 0 0 0 0 0 0 0 0 0 0 0 0 0 0 0 0 40 47 54 60 67 74 81 88 95 101 108 115 122 129 136 143 150 157 164 171 178 185 191 191 191 191 191 191 192 193 194 195 196 198 199 201 203 205 207 210 212 215 218 240 240 240 240 240 240 240 240 240 240 240 240 240 240 240 240 240 240 240 240 240 240 240 240 240 240 240 240 240 240 240 240 240 240 240 240 240 240 240 240 240 240 240 240 240 240 240 240 240 240 240 240 0 0 0 0 0
0 0 0 0 0 240 240 240 240 240 240 240 240 240 240 240 240 240 240 240 240 240 240 240 240 240 240 240 240 240 220 215 211 207 203 199 195 192 188 185 181 178 175 172 170 167 165 162 160 158 156 155 153 152 151 150 149 148 148 148 148 148 148 148 149 150 151 152 153 155 156 158 160 162 165 167 170 172 175 178 180 173 166 159 152 145 138 131 124 117 110 104 97 90 83 76 70 63 56 49 43 0 0 0 0 0 0 0 0 0 0 0 0 0 0 0 0 0 0 0 0 0 0 0 0 0 0 0 0 0 0 0 0 0 0 0 0 0 0 0 0 0 0 0 0 0 0 0 0 0 0 0 0 0 0 0 43 49 56 63 70 76 83 90 97 104 110 117 124 131 138 145 152 159 166 173 180 184 184 184 184 184 184 184 185 186 187 188 189 191 192 194 196 198 201 203 206 208 211 214 217 240 240 240 240 240 240 240 240 240 240 240 240 240 240 240 240 240 240 240 240 240 240 240 240 240 240 240 240 240 240 240 240 240 240 240 240 240 240 240 240 240 240 240 240 240 240 240 240 240 240 0 0 0 0 0
0 0 0 0 0 240 240 240 240 240 240 240 240 240 240 240 240 240 240 240 240 240 240 240 240 240 240 240 240 218 214 209 205 201 197 193 189 185 182 178 175 172 169 166 163 160 158 155 153 151 149 148 146 145 144 143 142 141 141 140 140 140 141 141 142 143 144 145 146 148 149 151 153 155 158 160 163 166 169 172 175 175 168 161 154 147 140 133 126 119 113 106 99 92 86 79 72 66 59 52 46 0 0 0 0 0 0 0 0 0 0 0 0 0 0 0 0 0 0 0 0 0 0 0 0 0 0 0 0 0 0 0 0 0 0 0 0 0 0 0 0 0 0 0 0 0 0 0 0 0 0 0 0 0 0 0 46 52 59 66 72 79 86 92 99 106 113 119 126 133 140 147 154 161 168 175 178 177 177 176 176 176 177 177 178 179 180 181 182 184 185 187 189 191 194 196 199 202 205 208 211 214 218 240 240 240 240 240 240 240 240 240 240 240 240 240 240 240 240 240 240 240 240 240 240 240 240 240 240 240 240 240 240 240 240 240 240 240 240 240 240 240 240 240 240 240 240 240 240 240 240 0 0 0 0 0
0 0 0 0 0 240 240 240 240 240 240 240 240 240 240 240 240 240 240 240 240 240 240 240 240 240 240 240 217 213 208 204 199 195 191 187 183 179 176 172 169 165 162 159 156 154 151 149 146 144 142 141 139 138 136 135 135 134 133 133 133 133 133 134 135 135 136 138 139 141 142 144 146 149 151 154 156 159 162 165 169 172 170 163 156 149 142 135 129 122 115 108 102 95 88 82 75 68 62 55 49 42 0 0 0 0 0 0 0 0 0 0 0 0 0 0 0 0 0 0 0 0 0 0 0 0 0 0 0 0 0 0 0 0 0 0 0 0 0 0 0 0 0 0 0 0 0 0 0 0 0 0 0 0 0 42 49 55 62 68 75 82 88 95 102 108 115 122 129 135 142 149 156 163 170 171 171 170 169 169 169 169 169 170 171 171 172 174 175 177 178 180 182 185 187 190 192 195 198 201 205 208 212 215 219 240 240 240 240 240 240 240 240 240 240 240 240 240 240 240 240 240 240 240 240 240 240 240 240 240 240 240 240 240 240 240 240 240 240 240 240 240 240 240 240 240 240 240 240 240 240 0 0 0 0 0
0 0 0 0 0 240 240 240 240 240 240 240 240 240 240 240 240 240 240 240 240 240 240 240 240 240 240 216 212 207 202 198 194 189 185 181 177 173 169 166 162 159 156 153 150 147 144 142 140 137 135 134 132 131 129 128 127 127 126 126 126 126 126 127 127 128 129 131 132 134 135 137 140 142 144 147 150 153 156 159 162 166 169 165 158 151 145 138 131 124 118 111 104 98 91 84 78 71 65 59 52 46 40 0 0 0 0 0 0 0 0 0 0 0 0 0 0 0 0 0 0 0 0 0 0 0 0 0 0 0 0 0 0 0 0 0 0 0 0 0 0 0 0 0 0 0 0 0 0 0 0 0 0 0 40 46 52 59 65 71 78 84 91 98 104 111 118 124 131 138 145 151 158 165 165 164 163 163 162 162 162 162 162 163 163 164 165 167 168 170 171 173 176 178 180 183 186 189 192 195 198 202 205 209 213 217 240 240 240 240 240 240 240 240 240 240 240 240 240 240 240 240 240 240 240 240 240 240 240 240 240 240 240 240 240 240 240 240 240 240 240 240 240 240 240 240 240 240 240 240 240 0 0 0 0 0
0 0 0 0 0 240 240 240 240 240 240 240 240 240 240 240 240 240 240 240 240 240 240 240 240 240 216 211 206 202 197 192 188 184 179 175 171 167 163 160 156 153 149 146 143 140 138 135 133 131 129 127 125 124 122 121 120 120 119 119 119 119 119 120 120 121 122 124 125 127 129 131 133 135 138 140 143 146 149 153 156 160 163 167 161 154 147 140 134 127 120 114 107 101 94 88 81 75 68 62 56 49 43 0 0 0 0 0 0 0 0 0 0 0 0 0 0 0 0 0 0 0 0 0 0 0 0 0 0 0 0 0 0 0 0 0 0 0 0 0 0 0 0 0 0 0 0 0 0 0 0 0 0 0 43 49 56 62 68 75 81 88 94 101 107 114 120 127 134 140 147 154 161 160 158 157 156 156 155 155 155 155 155 156 156 157 158 160 161 163 165 167 169 171 174 176 179 182 185 189 192 196 199 203 207 211 215 220 240 240 240 240 240 240 240 240 240 240 240 240 240 240 240 240 240 240 240 240 240 240 240 240 240 240 240 240 240 240 240 240 240 240 240 240 240 240 240 240 240 240 240 0 0 0 0 0
0 0 0 0 0 240 240 240 240 240 240 240 240 240 240 240 240 240 240 240 240 240 240 240 240 216 211 206 201 196 191 187 182 178 173 169 165 161 157 153 150 146 143 140 137 134 131 128 126 124 122 120 118 116 115 114 113 112 112 112 112 112 112 112 113 114 115 116 118 120 122 124 126 128 131 134 137 140 143 146 150 153 157 161 163 156 150 143 136 130 123 117 110 104 97 91 84 78 72 66 59 53 47 41 0 0 0 0 0 0 0 0 0 0 0 0 0 0 0 0 0 0 0 0 0 0 0 0 0 0 0 0 0 0 0 0 0 0 0 0 0 0 0 0 0 0 0 0 0 0 0 0 0 41 47 53 59 66 72 78 84 91 97 104 110 117 123 130 136 143 150 156 154 152 151 150 149 148 148 148 148 148 148 148 149 150 151 152 154 156 158 160 162 164 167 170 173 176 179 182 186 189 193 197 201 205 209 214 218 240 240 240 240 240 240 240 240 240 240 240 240 240 240 240 240 240 240 240 240 240 240 240 240 240 240 240 240 240 240 240 240 240 240 240 240 240 240 240 240 240 240 0 0 0 0 0
0 0 0 0 0 240 240 240 240 240 240 240 240 240 240 240 240 240 240 240 240 240 240 240 216 211 206 201 196 191 186 181 177 172 168 163 159 155 151 147 144 140 136 133 130 127 124 122 119 117 115 113 111 109 108 107 106 105 105 104 104 104 105 105 106 107 108 109 111 113 115 117 119 122 124 127 130 133 136 140 144 147 151 155 159 159 153 146 139 133 126 120 113 107 100 94 88 82 75 69 63 57 51 45 0 0 0 0 0 0 0 0 0 0 0 0 0 0 0 0 0 0 0 0 0 0 0 0 0 0 0 0 0 0 0 0 0 0 0 0 0 0 0 0 0 0 0 0 0 0 0 0 0 45 51 57 63 69 75 82 88 94 100 107 113 120 126 133 139 146 151 149 147 145 144 143 142 141 141 140 140 140 141 141 142 143 144 145 147 149 151 153 155 158 160 163 166 169 172 176 180 183 187 191 195 199 204 208 213 217 240 240 240 240 240 240 240 240 240 240 240 240 240 240 240 240 240 240 240 240 240 240 240 240 240 240 240 240 240 240 240 240 240 240 240 240 240 240 240 240 240 0 0 0 0 0
0 0 0 0 0 240 240 240 240 240 240 240 240 240 240 240 240 240 240 240 240 240 240 216 211 206 201 196 190 185 181 176 171 166 162 158 153 149 145 141 137 134 130 127 124 120 118 115 112 110 108 106 104 102 101 100 99 98 98 97 97 97 98 98 99 100 101 102 104 106 108 110 112 115 118 120 124 127 130 134 137 141 145 149 153 158 155 149 142 136 129 123 117 110 104 98 91 85 79 73 67 61 55 50 44 0 0 0 0 0 0 0 0 0 0 0 0 0 0 0 0 0 0 0 0 0 0 0 0 0 0 0 0 0 0 0 0 0 0 0 0 0 0 0 0 0 0 0 0 0 0 0 44 50 55 61 67 73 79 85 91 98 104 110 117 123 129 136 142 146 144 142 140 138 137 136 135 134 134 133 133 133 134 134 135 136 137 138 140 142 144 146 148 151 154 156 160 163 166 170 173 177 181 185 189 194 198 202 207 212 217 240 240 240 240 240 240 240 240 240 240 240 240 240 240 240 240 240 240 240 240 240 240 240 240 240 240 240 240 240 240 240 240 240 240 240 240 240 240 240 240 0 0 0 0 0
0 0 0 0 0 240 240 240 240 240 240 240 240 240 240 240 240 240 240 240 240 240 217 212 206 201 196 190 185 180 175 170 166 161 156 152 148 143 139 135 131 127 124 120 117 114 111 108 106 103 101 99 97 95 94 93 92 91 90 90 90 90 90 91 92 93 94 95 97 99 101 103 106 108 111 114 117 120 124 127 131 135 139 143 148 152 156 152 145 139 133 126 120 114 108 101 95 89 83 77 71 65 60 54 48 43 0 0 0 0 0 0 0 0 0 0 0 0 0 0 0 0 0 0 0 0 0 0 0 0 0 0 0 0 0 0 0 0 0 0 0 0 0 0 0 0 0 0 0 0 0 43 48 54 60 65 71 77 83 89 95 101 108 114 120 126 133 139 142 139 137 135 133 131 130 129 128 127 126 126 126 126 126 127 128 129 130 131 133 135 137 139 142 144 147 150 153 156 160 163 167 171 175 179 184 188 192 197 202 206 211 216 240 240 240 240 240 240 240 240 240 240 240 240 240 240 240 240 240 240 240 240 240 240 240 240 240 240 240 240 240 240 240 240 240 240 240 240 240 240 240 0 0 0 0 0
0 0 0 0 0 240 240 240 240 240 240 240 240 240 240 240 240 240 240 240 240 218 213 207 202 196 191 185 180 175 170 165 160 155 151 146 142 137 133 129 125 121 118 114 111 107 104 102 99 96 94 92 90 88 87 86 85 84 83 83 83 83 83 84 85 86 87 88 90 92 94 96 99 102 104 107 111 114 118 121 125 129 133 137 142 146 151 155 149 142 136 130 124 117 111 105 99 93 87 81 76 70 64 59 53 48 42 0 0 0 0 0 0 0 0 0 0 0 0 0 0 0 0 0 0 0 0 0 0 0 0 0 0 0 0 0 0 0 0 0 0 0 0 0 0 0 0 0 0 0 42 48 53 59 64 70 76 81 87 93 99 105 111 117 124 130 136 138 135 132 130 128 126 124 123 122 121 120 119 119 119 119 119 120 121 122 123 124 126 128 130 132 135 138 140 143 147 150 154 157 161 165 169 173 178 182 187 191 196 201 206 211 216 240 240 240 240 240 240 240 240 240 240 240 240 240 240 240 240 240 240 240 240 240 240 240 240 240 240 240 240 240 240 240 240 240 240 240 240 240 240 0 0 0 0 0
0 0 0 0 0 240 240 240 240 240 240 240 240 240 240 240 240 240 240 240 220 214 208 202 197 191 186 181 175 170 165 160 155 150 145 141 136 132 127 123 119 115 111 108 104 101 98 95 92 90 87 85 83 81 80 78 77 77 76 76 76 76 76 77 77 78 80 81 83 85 87 90 92 95 98 101 104 108 111 115 119 123 127 132 136 141 145 150 152 146 140 133 127 121 115 109 103 97 91 86 80 74 69 63 58 53 48 42 0 0 0 0 0 0 0 0 0 0 0 0 0 0 0 0 0 0 0 0 0 0 0 0 0 0 0 0 0 0 0 0 0 0 0 0 0 0 0 0 0 42 48 53 58 63 69 74 80 86 91 97 103 109 115 121 127 133 134 131 128 126 123 121 119 117 116 114 113 113 112 112 112 112 112 113 113 114 116 117 119 121 123 126 128 131 134 137 140 144 147 151 155 159 163 168 172 177 181 186 191 196 201 206 211 217 240 240 240 240 240 240 240 240 240 240 240 240 240 240 240 240 240 240 240 240 240 240 240 240 240 240 240 240 240 240 240 240 240 240 240 240 240 0 0 0 0 0
0 0 0 0 0 240 240 240 240 240 240 240 240 240 240 240 240 240 240 240 215 209 204 198 192 187 181 176 170 165 160 155 150 145 140 135 131 126 122 117 113 109 105 102 98 95 91 88 85 83 80 78 76 74 73 71 70 69 69 68 68 68 69 69 70 71 73 74 76 78 80 83 85 88 91 95 98 102 105 109 113 117 122 126 131 135 140 145 150 149 143 137 131 125 119 113 107 101 96 90 84 79 73 68 63 58 53 48 43 0 0 0 0 0 0 0 0 0 0 0 0 0 0 0 0 0 0 0 0 0 0 0 0 0 0 0 0 0 0 0 0 0 0 0 0 0 0 0 43 48 53 58 63 68 73 79 84 90 96 101 107 113 119 125 131 131 127 124 121 119 116 114 112 110 109 107 106 105 105 104 104 104 105 105 106 107 109 110 112 114 116 119 121 124 127 131 134 138 141 145 149 153 158 162 167 171 176 181 186 191 196 201 206 212 217 240 240 240 240 240 240 240 240 240 240 240 240 240 240 240 240 240 240 240 240 240 240 240 240 240 240 240 240 240 240 240 240 240 240 240 240 0 0 0 0 0
0 0 0 0 0 240 240 240 240 240 240 240 240 240 240 240 240 240 240 217 211 205 199 194 188 182 177 171 166 160 155 150 145 140 135 130 125 120 116 112 107 103 99 95 92 88 85 82 79 76 74 71 69 67 66 64 63 62 62 61 61 61 62 62 63 64 66 67 69 71 74 76 79 82 85 88 92 95 99 103 107 112 116 120 125 130 135 140 145 150 147 141 135 129 123 117 112 106 100 95 89 84 78 73 68 63 58 53 48 44 0 0 0 0 0 0 0 0 0 0 0 0 0 0 0 0 0 0 0 0 0 0 0 0 0 0 0 0 0 0 0 0 0 0 0 0 0 44 48 53 58 63 68 73 78 84 89 95 100 106 112 117 123 129 128 124 121 118 115 112 110 107 105 103 102 100 99 98 98 97 97 97 98 98 99 100 102 103 105 107 110 112 115 118 121 124 128 131 135 139 143 148 152 156 161 166 171 176 181 186 191 196 202 207 213 218 240 240 240 240 240 240 240 240 240 240 240 240 240 240 240 240 240 240 240 240 240 240 240 240 240 240 240 240 240 240 240 240 240 240 240 0 0 0 0 0
0 0 0 0 0 240 240 240 240 240 240 240 240 240 240 240 240 240 219 213 207 201 195 189 184 178 172 166 161 155 150 145 140 134 129 124 120 115 110 106 101 97 93 89 85 82 78 75 72 69 67 64 62 60 59 57 56 55 54 54 54 54 54 55 56 57 59 60 62 64 67 69 72 75 78 82 85 89 93 97 101 106 110 115 120 124 129 134 140 145 150 145 139 133 127 122 116 110 105 99 94 88 83 78 73 68 63 59 54 50 45 41 0 0 0 0 0 0 0 0 0 0 0 0 0 0 0 0 0 0 0 0 0 0 0 0 0 0 0 0 0 0 0 0 0 41 45 50 54 59 63 68 73 78 83 88 94 99 105 110 116 122 127 125 121 118 114 111 108 105 103 100 98 96 95 93 92 91 90 90 90 90 90 91 92 93 95 96 98 100 103 105 108 111 114 118 121 125 129 133 137 142 146 151 156 160 165 170 176 181 186 191 197 202 208 214 220 240 240 240 240 240 240 240 240 240 240 240 240 240 240 240 240 240 240 240 240 240 240 240 240 240 240 240 240 240 240 240 240 240 240 0 0 0 0 0
0 0 0 0 0 240 240 240 240 240 240 240 240 240 240 240 240 240 215 209 203 197 191 185 179 173 168 162 156 151 145 140 135 129 124 119 114 109 105 100 96 91 87 83 79 76 72 69 66 63 60 58 55 53 52 50 49 48 47 47 47 47 47 48 49 50 52 53 55 58 60 63 66 69 72 76 79 83 87 91 96 100 105 109 114 119 124 129 135 140 145 149 143 137 132 126 120 115 109 104 99 93 88 83 78 73 69 64 60 55 51 47 43 40 0 0 0 0 0 0 0 0 0 0 0 0 0 0 0 0 0 0 0 0 0 0 0 0 0 0 0 0 0 40 43 47 51 55 60 64 69 73 78 83 88 93 99 104 109 115 120 126 123 119 115 112 108 105 102 99 96 94 91 89 88 86 85 84 83 83 83 83 83 84 85 86 88 89 91 94 96 99 102 105 108 112 115 119 123 127 132 136 141 145 150 155 160 165 171 176 181 187 192 198 204 209 215 240 240 240 240 240 240 240 240 240 240 240 240 240 240 240 240 240 240 240 240 240 240 240 240 240 240 240 240 240 240 240 240 240 240 0 0 0 0 0
0 0 0 0 0 240 240 240 240 240 240 240 240 240 240 240 240 218 211 205 199 193 187 181 175 169 163 158 152 146 141 135 130 124 119 114 109 104 99 95 90 86 81 77 73 69 66 62 59 56 53 51 48 46 45 43 42 41 40 40 0 40 40 41 42 43 45 46 48 51 53 56 59 62 66 69 73 77 81 86 90 95 99 104 109 114 119 124 130 135 141 146 148 142 136 130 125 119 114 109 104 98 93 88 84 79 74 70 65 61 57 53 49 46 42 0 0 0 0 0 0 0 0 0 0 0 0 0 0 0 0 0 0 0 0 0 0 0 0 0 0 0 42 46 49 53 57 61 65 70 74 79 84 88 93 98 104 109 114 119 125 122 117 113 109 105 102 98 95 92 89 87 84 82 81 79 78 77 76 76 76 76 76 77 78 79 81 82 84 87 89 92 95 98 102 105 109 113 117 122 126 131 135 140 145 150 155 160 166 171 177 182 188 194 199 205 211 217 240 240 240 240 240 240 240 240 240 240 240 240 240 240 240 240 240 240 240 240 240 240 240 240 240 240 240 240 240 240 240 240 240 0 0 0 0 0
0 0 0 0 0 240 240 240 240 240 240 240 240 240 240 240 240 214 208 202 195 189 183 177 171 165 159 153 148 142 136 131 125 120 114 109 104 99 94 89 84 80 76 71 67 63 60 56 53 50 47 44 42 0 0 0 0 0 0 0 0 0 0 0 0 0 0 0 42 44 47 50 53 56 60 63 67 71 76 80 84 89 94 99 104 109 114 120 125 131 136 142 148 146 141 135 130 124 119 114 109 104 99 94 89 84 80 76 71 67 63 59 56 52 49 46 43 40 0 0 0 0 0 0 0 0 0 0 0 0 0 0 0 0 0 0 0 0 0 40 43 46 49 52 56 59 63 67 71 76 80 84 89 94 99 104 109 114 119 124 120 116 112 107 103 99 96 92 89 86 83 80 78 76 74 72 71 70 69 68 68 68 69 70 71 72 74 76 78 80 83 86 89 92 96 99 103 107 112 116 120 125 130 135 140 145 150 156 161 167 172 178 184 189 195 201 207 213 219 240 240 240 240 240 240 240 240 240 240 240 240 240 240 240 240 240 240 240 240 240 240 240 240 240 240 240 240 240 240 240 240 0 0 0 0 0
0 0 0 0 0 240 240 240 240 240 240 240 240 240 240 240 217 211 204 198 192 185 179 173 167 161 155 149 143 137 132 126 120 115 109 104 99 94 89 84 79 74 70 65 61 57 53 50 46 43 40 0 0 0 0 0 0 0 0 0 0 0 0 0 0 0 0 0 0 0 40 43 46 50 53 57 61 65 70 74 79 84 89 94 99 104 109 115 120 126 132 137 143 149 145 140 134 129 124 119 114 109 104 99 95 90 86 81 77 73 69 66 62 59 55 52 49 47 44 42 40 0 0 0 0 0 0 0 0 0 0 0 0 0 0 0 40 42 44 47 49 52 55 59 62 66 69 73 77 81 86 90 95 99 104 109 114 119 124 120 115 110 106 101 97 93 89 86 82 79 76 73 71 69 67 65 64 63 62 61 61 61 62 63 64 65 67 69 71 73 76 79 82 86 89 93 97 101 106 110 115 120 125 130 135 140 145 151 156 162 168 173 179 185 191 197 203 209 215 240 240 240 240 240 240 240 240 240 240 240 240 240 240 240 240 240 240 240 240 240 240 240 240 240 240 240 240 240 240 240 240 0 0 0 0 0
0 0 0 0 0 240 240 240 240 240 240 240 240 240 240 240 214 207 201 195 188 182 176 169 163 157 151 145 139 133 127 122 116 110 105 99 94 89 84 78 74 69 64 60 55 51 47 43 40 0 0 0 0 0 0 0 0 0 0 0 0 0 0 0 0 0 0 0 0 0 0 0 40 43 47 51 55 60 64 69 74 78 84 89 94 99 105 110 116 122 127 133 139 145 150 145 139 134 129 124 119 114 109 105 100 96 91 87 83 79 75 72 68 65 62 59 56 54 51 49 47 45 44 42 41 41 40 40 0 40 40 41 41 42 44 45 47 49 51 54 56 59 62 65 68 72 75 79 83 87 91 96 100 105 109 114 119 124 120 114 110 105 100 96 91 87 83 79 76 73 69 67 64 62 60 58 56 55 55 54 54 54 55 55 56 58 60 62 64 67 69 73 76 79 83 87 91 96 100 105 110 114 120 125 130 135 141 146 152 158 163 169 175 181 187 193 199 205 212 218 240 240 240 240 240 240 240 240 240 240 240 240 240 240 240 240 240 240 240 240 240 240 240 240 240 240 240 240 240 240 240 0 0 0 0 0
0 0 0 0 0 240 240 240 240 240 240 240 240 240 240 217 211 204 198 191 185 178 172 166 160 153 147 141 135 129 123 117 112 106 100 95 89 84 78 73 68 63 59 54 50 45 41 0 0 0 0 0 0 0 0 0 0 0 0 0 0 0 0 0 0 0 0 0 0 0 0 0 0 0 41 45 50 54 59 63 68 73 78 84 89 95 100 106 112 117 123 129 135 141 147 149 144 139 134 129 124 119 115 110 106 101 97 93 89 85 82 78 75 71 68 66 63 60 58 56 54 52 51 50 49 48 47 47 47 47 47 48 49 50 51 52 54 56 58 60 63 66 68 71 75 78 82 85 89 93 97 101 106 110 115 119 124 120 114 109 104 99 95 90 86 81 77 73 70 66 63 60 57 55 53 51 49 48 47 47 47 47 47 48 49 51 53 55 57 60 63 66 70 73 77 81 86 90 95 99 104 109 114 120 125 131 136 142 148 153 159 165 171 177 183 189 196 202 208 214 240 240 240 240 240 240 240 240 240 240 240 240 240 240 240 240 240 240 240 240 240 240 240 240 240 240 240 240 240 240 240 0 0 0 0 0
0 0 0 0 0 240 240 240 240 240 240 240 240 240 240 214 207 201 194 188 181 175 169 162 156 150 144 137 131 125 119 113 107 101 96 90 84 79 74 68 63 58 53 48 44 0 0 0 0 0 0 0 0 0 0 0 0 0 0 0 0 0 0 0 0 0 0 0 0 0 0 0 0 0 0 0 44 48 53 58 63 68 74 79 84 90 96 101 107 113 119 125 131 137 144 150 149 144 139 134 130 125 120 116 112 107 103 99 95 91 88 84 81 78 75 72 70 67 65 63 61 59 58 57 56 55 54 54 54 54 54 55 56 57 58 59 61 63 65 67 70 72 75 78 81 84 88 91 95 99 103 107 112 116 120 125 120 115 110 104 99 94 89 84 80 76 71 67 63 60 56 53 51 48 46 44 42 41 40 40 0 40 40 41 42 44 46 48 51 53 56 60 63 67 71 76 80 84 89 94 99 104 110 115 120 126 132 137 143 149 155 161 167 173 180 186 192 198 205 211 217 240 240 240 240 240 240 240 240 240 240 240 240 240 240 240 240 240 240 240 240 240 240 240 240 240 240 240 240 240 240 0 0 0 0 0
0 0 0 0 0 240 240 240 240 240 240 240 240 240 218 211 205 198 191 185 178 172 165 159 153 146 140 134 127 121 115 109 103 97 91 86 80 74 69 63 58 53 48 43 0 0 0 0 0 0 0 0 0 0 0 0 0 0 0 0 0 0 0 0 0 0 0 0 0 0 0 0 0 0 0 0 0 43 48 53 58 63 69 74 80 86 91 97 103 109 115 121 127 134 140 146 153 149 145 140 135 130 126 122 117 113 109 105 101 98 94 91 88 84 82 79 76 74 72 70 68 66 65 64 63 62 62 61 61 61 62 62 63 64 65 66 68 70 72 74 76 79 82 84 88 91 94 98 101 105 109 113 117 122 126 122 116 110 105 99 94 89 84 79 74 70 65 61 57 54 50 47 44 41 0 0 0 0 0 0 0 0 0 0 0 0 0 41 44 47 50 54 57 61 65 70 74 79 84 89 94 99 105 110 116 122 127 133 139 145 151 157 163 170 176 182 189 195 201 208 214 240 240 240 240 240 240 240 240 240 240 240 240 240 240 240 240 240 240 240 240 240 240 240 240 240 240 240 240 240 240 0 0 0 0 0
0 0 0 0 0 240 240 240 240 240 240 240 240 240 215 208 202 195 189 182 175 169 162 156 149 143 136 130 124 118 111 105 99 93 87 81 76 70 64 59 53 48 43 0 0 0 0 0 0 0 0 0 0 0 0 0 0 0 0 0 0 0 0 0 0 0 0 0 0 0 0 0 0 0 0 0 0 0 43 48 53 59 64 70 76 81 87 93 99 105 111 118 124 130 136 143 149 155 150 145 141 136 132 127 123 119 115 111 108 104 100 97 94 91 88 86 83 81 79 77 75 73 72 71 70 69 69 68 68 68 69 69 70 71 72 73 75 77 79 81 83 86 88 91 94 97 100 104 108 111 115 119 123 127 123 117 112 106 100 95 89 84 79 74 69 64 60 55 51 47 44 40 0 0 0 0 0 0 0 0 0 0 0 0 0 0 0 0 0 40 44 47 51 55 60 64 69 74 79 84 89 95 100 106 112 117 123 129 135 141 147 154 160 166 172 179 185 192 198 205 211 218 240 240 240 240 240 240 240 240 240 240 240 240 240 240 240 240 240 240 240 240 240 240 240 240 240 240 240 240 240 0 0 0 0 0
0 0 0 0 0 240 240 240 240 240 240 240 240 219 213 206 199 192 186 179 172 166 159 153 146 140 133 127 120 114 108 102 95 89 83 77 71 65 60 54 48 43 0 0 0 0 0 0 0 0 0 0 0 0 0 0 0 0 0 0 0 0 0 0 0 0 0 0 0 0 0 0 0 0 0 0 0 0 0 43 48 54 60 65 71 77 83 89 95 102 108 114 120 127 133 140 146 153 155 151 146 142 137 133 129 125 121 117 114 110 107 104 101 98 95 92 90 88 86 84 82 80 79 78 77 76 76 76 76 76 76 76 77 78 79 80 82 84 86 88 90 92 95 98 101 104 107 110 114 117 121 125 129 125 119 113 107 101 96 90 84 79 74 69 64 59 54 50 45 41 0 0 0 0 0 0 0 0 0 0 0 0 0 0 0 0 0 0 0 0 0 41 45 50 54 59 64 69 74 79 84 90 96 101 107 113 119 125 131 138 144 150 156 163 169 176 182 189 195 202 208 215 240 240 240 240 240 240 240 240 240 240 240 240 240 240 240 240 240 240 240 240 240 240 240 240 240 240 240 240 240 0 0 0 0 0
0 0 0 0 0 240 240 240 240 240 240 240 240 217 210 203 197 190 183 176 170 163 156 150 143 137 130 124 117 111 104 98 92 85 79 73 67 61 55 50 44 0 0 0 0 0 0 0 0 0 0 0 0 0 0 0 0 0 0 0 0 0 0 0 0 0 0 0 0 0 0 0 0 0 0 0 0 0 0 0 44 50 55 61 67 73 79 85 92 98 104 111 117 124 130 137 143 150 156 156 152 148 143 139 135 131 127 124 120 117 113 110 107 104 102 99 97 95 93 91 89 88 86 85 84 84 83 83 83 83 83 84 84 85 86 88 89 91 93 95 97 99 102 104 107 110 113 117 120 124 127 131 128 121 115 109 103 97 91 86 80 74 69 64 58 53 49 44 0 0 0 0 0 0 0 0 0 0 0 0 0 0 0 0 0 0 0 0 0 0 0 0 0 44 49 53 58 64 69 74 80 86 91 97 103 109 115 121 128 134 140 147 153 160 166 173 179 186 192 199 206 212 219 240 240 240 240 240 240 240 240 240 240 240 240 240 240 240 240 240 240 240 240 240 240 240 240 240 240 240 240 0 0 0 0 0
0 0 0 0 0 240 240 240 240 240 240 240 240 215 208 201 194 187 181 174 167 160 154 147 140 134 127 120 114 107 101 95 88 82 76 69 63 57 51 45 0 0 0 0 0 0 0 0 0 0 0 0 0 0 0 0 0 0 0 0 0 0 0 0 0 0 0 0 0 0 0 0 0 0 0 0 0 0 0 0 0 45 51 57 63 69 76 82 88 95 101 107 114 120 127 134 140 147 154 160 158 153 149 145 141 137 133 130 126 123 120 117 114 111 108 106 104 101 99 98 96 95 93 92 91 91 90 90 90 90 90 91 91 92 93 95 96 98 99 101 104 106 108 111 114 117 120 123 126 130 133 131 124 118 112 105 99 93 87 81 76 70 64 59 53 48 43 0 0 0 0 0 0 0 0 0 0 0 0 0 0 0 0 0 0 0 0 0 0 0 0 0 0 0 43 48 53 59 64 70 76 81 87 93 99 105 112 118 124 131 137 143 150 156 163 170 176 183 190 196 203 210 217 240 240 240 240 240 240 240 240 240 240 240 240 240 240 240 240 240 240 240 240 240 240 240 240 240 240 240 240 0 0 0 0 0
0 0 0 0 0 240 240 240 240 240 240 240 220 213 206 199 192 185 178 171 165 158 151 144 138 131 124 118 111 104 98 91 85 78 72 66 60 53 47 41 0 0 0 0 0 0 0 0 0 0 0 0 0 0 0 0 0 0 0 0 0 0 0 0 0 0 0 0 0 0 0 0 0 0 0 0 0 0 0 0 0 41 47 53 60 66 72 78 85 91 98 104 111 118 124 131 138 144 151 158 163 159 155 151 147 143 140 136 133 129 126 123 120 118 115 113 110 108 106 105 103 102 100 99 99 98 97 97 97 97 97 98 99 99 100 102 103 105 106 108 110 113 115 118 120 123 126 129 133 136 134 127 121 114 108 102 96 89 83 77 71 65 60 54 49 43 0 0 0 0 0 0 0 0 0 0 0 0 0 0 0 0 0 0 0 0 0 0 0 0 0 0 0 0 0 43 49 54 60 65 71 77 83 89 96 102 108 114 121 127 134 140 147 154 160 167 174 180 187 194 201 207 214 240 240 240 240 240 240 240 240 240 240 240 240 240 240 240 240 240 240 240 240 240 240 240 240 240 240 240 240 0 0 0 0 0
0 0 0 0 0 240 240 240 240 240 240 240 218 211 204 197 190 183 176 169 162 155 149 142 135 128 122 115 108 102 95 88 82 75 69 62 56 50 43 0 0 0 0 0 0 0 0 0 0 0 0 0 0 0 0 0 0 0 0 0 0 0 0 0 0 0 0 0 0 0 0 0 0 0 0 0 0 0 0 0 0 0 43 50 56 62 69 75 82 88 95 102 108 115 122 128 135 142 149 155 162 165 161 157 153 149 146 142 139 136 133 130 127 124 122 119 117 115 113 112 110 109 108 107 106 105 105 104 104 104 105 105 106 107 108 109 110 112 113 115 117 119 122 124 127 130 133 136 139 138 131 124 118 111 105 98 92 86 79 73 67 61 55 50 44 0 0 0 0 0 0 0 0 0 0 0 0 0 0 0 0 0 0 0 0 0 0 0 0 0 0 0 0 0 0 0 44 50 55 61 67 73 79 86 92 98 105 111 118 124 131 138 144 151 158 164 171 178 185 191 198 205 212 219 240 240 240 240 240 240 240 240 240 240 240 240 240 240 240 240 240 240 240 240 240 240 240 240 240 240 240 0 0 0 0 0
0 0 0 0 0 240 240 240 240 240 240 240 216 209 202 195 188 181 174 167 160 153 146 140 133 126 119 112 106 99 92 85 79 72 66 59 53 46 40 0 0 0 0 0 0 0 0 0 0 0 0 0 0 0 0 0 0 0 0 0 0 0 0 0 0 0 0 0 0 0 0 0 0 0 0 0 0 0 0 0 0 0 40 46 53 59 66 72 79 85 92 99 106 112 119 126 133 140 146 153 160 167 167 163 159 156 152 149 145 142 139 136 134 131 129 126 124 122 120 119 117 116 115 114 113 112 112 112 112 112 112 112 113 114 115 116 117 119 120 122 124 126 129 131 134 136 139 142 142 135 128 121 115 108 102 95 89 82 76 70 63 57 51 45 0 0 0 0 0 0 0 0 0 0 0 0 0 0 0 0 0 0 0 0 0 0 0 0 0 0 0 0 0 0 0 0 0 45 51 57 63 70 76 82 89 95 102 108 115 121 128 135 142 148 155 162 169 176 182 189 196 203 210 217 240 240 240 240 240 240 240 240 240 240 240 240 240 240 240 240 240 240 240 240 240 240 240 240 240 240 240 0 0 0 0 0
0 0 0 0 0 240 240 240 240 240 240 240 214 207 200 193 186 179 172 165 158 151 144 137 131 124 117 110 103 96 90 83 76 69 63 56 50 43 0 0 0 0 0 0 0 0 0 0 0 0 0 0 0 0 0 0 0 0 0 0 0 0 0 0 0 0 0 0 0 0 0 0 0 0 0 0 0 0 0 0 0 0 0 43 50 56 63 69 76 83 90 96 103 110 117 124 131 137 144 151 158 165 172 169 166 162 159 155 152 149 146 143 140 138 135 133 131 129 127 126 124 123 122 121 120 119 119 119 119 119 119 119 120 121 122 123 124 126 127 129 131 133 135 138 140 143 146 146 139 132 126 119 112 105 99 92 86 79 73 66 60 54 47 41 0 0 0 0 0 0 0 0 0 0 0 0 0 0 0 0 0 0 0 0 0 0 0 0 0 0 0 0 0 0 0 0 0 41 47 54 60 66 73 79 86 92 99 105 112 119 126 132 139 146 153 160 167 173 180 187 194 201 208 215 240 240 240 240 240 240 240 240 240 240 240 240 240 240 240 240 240 240 240 240 240 240 240 240 240 240 240 0 0 0 0 0
0 0 0 0 0 240 240 240 240 240 240 240 213 205 198 191 184 177 170 163 156 149 142 135 129 122 115 108 101 94 87 80 74 67 60 53 47 40 0 0 0 0 0 0 0 0 0 0 0 0 0 0 0 0 0 0 0 0 0 0 0 0 0 0 0 0 0 0 0 0 0 0 0 0 0 0 0 0 0 0 0 0 0 40 47 53 60 67 74 80 87 94 101 108 115 122 129 135 142 149 156 163 170 175 172 168 165 162 158 155 153 150 147 145 142 140 138 136 134 133 131 130 129 128 127 127 126 126 126 126 126 127 127 128 129 130 131 133 134 136 138 140 142 145 147 150 151 144 137 130 123 116 110 103 96 89 83 76 69 63 56 50 44 0 0 0 0 0 0 0 0 0 0 0 0 0 0 0 0 0 0 0 0 0 0 0 0 0 0 0 0 0 0 0 0 0 0 0 44 50 56 63 69 76 83 89 96 103 110 116 123 130 137 144 151 158 165 171 178 185 192 199 206 213 240 240 240 240 240 240 240 240 240 240 240 240 240 240 240 240 240 240 240 240 240 240 240 240 240 240 240 0 0 0 0 0
0 0 0 0 0 240 240 240 240 240 240 218 211 204 197 190 183 176 169 162 155 148 141 134 127 120 113 106 99 92 85 78 71 64 58 51 44 0 0 0 0 0 0 0 0 0 0 0 0 0 0 0 0 0 0 0 0 0 0 0 0 0 0 0 0 0 0 0 0 0 0 0 0 0 0 0 0 0 0 0 0 0 0 0 44 51 58 64 71 78 85 92 99 106 113 120 127 134 141 148 155 162 169 176 178 175 171 168 165 162 159 156 154 151 149 147 145 143 141 140 138 137 136 135 134 134 133 133 133 133 133 134 134 135 136 137 138 140 141 143 145 147 149 151 154 156 149 142 135 128 121 114 107 100 94 87 80 73 67 60 53 47 40 0 0 0 0 0 0 0 0 0 0 0 0 0 0 0 0 0 0 0 0 0 0 0 0 0 0 0 0 0 0 0 0 0 0 0 40 47 53 60 67 73 80 87 94 100 107 114 121 128 135 142 149 156 163 170 177 184 191 198 205 212 219 240 240 240 240 240 240 240 240 240 240 240 240 240 240 240 240 240 240 240 240 240 240 240 240 240 240 0 0 0 0 0
0 0 0 0 0 240 240 240 240 240 240 217 210 203 196 189 181 174 167 160 153 146 139 132 125 118 111 104 97 90 83 76 69 62 55 48 42 0 0 0 0 0 0 0 0 0 0 0 0 0 0 0 0 0 0 0 0 0 0 0 0 0 0 0 0 0 0 0 0 0 0 0 0 0 0 0 0 0 0 0 0 0 0 0 42 48 55 62 69 76 83 90 97 104 111 118 125 132 139 146 153 160 167 174 181 181 178 175 171 169 166 163 161 158 156 154 152 150 148 147 145 144 143 142 142 141 141 140 140 140 141 141 142 142 143 144 145 147 148 150 152 154 156 158 161 154 147 140 133 126 119 112 105 98 91 84 78 71 64 57 51 44 0 0 0 0 0 0 0 0 0 0 0 0 0 0 0 0 0 0 0 0 0 0 0 0 0 0 0 0 0 0 0 0 0 0 0 0 0 44 51 57 64 71 78 84 91 98 105 112 119 126 133 140 147 154 161 168 175 182 189 196 203 210 217 240 240 240 240 240 240 240 240 240 240 240 240 240 240 240 240 240 240 240 240 240 240 240 240 240 240 0 0 0 0 0
0 0 0 0 0 240 240 240 240 240 240 216 209 202 195 187 180 173 166 159 152 145 138 131 124 116 109 102 95 88 81 74 67 60 53 46 0 0 0 0 0 0 0 0 0 0 0 0 0 0 0 0 0 0 0 0 0 0 0 0 0 0 0 0 0 0 0 0 0 0 0 0 0 0 0 0 0 0 0 0 0 0 0 0 0 46 53 60 67 74 81 88 95 102 109 116 124 131 138 145 152 159 166 173 180 187 184 181 178 175 172 170 167 165 163 161 159 157 155 154 153 151 150 149 149 148 148 148 148 148 148 148 149 149 150 151 153 154 155 157 159 161 163 165 160 152 145 138 131 124 117 110 103 96 89 82 76 69 62 55 48 41 0 0 0 0 0 0 0 0 0 0 0 0 0 0 0 0 0 0 0 0 0 0 0 0 0 0 0 0 0 0 0 0 0 0 0 0 0 41 48 55 62 69 76 82 89 96 103 110 117 124 131 138 145 152 160 167 174 181 188 195 202 209 216 240 240 240 240 240 240 240 240 240 240 240 240 240 240 240 240 240 240 240 240 240 240 240 240 240 240 0 0 0 0 0
0 0 0 0 0 240 240 240 240 240 240 215 208 201 194 186 179 172 165 158 151 144 136 129 122 115 108 101 94 87 80 73 66 59 52 45 0 0 0 0 0 0 0 0 0 0 0 0 0 0 0 0 0 0 0 0 0 0 0 0 0 0 0 0 0 0 0 0 0 0 0 0 0 0 0 0 0 0 0 0 0 0 0 0 0 45 52 59 66 73 80 87 94 101 108 115 122 129 136 144 151 158 165 172 179 186 191 188 185 182 179 177 174 172 170 168 166 164 162 161 160 159 158 157 156 155 155 155 155 155 155 155 156 157 158 159 160 161 162 164 166 168 170 165 158 151 144 137 130 123 116 109 102 95 88 81 74 67 60 53 46 0 0 0 0 0 0 0 0 0 0 0 0 0 0 0 0 0 0 0 0 0 0 0 0 0 0 0 0 0 0 0 0 0 0 0 0 0 0 0 46 53 60 67 74 81 88 95 102 109 116 123 130 137 144 151 158 165 172 180 187 194 201 208 215 240 240 240 240 240 240 240 240 240 240 240 240 240 240 240 240 240 240 240 240 240 240 240 240 240 240 0 0 0 0 0
0 0 0 0 0 240 240 240 240 240 240 214 207 200 193 185 178 171 164 157 150 143 135 128 121 114 107 100 93 86 78 71 64 57 50 43 0 0 0 0 0 0 0 0 0 0 0 0 0 0 0 0 0 0 0 0 0 0 0 0 0 0 0 0 0 0 0 0 0 0 0 0 0 0 0 0 0 0 0 0 0 0 0 0 0 43 50 57 64 71 78 86 93 100 107 114 121 128 135 143 150 157 164 171 178 185 193 194 191 189 186 183 181 179 177 175 173 171 169 168 167 166 165 164 163 163 162 162 162 162 162 163 163 164 165 166 167 168 169 171 173 175 171 164 157 150 143 136 129 122 114 107 100 93 86 79 72 65 58 51 44 0 0 0 0 0 0 0 0 0 0 0 0 0 0 0 0 0 0 0 0 0 0 0 0 0 0 0 0 0 0 0 0 0 0 0 0 0 0 0 44 51 58 65 72 79 86 93 100 107 114 122 129 136 143 150 157 164 171 179 186 193 200 207 214 240 240 240 240 240 240 240 240 240 240 240 240 240 240 240 240 240 240 240 240 240 240 240 240 240 240 0 0 0 0 0
0 0 0 0 0 240 240 240 240 240 240 213 206 199 192 185 178 170 163 156 149 142 135 127 120 113 106 99 92 85 77 70 63 56 49 42 0 0 0 0 0 0 0 0 0 0 0 0 0 0 0 0 0 0 0 0 0 0 0 0 0 0 0 0 0 0 0 0 0 0 0 0 0 0 0 0 0 0 0 0 0 0 0 0 0 42 49 56 63 70 77 85 92 99 106 113 120 127 135 142 149 156 163 170 178 185 192 199 198 195 193 190 188 186 184 182 180 178 177 175 174 173 172 171 170 170 169 169 169 169 169 170 170 171 172 173 174 175 177 178 180 178 171 163 156 149 142 135 128 121 113 106 99 92 85 78 71 64 56 49 42 0 0 0 0 0 0 0 0 0 0 0 0 0 0 0 0 0 0 0 0 0 0 0 0 0 0 0 0 0 0 0 0 0 0 0 0 0 0 0 42 49 56 64 71 78 85 92 99 106 113 121 128 135 142 149 156 163 171 178 185 192 199 206 214 240 240 240 240 240 240 240 240 240 240 240 240 240 240 240 240 240 240 240 240 240 240 240 240 240 240 0 0 0 0 0
0 0 0 0 0 240 240 240 240 240 240 213 206 199 191 184 177 170 163 155 148 141 134 127 120 112 105 98 91 84 77 69 62 55 48 41 0 0 0 0 0 0 0 0 0 0 0 0 0 0 0 0 0 0 0 0 0 0 0 0 0 0 0 0 0 0 0 0 0 0 0 0 0 0 0 0 0 0 0 0 0 0 0 0 0 41 48 55 62 69 77 84 91 98 105 112 120 127 134 141 148 155 163 170 177 184 191 199 205 202 199 197 195 192 190 189 187 185 184 182 181 180 179 178 177 177 177 176 176 176 177 177 177 178 179 180 181 182 184 185 184 177 170 163 156 148 141 134 127 120 113 105 98 91 84 77 70 63 55 48 41 0 0 0 0 0 0 0 0 0 0 0 0 0 0 0 0 0 0 0 0 0 0 0 0 0 0 0 0 0 0 0 0 0 0 0 0 0 0 0 41 48 55 63 70 77 84 91 98 105 113 120 127 134 141 148 156 163 170 177 184 191 199 206 213 240 240 240 240 240 240 240 240 240 240 240 240 240 240 240 240 240 240 240 240 240 240 240 240 240 240 0 0 0 0 0
0 0 0 0 0 240 240 240 240 240 240 213 205 198 191 184 177 169 162 155 148 141 133 126 119 112 105 98 90 83 76 69 62 54 47 40 0 0 0 0 0 0 0 0 0 0 0 0 0 0 0 0 0 0 0 0 0 0 0 0 0 0 0 0 0 0 0 0 0 0 0 0 0 0 0 0 0 0 0 0 0 0 0 0 0 40 47 54 62 69 76 83 90 98 105 112 119 126 133 141 148 155 162 169 177 184 191 198 205 209 206 204 201 199 197 195 194 192 191 189 188 187 186 185 185 184 184 184 184 184 184 184 185 185 186 187 188 189 191 191 184 177 169 162 155 148 141 134 126 119 112 105 98 90 83 76 69 62 55 47 40 0 0 0 0 0 0 0 0 0 0 0 0 0 0 0 0 0 0 0 0 0 0 0 0 0 0 0 0 0 0 0 0 0 0 0 0 0 0 0 40 47 55 62 69 76 83 90 98 105 112 119 126 134 141 148 155 162 169 177 184 191 198 205 213 240 240 240 240 240 240 240 240 240 240 240 240 240 240 240 240 240 240 240 240 240 240 240 240 240 240 0 0 0 0 0
0 0 0 0 0 240 240 240 240 240 240 212 205 198 191 184 176 169 162 155 148 140 133 126 119 112 104 97 90 83 76 68 61 54 47 40 0 0 0 0 0 0 0 0 0 0 0 0 0 0 0 0 0 0 0 0 0 0 0 0 0 0 0 0 0 0 0 0 0 0 0 0 0 0 0 0 0 0 0 0 0 0 0 0 0 40 47 54 61 68 76 83 90 97 104 112 119 126 133 140 148 155 162 169 176 184 191 198 205 212 213 211 208 206 204 202 201 199 198 196 195 194 193 192 192 191 191 191 191 191 191 191 192 192 193 194 195 196 198 191 184 176 169 162 155 148 140 133 126 119 112 104 97 90 83 76 68 61 54 47 40 0 0 0 0 0 0 0 0 0 0 0 0 0 0 0 0 0 0 0 0 0 0 0 0 0 0 0 0 0 0 0 0 0 0 0 0 0 0 0 40 47 54 61 68 76 83 90 97 104 112 119 126 133 140 148 155 162 169 176 184 191 198 205 212 240 240 240 240 240 240 240 240 240 240 240 240 240 240 240 240 240 240 240 240 240 240 240 240 240 240 0 0 0 0 0
0 0 0 0 0 240 240 240 240 240 220 212 205 198 191 184 176 169 162 155 148 140 133 126 119 112 104 97 90 83 76 68 61 54 47 0 0 0 0 0 0 0 0 0 0 0 0 0 0 0 0 0 0 0 0 0 0 0 0 0 0 0 0 0 0 0 0 0 0 0 0 0 0 0 0 0 0 0 0 0 0 0 0 0 0 0 47 54 61 68 76 83 90 97 104 112 119 126 133 140 148 155 162 169 176 184 191 198 205 212 220 217 215 213 211 209 208 206 205 203 202 201 200 200 199 199 198 198 198 198 198 199 199 200 200 201 202 203 198 191 184 176 169 162 155 148 140 133 126 119 112 104 97 90 83 76 68 61 54 47 0 0 0 0 0 0 0 0 0 0 0 0 0 0 0 0 0 0 0 0 0 0 0 0 0 0 0 0 0 0 0 0 0 0 0 0 0 0 0 0 0 47 54 61 68 76 83 90 97 104 112 119 126 133 140 148 155 162 169 176 184 191 198 205 212 220 240 240 240 240 240 240 240 240 240 240 240 240 240 240 240 240 240 240 240 240 240 240 240 240 240 0 0 0 0 0
0 0 0 0 0 240 240 240 240 240 240 212 205 198 191 184 176 169 162 155 148 140 133 126 119 112 104 97 90 83 76 68 61 54 47 40 0 0 0 0 0 0 0 0 0 0 0 0 0 0 0 0 0 0 0 0 0 0 0 0 0 0 0 0 0 0 0 0 0 0 0 0 0 0 0 0 0 0 0 0 0 0 0 0 0 40 47 54 61 68 76 83 90 97 104 112 119 126 133 140 148 155 162 169 176 184 191 198 205 212 240 240 240 240 218 216 215 213 212 211 209 208 208 207 206 206 205 205 205 205 205 206 206 207 208 208 209 205 198 191 184 176 169 162 155 148 140 133 126 119 112 104 97 90 83 76 68 61 54 47 40 0 0 0 0 0 0 0 0 0 0 0 0 0 0 0 0 0 0 0 0 0 0 0 0 0 0 0 0 0 0 0 0 0 0 0 0 0 0 0 40 47 54 61 68 76 83 90 97 104 112 119 126 133 140 148 155 162 169 176 184 191 198 205 212 240 240 240 240 240 240 240 240 240 240 240 240 240 240 240 240 240 240 240 240 240 240 240 240 240 240 0 0 0 0 0
0 0 0 0 0 240 240 240 240 240 240 213 205 198 191 184 177 169 162 155 148 141 133 126 119 112 105 98 90 83 76 69 62 54 47 40 0 0 0 0 0 0 0 0 0 0 0 0 0 0 0 0 0 0 0 0 0 0 0 0 0 0 0 0 0 0 0 0 0 0 0 0 0 0 0 0 0 0 0 0 0 0 0 0 0 40 47 54 62 69 76 83 90 98 105 112 119 126 133 141 148 155 162 169 177 184 191 198 205 213 240 240 240 240 240 240 240 240 219 218 217 216 215 214 213 213 213 212 212 212 213 213 213 214 215 216 213 205 198 191 184 177 169 162 155 148 141 134 126 119 112 105 98 90 83 76 69 62 55 47 40 0 0 0 0 0 0 0 0 0 0 0 0 0 0 0 0 0 0 0 0 0 0 0 0 0 0 0 0 0 0 0 0 0 0 0 0 0 0 0 40 47 55 62 69 76 83 90 98 105 112 119 126 134 141 148 155 162 169 177 184 191 198 205 213 240 240 240 240 240 240 240 240 240 240 240 240 240 240 240 240 240 240 240 240 240 240 240 240 240 240 0 0 0 0 0
0 0 0 0 0 240 240 240 240 240 240 213 206 199 191 184 177 170 163 155 148 141 134 127 120 112 105 98 91 84 77 69 62 55 48 41 0 0 0 0 0 0 0 0 0 0 0 0 0 0 0 0 0 0 0 0 0 0 0 0 0 0 0 0 0 0 0 0 0 0 0 0 0 0 0 0 0 0 0 0 0 0 0 0 0 41 48 55 62 69 77 84 91 98 105 112 120 127 134 141 148 155 163 170 177 184 191 199 206 213 240 240 240 240 240 240 240 240 240 240 240 240 240 240 240 240 240 240 220 240 240 240 240 240 240 240 213 206 199 191 184 177 170 163 156 148 141 134 127 120 113 105 98 91 84 77 70 63 55 48 41 0 0 0 0 0 0 0 0 0 0 0 0 0 0 0 0 0 0 0 0 0 0 0 0 0 0 0 0 0 0 0 0 0 0 0 0 0 0 0 41 48 55 63 70 77 84 91 98 105 113 120 127 134 141 148 156 163 170 177 184 191 199 206 213 240 240 240 240 240 240 240 240 240 240 240 240 240 240 240 240 240 240 240 240 240 240 240 240 240 240 0 0 0 0 0
0 0 0 0 0 240 240 240 240 240 240 213 206 199 192 185 178 170 163 156 149 142 135 127 120 113 106 99 92 85 77 70 63 56 49 42 0 0 0 0 0 0 0 0 0 0 0 0 0 0 0 0 0 0 0 0 0 0 0 0 0 0 0 0 0 0 0 0 0 0 0 0 0 0 0 0 0 0 0 0 0 0 0 0 0 42 49 56 63 70 77 85 92 99 106 113 120 127 135 142 149 156 163 170 178 185 192 199 206 213 240 240 240 240 240 240 240 240 240 240 240 240 240 240 240 240 240 240 240 240 240 240 240 240 240 240 214 206 199 192 185 178 171 163 156 149 142 135 128 121 113 106 99 92 85 78 71 64 56 49 42 0 0 0 0 0 0 0 0 0 0 0 0 0 0 0 0 0 0 0 0 0 0 0 0 0 0 0 0 0 0 0 0 0 0 0 0 0 0 0 42 49 56 64 71 78 85 92 99 106 113 121 128 135 142 149 156 163 171 178 185 192 199 206 214 240 240 240 240 240 240 240 240 240 240 240 240 240 240 240 240 240 240 240 240 240 240 240 240 240 240 0 0 0 0 0
0 0 0 0 0 240 240 240 240 240 240 214 207 200 193 185 178 171 164 157 150 143 135 128 121 114 107 100 93 86 78 71 64 57 50 43 0 0 0 0 0 0 0 0 0 0 0 0 0 0 0 0 0 0 0 0 0 0 0 0 0 0 0 0 0 0 0 0 0 0 0 0 0 0 0 0 0 0 0 0 0 0 0 0 0 43 50 57 64 71 78 86 93 100 107 114 121 128 135 143 150 157 164 171 178 185 193 200 207 214 240 240 240 240 240 240 240 240 240 240 240 240 240 240 240 240 240 240 240 240 240 240 240 240 240 240 214 207 200 193 186 179 171 164 157 150 143 136 129 122 114 107 100 93 86 79 72 65 58 51 44 0 0 0 0 0 0 0 0 0 0 0 0 0 0 0 0 0 0 0 0 0 0 0 0 0 0 0 0 0 0 0 0 0 0 0 0 0 0 0 44 51 58 65 72 79 86 93 100 107 114 122 129 136 143 150 157 164 171 179 186 193 200 207 214 240 240 240 240 240 240 240 240 240 240 240 240 240 240 240 240 240 240 240 240 240 240 240 240 240 240 0 0 0 0 0
0 0 0 0 0 240 240 240 240 240 240 215 208 201 194 186 179 172 165 158 151 144 136 129 122 115 108 101 94 87 80 73 66 59 52 45 0 0 0 0 0 0 0 0 0 0 0 0 0 0 0 0 0 0 0 0 0 0 0 0 0 0 0 0 0 0 0 0 0 0 0 0 0 0 0 0 0 0 0 0 0 0 0 0 0 45 52 59 66 73 80 87 94 101 108 115 122 129 136 144 151 158 165 172 179 186 194 201 208 215 240 240 240 240 240 240 240 240 240 240 240 240 240 240 240 240 240 240 240 240 240 240 240 240 240 240 215 208 201 194 187 180 172 165 158 151 144 137 130 123 116 109 102 95 88 81 74 67 60 53 46 0 0 0 0 0 0 0 0 0 0 0 0 0 0 0 0 0 0 0 0 0 0 0 0 0 0 0 0 0 0 0 0 0 0 0 0 0 0 0 46 53 60 67 74 81 88 95 102 109 116 123 130 137 144 151 158 165 172 180 187 194 201 208 215 240 240 240 240 240 240 240 240 240 240 240 240 240 240 240 240 240 240 240 240 240 240 240 240 240 240 0 0 0 0 0
0 0 0 0 0 240 240 240 240 240 240 216 209 202 195 187 180 173 166 159 152 145 138 131 124 116 109 102 95 88 81 74 67 60 53 46 0 0 0 0 0 0 0 0 0 0 0 0 0 0 0 0 0 0 0 0 0 0 0 0 0 0 0 0 0 0 0 0 0 0 0 0 0 0 0 0 0 0 0 0 0 0 0 0 0 46 53 60 67 74 81 88 95 102 109 116 124 131 138 145 152 159 166 173 180 187 195 202 209 216 240 240 240 240 240 240 240 240 240 240 240 240 240 240 240 240 240 240 240 240 240 240 240 240 240 240 216 209 202 195 188 181 174 167 160 152 145 138 131 124 117 110 103 96 89 82 76 69 62 55 48 41 0 0 0 0 0 0 0 0 0 0 0 0 0 0 0 0 0 0 0 0 0 0 0 0 0 0 0 0 0 0 0 0 0 0 0 0 0 41 48 55 62 69 76 82 89 96 103 110 117 124 131 138 145 152 160 167 174 181 188 195 202 209 216 240 240 240 240 240 240 240 240 240 240 240 240 240 240 240 240 240 240 240 240 240 240 240 240 240 240 0 0 0 0 0
0 0 0 0 0 240 240 240 240 240 240 217 210 203 196 189 181 174 167 160 153 146 139 132 125 118 111 104 97 90 83 76 69 62 55 48 42 0 0 0 0 0 0 0 0 0 0 0 0 0 0 0 0 0 0 0 0 0 0 0 0 0 0 0 0 0 0 0 0 0 0 0 0 0 0 0 0 0 0 0 0 0 0 0 42 48 55 62 69 76 83 90 97 104 111 118 125 132 139 146 153 160 167 174 181 189 196 203 210 217 240 240 240 240 240 240 240 240 240 240 240 240 240 240 240 240 240 240 240 240 240 240 240 240 240 240 217 210 203 196 189 182 175 168 161 154 147 140 133 126 119 112 105 98 91 84 78 71 64 57 51 44 0 0 0 0 0 0 0 0 0 0 0 0 0 0 0 0 0 0 0 0 0 0 0 0 0 0 0 0 0 0 0 0 0 0 0 0 0 44 51 57 64 71 78 84 91 98 105 112 119 126 133 140 147 154 161 168 175 182 189 196 203 210 217 240 240 240 240 240 240 240 240 240 240 240 240 240 240 240 240 240 240 240 240 240 240 240 240 240 240 0 0 0 0 0
0 0 0 0 0 240 240 240 240 240 240 218 211 204 197 190 183 176 169 162 155 148 141 134 127 120 113 106 99 92 85 78 71 64 58 51 44 0 0 0 0 0 0 0 0 0 0 0 0 0 0 0 0 0 0 0 0 0 0 0 0 0 0 0 0 0 0 0 0 0 0 0 0 0 0 0 0 0 0 0 0 0 0 0 44 51 58 64 71 78 85 92 99 106 113 120 127 134 141 148 155 162 169 176 183 190 197 204 211 218 240 240 240 240 240 240 240 240 240 240 240 240 240 240 240 240 240 240 240 240 240 240 240 240 240 240 219 212 205 198 191 184 177 170 163 156 149 142 135 128 121 114 107 100 94 87 80 73 67 60 53 47 40 0 0 0 0 0 0 0 0 0 0 0 0 0 0 0 0 0 0 0 0 0 0 0 0 0 0 0 0 0 0 0 0 0 0 0 40 47 53 60 67 73 80 87 94 100 107 114 121 128 135 142 149 156 163 170 177 184 191 198 205 212 219 240 240 240 240 240 240 240 240 240 240 240 240 240 240 240 240 240 240 240 240 240 240 240 240 240 240 0 0 0 0 0
0 0 0 0 0 240 240 240 240 240 240 240 213 205 198 191 184 177 170 163 156 149 142 135 129 122 115 108 101 94 87 80 74 67 60 53 47 40 0 0 0 0 0 0 0 0 0 0 0 0 0 0 0 0 0 0 0 0 0 0 0 0 0 0 0 0 0 0 0 0 0 0 0 0 0 0 0 0 0 0 0 0 0 40 47 53 60 67 74 80 87 94 101 108 115 122 129 135 142 149 156 163 170 177 184 191 198 205 213 240 240 240 240 240 240 240 240 240 240 240 240 240 240 240 240 240 240 240 240 240 240 240 240 240 240 240 240 213 206 199 192 185 178 171 165 158 151 144 137 130 123 116 110 103 96 89 83 76 69 63 56 50 44 0 0 0 0 0 0 0 0 0 0 0 0 0 0 0 0 0 0 0 0 0 0 0 0 0 0 0 0 0 0 0 0 0 0 0 44 50 56 63 69 76 83 89 96 103 110 116 123 130 137 144 151 158 165 171 178 185 192 199 206 213 240 240 240 240 240 240 240 240 240 240 240 240 240 240 240 240 240 240 240 240 240 240 240 240 240 240 240 0 0 0 0 0
0 0 0 0 0 240 240 240 240 240 240 240 214 207 200 193 186 179 172 165 158 151 144 137 131 124 117 110 103 96 90 83 76 69 63 56 50 43 0 0 0 0 0 0 0 0 0 0 0 0 0 0 0 0 0 0 0 0 0 0 0 0 0 0 0 0 0 0 0 0 0 0 0 0 0 0 0 0 0 0 0 0 0 43 50 56 63 69 76 83 90 96 103 110 117 124 131 137 144 151 158 165 172 179 186 193 200 207 214 240 240 240 240 240 240 240 240 240 240 240 240 240 240 240 240 240 240 240 240 240 240 240 240 240 240 240 240 215 208 201 194 187 180 173 167 160 153 146 139 132 126 119 112 105 99 92 86 79 73 66 60 54 47 41 0 0 0 0 0 0 0 0 0 0 0 0 0 0 0 0 0 0 0 0 0 0 0 0 0 0 0 0 0 0 0 0 0 41 47 54 60 66 73 79 86 92 99 105 112 119 126 132 139 146 153 160 167 173 180 187 194 201 208 215 240 240 240 240 240 240 240 240 240 240 240 240 240 240 240 240 240 240 240 240 240 240 240 240 240 240 240 0 0 0 0 0
0 0 0 0 0 240 240 240 240 240 240 240 216 209 202 195 188 181 174 167 160 153 146 140 133 126 119 112 106 99 92 85 79 72 66 59 53 46 40 0 0 0 0 0 0 0 0 0 0 0 0 0 0 0 0 0 0 0 0 0 0 0 0 0 0 0 0 0 0 0 0 0 0 0 0 0 0 0 0 0 0 0 40 46 53 59 66 72 79 85 92 99 106 112 119 126 133 140 146 153 160 167 174 181 188 195 202 209 216 240 240 240 240 240 240 240 240 240 240 240 240 240 240 240 240 240 240 240 240 240 240 240 240 240 240 240 240 217 210 203 196 189 182 176 169 162 155 148 142 135 128 121 115 108 102 95 89 82 76 70 63 57 51 45 0 0 0 0 0 0 0 0 0 0 0 0 0 0 0 0 0 0 0 0 0 0 0 0 0 0 0 0 0 0 0 0 0 45 51 57 63 70 76 82 89 95 102 108 115 121 128 135 142 148 155 162 169 176 182 189 196 203 210 217 240 240 240 240 240 240 240 240 240 240 240 240 240 240 240 240 240 240 240 240 240 240 240 240 240 240 240 0 0 0 0 0
0 0 0 0 0 240 240 240 240 240 240 240 218 211 204 197 190 183 176 169 162 155 149 142 135 128 122 115 108 102 95 88 82 75 69 62 56 50 43 0 0 0 0 0 0 0 0 0 0 0 0 0 0 0 0 0 0 0 0 0 0 0 0 0 0 0 0 0 0 0 0 0 0 0 0 0 0 0 0 0 0 0 43 50 56 62 69 75 82 88 95 102 108 115 122 128 135 142 149 155 162 169 176 183 190 197 204 211 218 240 240 240 240 240 240 240 240 240 240 240 240 240 240 240 240 240 240 240 240 240 240 240 240 240 240 240 240 219 212 205 198 191 185 178 171 164 158 151 144 138 131 124 118 111 105 98 92 86 79 73 67 61 55 50 44 0 0 0 0 0 0 0 0 0 0 0 0 0 0 0 0 0 0 0 0 0 0 0 0 0 0 0 0 0 0 0 44 50 55 61 67 73 79 86 92 98 105 111 118 124 131 138 144 151 158 164 171 178 185 191 198 205 212 219 240 240 240 240 240 240 240 240 240 240 240 240 240 240 240 240 240 240 240 240 240 240 240 240 240 240 240 0 0 0 0 0
0 0 0 0 0 240 240 240 240 240 240 240 220 213 206 199 192 185 178 171 165 158 151 144 138 131 124 118 111 104 98 91 85 78 72 66 60 53 47 41 0 0 0 0 0 0 0 0 0 0 0 0 0 0 0 0 0 0 0 0 0 0 0 0 0 0 0 0 0 0 0 0 0 0 0 0 0 0 0 0 0 41 47 53 60 66 72 78 85 91 98 104 111 118 124 131 138 144 151 158 165 171 178 185 192 199 206 213 220 240 240 240 240 240 240 240 240 240 240 240 240 240 240 240 240 240 240 240 240 240 240 240 240 240 240 240 240 240 214 207 201 194 187 180 174 167 160 154 147 140 134 127 121 114 108 102 96 89 83 77 71 65 60 54 49 43 0 0 0 0 0 0 0 0 0 0 0 0 0 0 0 0 0 0 0 0 0 0 0 0 0 0 0 0 0 43 49 54 60 65 71 77 83 89 96 102 108 114 121 127 134 140 147 154 160 167 174 180 187 194 201 207 214 240 240 240 240 240 240 240 240 240 240 240 240 240 240 240 240 240 240 240 240 240 240 240 240 240 240 240 240 0 0 0 0 0
0 0 0 0 0 240 240 240 240 240 240 240 240 215 208 201 194 187 181 174 167 160 154 147 140 134 127 120 114 107 101 95 88 82 76 69 63 57 51 45 0 0 0 0 0 0 0 0 0 0 0 0 0 0 0 0 0 0 0 0 0 0 0 0 0 0 0 0 0 0 0 0 0 0 0 0 0 0 0 0 0 45 51 57 63 69 76 82 88 95 101 107 114 120 127 134 140 147 154 160 167 174 181 187 194 201 208 215 240 240 240 240 240 240 240 240 240 240 240 240 240 240 240 240 240 240 240 240 240 240 240 240 240 240 240 240 240 240 217 210 203 196 190 183 176 170 163 156 150 143 137 131 124 118 112 105 99 93 87 81 76 70 64 59 53 48 43 0 0 0 0 0 0 0 0 0 0 0 0 0 0 0 0 0 0 0 0 0 0 0 0 0 0 0 43 48 53 59 64 70 76 81 87 93 99 105 112 118 124 131 137 143 150 156 163 170 176 183 190 196 203 210 217 240 240 240 240 240 240 240 240 240 240 240 240 240 240 240 240 240 240 240 240 240 240 240 240 240 240 240 240 0 0 0 0 0
0 0 0 0 0 240 240 240 240 240 240 240 240 217 210 203 197 190 183 176 170 163 156 150 143 137 130 124 117 111 104 98 92 85 79 73 67 61 55 50 44 0 0 0 0 0 0 0 0 0 0 0 0 0 0 0 0 0 0 0 0 0 0 0 0 0 0 0 0 0 0 0 0 0 0 0 0 0 0 0 44 50 55 61 67 73 79 85 92 98 104 111 117 124 130 137 143 150 156 163 170 176 183 190 197 203 210 217 240 240 240 240 240 240 240 240 240 240 240 240 240 240 240 240 240 240 240 240 240 240 240 240 240 240 240 240 240 240 219 212 206 199 192 186 179 173 166 160 153 147 140 134 128 121 115 109 103 97 91 86 80 74 69 64 58 53 49 44 0 0 0 0 0 0 0 0 0 0 0 0 0 0 0 0 0 0 0 0 0 0 0 0 0 44 49 53 58 64 69 74 80 86 91 97 103 109 115 121 128 134 140 147 153 160 166 173 179 186 192 199 206 212 219 240 240 240 240 240 240 240 240 240 240 240 240 240 240 240 240 240 240 240 240 240 240 240 240 240 240 240 240 0 0 0 0 0
0 0 0 0 0 240 240 240 240 240 240 240 240 219 213 206 199 192 186 179 172 166 159 153 146 140 133 127 120 114 108 102 95 89 83 77 71 65 60 54 48 43 0 0 0 0 0 0 0 0 0 0 0 0 0 0 0 0 0 0 0 0 0 0 0 0 0 0 0 0 0 0 0 0 0 0 0 0 0 43 48 54 60 65 71 77 83 89 95 102 108 114 120 127 133 140 146 153 159 166 172 179 186 192 199 206 213 219 240 240 240 240 240 240 240 240 240 240 240 240 240 240 240 240 240 240 240 240 240 240 240 240 240 240 240 240 240 240 240 215 208 202 195 189 182 176 169 163 156 150 144 138 131 125 119 113 107 101 96 90 84 79 74 69 64 59 54 50 45 41 0 0 0 0 0 0 0 0 0 0 0 0 0 0 0 0 0 0 0 0 0 41 45 50 54 59 64 69 74 79 84 90 96 101 107 113 119 125 131 138 144 150 156 163 169 176 182 189 195 202 208 215 240 240 240 240 240 240 240 240 240 240 240 240 240 240 240 240 240 240 240 240 240 240 240 240 240 240 240 240 240 0 0 0 0 0
0 0 0 0 0 240 240 240 240 240 240 240 240 240 215 208 202 195 189 182 175 169 162 156 149 143 136 130 124 118 111 105 99 93 87 81 76 70 64 59 53 48 43 0 0 0 0 0 0 0 0 0 0 0 0 0 0 0 0 0 0 0 0 0 0 0 0 0 0 0 0 0 0 0 0 0 0 0 43 48 53 59 64 70 76 81 87 93 99 105 111 118 124 130 136 143 149 156 162 169 175 182 189 195 202 208 215 240 240 240 240 240 240 240 240 240 240 240 240 240 240 240 240 240 240 240 240 240 240 240 240 240 240 240 240 240 240 240 240 218 211 205 198 192 185 179 172 166 160 154 147 141 135 129 123 117 112 106 100 95 89 84 79 74 69 64 60 55 51 47 44 40 0 0 0 0 0 0 0 0 0 0 0 0 0 0 0 0 0 40 44 47 51 55 60 64 69 74 79 84 89 95 100 106 112 117 123 129 135 141 147 154 160 166 172 179 185 192 198 205 211 218 240 240 240 240 240 240 240 240 240 240 240 240 240 240 240 240 240 240 240 240 240 240 240 240 240 240 240 240 240 0 0 0 0 0
0 0 0 0 0 240 240 240 240 240 240 240 240 240 218 211 205 198 191 185 178 172 165 159 153 146 140 134 127 121 115 109 103 97 91 86 80 74 69 63 58 53 48 43 0 0 0 0 0 0 0 0 0 0 0 0 0 0 0 0 0 0 0 0 0 0 0 0 0 0 0 0 0 0 0 0 0 43 48 53 58 63 69 74 80 86 91 97 103 109 115 121 127 134 140 146 153 159 165 172 178 185 191 198 205 211 218 240 240 240 240 240 240 240 240 240 240 240 240 240 240 240 240 240 240 240 240 240 240 240 240 240 240 240 240 240 240 240 240 240 214 208 201 195 189 182 176 170 163 157 151 145 139 133 127 122 116 110 105 99 94 89 84 79 74 70 65 61 57 54 50 47 44 41 0 0 0 0 0 0 0 0 0 0 0 0 0 41 44 47 50 54 57 61 65 70 74 79 84 89 94 99 105 110 116 122 127 133 139 145 151 157 163 170 176 182 189 195 201 208 214 240 240 240 240 240 240 240 240 240 240 240 240 240 240 240 240 240 240 240 240 240 240 240 240 240 240 240 240 240 240 0 0 0 0 0
0 0 0 0 0 240 240 240 240 240 240 240 240 240 240 214 207 201 194 188 181 175 169 162 156 150 144 137 131 125 119 113 107 101 96 90 84 79 74 68 63 58 53 48 44 0 0 0 0 0 0 0 0 0 0 0 0 0 0 0 0 0 0 0 0 0 0 0 0 0 0 0 0 0 0 0 44 48 53 58 63 68 74 79 84 90 96 101 107 113 119 125 131 137 144 150 156 162 169 175 181 188 194 201 207 214 240 240 240 240 240 240 240 240 240 240 240 240 240 240 240 240 240 240 240 240 240 240 240 240 240 240 240 240 240 240 240 240 240 240 217 211 205 198 192 186 180 173 167 161 155 149 143 137 132 126 120 115 110 104 99 94 89 84 80 76 71 67 63 60 56 53 51 48 46 44 42 41 40 40 0 40 40 41 42 44 46 48 51 53 56 60 63 67 71 76 80 84 89 94 99 104 110 115 120 126 132 137 143 149 155 161 167 173 180 186 192 198 205 211 217 240 240 240 240 240 240 240 240 240 240 240 240 240 240 240 240 240 240 240 240 240 240 240 240 240 240 240 240 240 240 0 0 0 0 0
0 0 0 0 0 240 240 240 240 240 240 240 240 240 240 217 211 204 198 191 185 178 172 166 160 153 147 141 135 129 123 117 112 106 100 95 89 84 78 73 68 63 59 54 50 45 41 0 0 0 0 0 0 0 0 0 0 0 0 0 0 0 0 0 0 0 0 0 0 0 0 0 0 0 41 45 50 54 59 63 68 73 78 84 89 95 100 106 112 117 123 129 135 141 147 153 160 166 172 178 185 191 198 204 211 217 240 240 240 240 240 240 240 240 240 240 240 240 240 240 240 240 240 240 240 240 240 240 240 240 240 240 240 240 240 240 240 240 240 240 240 214 208 202 196 189 183 177 171 165 159 153 148 142 136 131 125 120 114 109 104 99 95 90 86 81 77 73 70 66 63 60 57 55 53 51 49 48 47 47 47 47 47 48 49 51 53 55 57 60 63 66 70 73 77 81 86 90 95 99 104 109 114 120 125 131 136 142 148 153 159 165 171 177 183 189 196 202 208 214 240 240 240 240 240 240 240 240 240 240 240 240 240 240 240 240 240 240 240 240 240 240 240 240 240 240 240 240 240 240 240 0 0 0 0 0
0 0 0 0 0 240 240 240 240 240 240 240 240 240 240 240 214 207 201 195 188 182 176 169 163 157 151 145 139 133 127 122 116 110 105 99 94 89 84 78 74 69 64 60 55 51 47 43 40 0 0 0 0 0 0 0 0 0 0 0 0 0 0 0 0 0 0 0 0 0 0 0 40 43 47 51 55 60 64 69 74 78 84 89 94 99 105 110 116 122 127 133 139 145 151 157 163 169 176 182 188 195 201 207 214 240 240 240 240 240 240 240 240 240 240 240 240 240 240 240 240 240 240 240 240 240 240 240 240 240 240 240 240 240 240 240 240 240 240 240 240 218 212 205 199 193 187 181 175 169 163 158 152 146 141 135 130 125 120 114 110 105 100 96 91 87 83 79 76 73 69 67 64 62 60 58 56 55 55 54 54 54 55 55 56 58 60 62 64 67 69 73 76 79 83 87 91 96 100 105 110 114 120 125 130 135 141 146 152 158 163 169 175 181 187 193 199 205 212 218 240 240 240 240 240 240 240 240 240 240 240 240 240 240 240 240 240 240 240 240 240 240 240 240 240 240 240 240 240 240 240 0 0 0 0 0
0 0 0 0 0 240 240 240 240 240 240 240 240 240 240 240 217 211 204 198 192 185 179 173 167 161 155 149 143 137 132 126 120 115 109 104 99 94 89 84 79 74 70 65 61 57 53 50 46 43 40 0 0 0 0 0 0 0 0 0 0 0 0 0 0 0 0 0 0 0 40 43 46 50 53 57 61 65 70 74 79 84 89 94 99 104 109 115 120 126 132 137 143 149 155 161 167 173 179 185 192 198 204 211 217 240 240 240 240 240 240 240 240 240 240 240 240 240 240 240 240 240 240 240 240 240 240 240 240 240 240 240 240 240 240 240 240 240 240 240 240 240 215 209 203 197 191 185 179 173 168 162 156 151 145 140 135 130 125 120 115 110 106 101 97 93 89 86 82 79 76 73 71 69 67 65 64 63 62 61 61 61 62 63 64 65 67 69 71 73 76 79 82 86 89 93 97 101 106 110 115 120 125 130 135 140 145 151 156 162 168 173 179 185 191 197 203 209 215 240 240 240 240 240 240 240 240 240 240 240 240 240 240 240 240 240 240 240 240 240 240 240 240 240 240 240 240 240 240 240 240 0 0 0 0 0
0 0 0 0 0 240 240 240 240 240 240 240 240 240 240 240 240 214 208 202 195 189 183 177 171 165 159 153 148 142 136 131 125 120 114 109 104 99 94 89 84 80 76 71 67 63 60 56 53 50 47 44 42 0 0 0 0 0 0 0 0 0 0 0 0 0 0 0 42 44 47 50 53 56 60 63 67 71 76 80 84 89 94 99 104 109 114 120 125 131 136 142 148 153 159 165 171 177 183 189 195 202 208 214 240 240 240 240 240 240 240 240 240 240 240 240 240 240 240 240 240 240 240 240 240 240 240 240 240 240 240 240 240 240 240 240 240 240 240 240 240 240 219 213 207 201 195 189 184 178 172 167 161 156 150 145 140 135 130 125 120 116 112 107 103 99 96 92 89 86 83 80 78 76 74 72 71 70 69 68 68 68 69 70 71 72 74 76 78 80 83 86 89 92 96 99 103 107 112 116 120 125 130 135 140 145 150 156 161 167 172 178 184 189 195 201 207 213 219 240 240 240 240 240 240 240 240 240 240 240 240 240 240 240 240 240 240 240 240 240 240 240 240 240 240 240 240 240 240 240 240 0 0 0 0 0
0 0 0 0 0 240 240 240 240 240 240 240 240 240 240 240 240 218 211 205 199 193 187 181 175 169 163 158 152 146 141 135 130 124 119 114 109 104 99 95 90 86 81 77 73 69 66 62 59 56 53 51 48 46 45 43 42 41 40 40 0 40 40 41 42 43 45 46 48 51 53 56 59 62 66 69 73 77 81 86 90 95 99 104 109 114 119 124 130 135 141 146 152 158 163 169 175 181 187 193 199 205 211 218 240 240 240 240 240 240 240 240 240 240 240 240 240 240 240 240 240 240 240 240 240 240 240 240 240 240 240 240 240 240 240 240 240 240 240 240 240 240 240 217 211 205 199 194 188 182 177 171 166 160 155 150 145 140 135 131 126 122 117 113 109 105 102 98 95 92 89 87 84 82 81 79 78 77 76 76 76 76 76 77 78 79 81 82 84 87 89 92 95 98 102 105 109 113 117 122 126 131 135 140 145 150 155 160 166 171 177 182 188 194 199 205 211 217 240 240 240 240 240 240 240 240 240 240 240 240 240 240 240 240 240 240 240 240 240 240 240 240 240 240 240 240 240 240 240 240 240 0 0 0 0 0
0 0 0 0 0 240 240 240 240 240 240 240 240 240 240 240 240 240 215 209 203 197 191 185 179 173 168 162 156 151 145 140 135 129 124 119 114 109 105 100 96 91 87 83 79 76 72 69 66 63 60 58 55 53 52 50 49 48 47 47 47 47 47 48 49 50 52 53 55 58 60 63 66 69 72 76 79 83 87 91 96 100 105 109 114 119 124 129 135 140 145 151 156 162 168 173 179 185 191 197 203 209 215 240 240 240 240 240 240 240 240 240 240 240 240 240 240 240 240 240 240 240 240 240 240 240 240 240 240 240 240 240 240 240 240 240 240 240 240 240 240 240 240 240 215 209 204 198 192 187 181 176 171 165 160 155 150 145 141 136 132 127 123 119 115 112 108 105 102 99 96 94 91 89 88 86 85 84 83 83 83 83 83 84 85 86 88 89 91 94 96 99 102 105 108 112 115 119 123 127 132 136 141 145 150 155 160 165 171 176 181 187 192 198 204 209 215 240 240 240 240 240 240 240 240 240 240 240 240 240 240 240 240 240 240 240 240 240 240 240 240 240 240 240 240 240 240 240 240 240 240 0 0 0 0 0
0 0 0 0 0 240 240 240 240 240 240 240 240 240 240 240 240 240 219 213 207 201 195 189 184 178 172 166 161 155 150 145 140 134 129 124 120 115 110 106 101 97 93 89 85 82 78 75 72 69 67 64 62 60 59 57 56 55 54 54 54 54 54 55 56 57 59 60 62 64 67 69 72 75 78 82 85 89 93 97 101 106 110 115 120 124 129 134 140 145 150 155 161 166 172 178 184 189 195 201 207 213 219 240 240 240 240 240 240 240 240 240 240 240 240 240 240 240 240 240 240 240 240 240 240 240 240 240 240 240 240 240 240 240 240 240 240 240 240 240 240 240 240 240 220 214 208 202 197 191 186 181 176 170 165 160 156 151 146 142 137 133 129 125 121 118 114 111 108 105 103 100 98 96 95 93 92 91 90 90 90 90 90 91 92 93 95 96 98 100 103 105 108 111 114 118 121 125 129 133 137 142 146 151 156 160 165 170 176 181 186 191 197 202 208 214 220 240 240 240 240 240 240 240 240 240 240 240 240 240 240 240 240 240 240 240 240 240 240 240 240 240 240 240 240 240 240 240 240 240 240 0 0 0 0 0
0 0 0 0 0 240 240 240 240 240 240 240 240 240 240 240 240 240 240 217 211 205 199 194 188 182 177 171 166 160 155 150 145 140 135 130 125 120 116 112 107 103 99 95 92 88 85 82 79 76 74 71 69 67 66 64 63 62 62 61 61 61 62 62 63 64 66 67 69 71 74 76 79 82 85 88 92 95 99 103 107 112 116 120 125 130 135 140 145 150 155 160 166 171 177 182 188 194 199 205 211 217 240 240 240 240 240 240 240 240 240 240 240 240 240 240 240 240 240 240 240 240 240 240 240 240 240 240 240 240 240 240 240 240 240 240 240 240 240 240 240 240 240 240 240 218 213 207 202 196 191 186 181 176 171 166 161 156 152 148 143 139 135 131 128 124 121 118 115 112 110 107 105 103 102 100 99 98 98 97 97 97 98 98 99 100 102 103 105 107 110 112 115 118 121 124 128 131 135 139 143 148 152 156 161 166 171 176 181 186 191 196 202 207 213 218 240 240 240 240 240 240 240 240 240 240 240 240 240 240 240 240 240 240 240 240 240 240 240 240 240 240 240 240 240 240 240 240 240 240 240 0 0 0 0 0
0 0 0 0 0 240 240 240 240 240 240 240 240 240 240 240 240 240 240 240 215 209 204 198 192 187 181 176 170 165 160 155 150 145 140 135 131 126 122 117 113 109 105 102 98 95 91 88 85 83 80 78 76 74 73 71 70 69 69 68 68 68 69 69 70 71 73 74 76 78 80 83 85 88 91 95 98 102 105 109 113 117 122 126 131 135 140 145 150 155 160 165 170 176 181 187 192 198 204 209 215 240 240 240 240 240 240 240 240 240 240 240 240 240 240 240 240 240 240 240 240 240 240 240 240 240 240 240 240 240 240 240 240 240 240 240 240 240 240 240 240 240 240 240 240 240 217 212 206 201 196 191 186 181 176 171 167 162 158 153 149 145 141 138 134 131 127 124 121 119 116 114 112 110 109 107 106 105 105 104 104 104 105 105 106 107 109 110 112 114 116 119 121 124 127 131 134 138 141 145 149 153 158 162 167 171 176 181 186 191 196 201 206 212 217 240 240 240 240 240 240 240 240 240 240 240 240 240 240 240 240 240 240 240 240 240 240 240 240 240 240 240 240 240 240 240 240 240 240 240 240 0 0 0 0 0
0 0 0 0 0 240 240 240 240 240 240 240 240 240 240 240 240 240 240 240 220 214 208 202 197 191 186 181 175 170 165 160 155 150 145 141 136 132 127 123 119 115 111 108 104 101 98 95 92 90 87 85 83 81 80 78 77 77 76 76 76 76 76 77 77 78 80 81 83 85 87 90 92 95 98 101 104 108 111 115 119 123 127 132 136 141 145 150 155 160 165 170 175 181 186 191 197 202 208 214 220 240 240 240 240 240 240 240 240 240 240 240 240 240 240 240 240 240 240 240 240 240 240 240 240 240 240 240 240 240 240 240 240 240 240 240 240 240 240 240 240 240 240 240 240 240 240 217 211 206 201 196 191 186 181 177 172 168 163 159 155 151 147 144 140 137 134 131 128 126 123 121 119 117 116 114 113 113 112 112 112 112 112 113 113 114 116 117 119 121 123 126 128 131 134 137 140 144 147 151 155 159 163 168 172 177 181 186 191 196 201 206 211 217 240 240 240 240 240 240 240 240 240 240 240 240 240 240 240 240 240 240 240 240 240 240 240 240 240 240 240 240 240 240 240 240 240 240 240 240 240 0 0 0 0 0
0 0 0 0 0 240 240 240 240 240 240 240 240 240 240 240 240 240 240 240 240 218 213 207 202 196 191 185 180 175 170 165 160 155 151 146 142 137 133 129 125 121 118 114 111 107 104 102 99 96 94 92 90 88 87 86 85 84 83 83 83 83 83 84 85 86 87 88 90 92 94 96 99 102 104 107 111 114 118 121 125 129 133 137 142 146 151 155 160 165 170 175 180 185 191 196 202 207 213 218 240 240 240 240 240 240 240 240 240 240 240 240 240 240 240 240 240 240 240 240 240 240 240 240 240 240 240 240 240 240 240 240 240 240 240 240 240 240 240 240 240 240 240 240 240 240 240 240 216 211 206 201 196 191 187 182 178 173 169 165 161 157 154 150 147 143 140 138 135 132 130 128 126 124 123 122 121 120 119 119 119 119 119 120 121 122 123 124 126 128 130 132 135 138 140 143 147 150 154 157 161 165 169 173 178 182 187 191 196 201 206 211 216 240 240 240 240 240 240 240 240 240 240 240 240 240 240 240 240 240 240 240 240 240 240 240 240 240 240 240 240 240 240 240 240 240 240 240 240 240 240 0 0 0 0 0
0 0 0 0 0 240 240 240 240 240 240 240 240 240 240 240 240 240 240 240 240 240 217 212 206 201 196 190 185 180 175 170 166 161 156 152 148 143 139 135 131 127 124 120 117 114 111 108 106 103 101 99 97 95 94 93 92 91 90 90 90 90 90 91 92 93 94 95 97 99 101 103 106 108 111 114 117 120 124 127 131 135 139 143 148 152 156 161 166 170 175 180 185 190 196 201 206 212 217 240 240 240 240 240 240 240 240 240 240 240 240 240 240 240 240 240 240 240 240 240 240 240 240 240 240 240 240 240 240 240 240 240 240 240 240 240 240 240 240 240 240 240 240 240 240 240 240 240 240 216 211 206 202 197 192 188 184 179 175 171 167 163 160 156 153 150 147 144 142 139 137 135 133 131 130 129 128 127 126 126 126 126 126 127 128 129 130 131 133 135 137 139 142 144 147 150 153 156 160 163 167 171 175 179 184 188 192 197 202 206 211 216 240 240 240 240 240 240 240 240 240 240 240 240 240 240 240 240 240 240 240 240 240 240 240 240 240 240 240 240 240 240 240 240 240 240 240 240 240 240 240 0 0 0 0 0
0 0 0 0 0 240 240 240 240 240 240 240 240 240 240 240 240 240 240 240 240 240 240 216 211 206 201 196 190 185 181 176 171 166 162 158 153 149 145 141 137 134 130 127 124 120 118 115 112 110 108 106 104 102 101 100 99 98 98 97 97 97 98 98 99 100 101 102 104 106 108 110 112 115 118 120 124 127 130 134 137 141 145 149 153 158 162 166 171 176 181 185 190 196 201 206 211 216 240 240 240 240 240 240 240 240 240 240 240 240 240 240 240 240 240 240 240 240 240 240 240 240 240 240 240 240 240 240 240 240 240 240 240 240 240 240 240 240 240 240 240 240 240 240 240 240 240 240 240 240 217 212 207 202 198 194 189 185 181 177 173 170 166 163 160 156 154 151 148 146 144 142 140 138 137 136 135 134 134 133 133 133 134 134 135 136 137 138 140 142 144 146 148 151 154 156 160 163 166 170 173 177 181 185 189 194 198 202 207 212 217 240 240 240 240 240 240 240 240 240 240 240 240 240 240 240 240 240 240 240 240 240 240 240 240 240 240 240 240 240 240 240 240 240 240 240 240 240 240 240 240 0 0 0 0 0
0 0 0 0 0 240 240 240 240 240 240 240 240 240 240 240 240 240 240 240 240 240 240 240 216 211 206 201 196 191 186 181 177 172 168 163 159 155 151 147 144 140 136 133 130 127 124 122 119 117 115 113 111 109 108 107 106 105 105 104 104 104 105 105 106 107 108 109 111 113 115 117 119 122 124 127 130 133 136 140 144 147 151 155 159 163 168 172 177 181 186 191 196 201 206 211 216 240 240 240 240 240 240 240 240 240 240 240 240 240 240 240 240 240 240 240 240 240 240 240 240 240 240 240 240 240 240 240 240 240 240 240 240 240 240 240 240 240 240 240 240 240 240 240 240 240 240 240 240 240 240 217 213 208 204 199 195 191 187 183 180 176 172 169 166 163 160 158 155 153 151 149 147 145 144 143 142 141 141 140 140 140 141 141 142 143 144 145 147 149 151 153 155 158 160 163 166 169 172 176 180 183 187 191 195 199 204 208 213 217 240 240 240 240 240 240 240 240 240 240 240 240 240 240 240 240 240 240 240 240 240 240 240 240 240 240 240 240 240 240 240 240 240 240 240 240 240 240 240 240 240 0 0 0 0 0
0 0 0 0 0 240 240 240 240 240 240 240 240 240 240 240 240 240 240 240 240 240 240 240 240 216 211 206 201 196 191 187 182 178 173 169 165 161 157 153 150 146 143 140 137 134 131 128 126 124 122 120 118 116 115 114 113 112 112 112 112 112 112 112 113 114 115 116 118 120 122 124 126 128 131 134 137 140 143 146 150 153 157 161 165 169 173 178 182 187 191 196 201 206 211 216 240 240 240 240 240 240 240 240 240 240 240 240 240 240 240 240 240 240 240 240 240 240 240 240 240 240 240 240 240 240 240 240 240 240 240 240 240 240 240 240 240 240 240 240 240 240 240 240 240 240 240 240 240 240 240 240 218 214 209 205 201 197 193 189 186 182 179 176 173 170 167 164 162 160 158 156 154 152 151 150 149 148 148 148 148 148 148 148 149 150 151 152 154 156 158 160 162 164 167 170 173 176 179 182 186 189 193 197 201 205 209 214 218 240 240 240 240 240 240 240 240 240 240 240 240 240 240 240 240 240 240 240 240 240 240 240 240 240 240 240 240 240 240 240 240 240 240 240 240 240 240 240 240 240 240 0 0 0 0 0
0 0 0 0 0 240 240 240 240 240 240 240 240 240 240 240 240 240 240 240 240 240 240 240 240 240 216 211 206 202 197 192 188 184 179 175 171 167 163 160 156 153 149 146 143 140 138 135 133 131 129 127 125 124 122 121 120 120 119 119 119 119 119 120 120 121 122 124 125 127 129 131 133 135 138 140 143 146 149 153 156 160 163 167 171 175 179 184 188 192 197 202 206 211 216 240 240 240 240 240 240 240 240 240 240 240 240 240 240 240 240 240 240 240 240 240 240 240 240 240 240 240 240 240 240 240 240 240 240 240 240 240 240 240 240 240 240 240 240 240 240 240 240 240 240 240 240 240 240 240 240 240 240 220 215 211 207 203 199 196 192 189 185 182 179 176 174 171 169 167 165 163 161 160 158 157 156 156 155 155 155 155 155 156 156 157 158 160 161 163 165 167 169 171 174 176 179 182 185 189 192 196 199 203 207 211 215 220 240 240 240 240 240 240 240 240 240 240 240 240 240 240 240 240 240 240 240 240 240 240 240 240 240 240 240 240 240 240 240 240 240 240 240 240 240 240 240 240 240 240 240 0 0 0 0 0
0 0 0 0 0 240 240 240 240 240 240 240 240 240 240 240 240 240 240 240 240 240 240 240 240 240 240 216 212 207 202 198 194 189 185 181 177 173 169 166 162 159 156 153 150 147 144 142 140 137 135 134 132 131 129 128 127 127 126 126 126 126 126 127 127 128 129 131 132 134 135 137 140 142 144 147 150 153 156 159 162 166 169 173 177 181 185 189 194 198 202 207 212 216 240 240 240 240 240 240 240 240 240 240 240 240 240 240 240 240 240 240 240 240 240 240 240 240 240 240 240 240 240 240 240 240 240 240 240 240 240 240 240 240 240 240 240 240 240 240 240 240 240 240 240 240 240 240 240 240 240 240 240 240 240 217 213 209 205 202 198 195 192 189 186 183 180 178 176 173 171 170 168 167 165 164 163 163 162 162 162 162 162 163 163 164 165 167 168 170 171 173 176 178 180 183 186 189 192 195 198 202 205 209 213 217 240 240 240 240 240 240 240 240 240 240 240 240 240 240 240 240 240 240 240 240 240 240 240 240 240 240 240 240 240 240 240 240 240 240 240 240 240 240 240 240 240 240 240 240 240 0 0 0 0 0
0 0 0 0 0 240 240 240 240 240 240 240 240 240 240 240 240 240 240 240 240 240 240 240 240 240 240 240 217 213 208 204 199 195 191 187 183 179 176 172 169 165 162 159 156 154 151 149 146 144 142 141 139 138 136 135 135 134 133 133 133 133 133 134 135 135 136 138 139 141 142 144 146 149 151 154 156 159 162 165 169 172 176 179 183 187 191 195 199 204 208 213 217 240 240 240 240 240 240 240 240 240 240 240 240 240 240 240 240 240 240 240 240 240 240 240 240 240 240 240 240 240 240 240 240 240 240 240 240 240 240 240 240 240 240 240 240 240 240 240 240 240 240 240 240 240 240 240 240 240 240 240 240 240 240 240 219 215 212 208 205 201 198 195 192 190 187 185 182 180 178 177 175 174 172 171 171 170 169 169 169 169 169 170 171 171 172 174 175 177 178 180 182 185 187 190 192 195 198 201 205 208 212 215 219 240 240 240 240 240 240 240 240 240 240 240 240 240 240 240 240 240 240 240 240 240 240 240 240 240 240 240 240 240 240 240 240 240 240 240 240 240 240 240 240 240 240 240 240 240 240 0 0 0 0 0
0 0 0 0 0 240 240 240 240 240 240 240 240 240 240 240 240 240 240 240 240 240 240 240 240 240 240 240 240 218 214 209 205 201 197 193 189 185 182 178 175 172 169 166 163 160 158 155 153 151 149 148 146 145 144 143 142 141 141 140 140 140 141 141 142 143 144 145 146 148 149 151 153 155 158 160 163 166 169 172 175 178 182 185 189 193 197 201 205 209 214 218 240 240 240 240 240 240 240 240 240 240 240 240 240 240 240 240 240 240 240 240 240 240 240 240 240 240 240 240 240 240 240 240 240 240 240 240 240 240 240 240 240 240 240 240 240 240 240 240 240 240 240 240 240 240 240 240 240 240 240 240 240 240 240 240 240 240 218 214 211 208 205 202 199 196 194 191 189 187 185 184 182 181 180 179 178 177 177 176 176 176 177 177 178 179 180 181 182 184 185 187 189 191 194 196 199 202 205 208 211 214 218 240 240 240 240 240 240 240 240 240 240 240 240 240 240 240 240 240 240 240 240 240 240 240 240 240 240 240 240 240 240 240 240 240 240 240 240 240 240 240 240 240 240 240 240 240 240 240 240 0 0 0 0 0
0 0 0 0 0 240 240 240 240 240 240 240 240 240 240 240 240 240 240 240 240 240 240 240 240 240 240 240 240 240 220 215 211 207 203 199 195 192 188 185 181 178 175 172 170 167 165 162 160 158 156 155 153 152 151 150 149 148 148 148 148 148 148 148 149 150 151 152 153 155 156 158 160 162 165 167 170 172 175 178 181 185 188 192 195 199 203 207 211 215 220 240 240 240 240 240 240 240 240 240 240 240 240 240 240 240 240 240 240 240 240 240 240 240 240 240 240 240 240 240 240 240 240 240 240 240 240 240 240 240 240 240 240 240 240 240 240 240 240 240 240 240 240 240 240 240 240 240 240 240 240 240 240 240 240 240 240 240 240 240 217 214 211 208 206 203 201 198 196 194 192 191 189 188 187 186 185 184 184 184 184 184 184 184 185 186 187 188 189 191 192 194 196 198 201 203 206 208 211 214 217 240 240 240 240 240 240 240 240 240 240 240 240 240 240 240 240 240 240 240 240 240 240 240 240 240 240 240 240 240 240 240 240 240 240 240 240 240 240 240 240 240 240 240 240 240 240 240 240 240 240 0 0 0 0 0
0 0 0 0 0 240 240 240 240 240 240 240 240 240 240 240 240 240 240 240 240 240 240 240 240 240 240 240 240 240 240 240 217 213 209 205 202 198 195 191 188 185 182 179 176 174 171 169 167 165 163 162 160 159 158 157 156 155 155 155 155 155 155 155 156 157 158 159 160 162 163 165 167 169 171 174 176 179 182 185 188 191 195 198 202 205 209 213 217 240 240 240 240 240 240 240 240 240 240 240 240 240 240 240 240 240 240 240 240 240 240 240 240 240 240 240 240 240 240 240 240 240 240 240 240 240 240 240 240 240 240 240 240 240 240 240 240 240 240 240 240 240 240 240 240 240 240 240 240 240 240 240 240 240 240 240 240 240 240 240 240 240 218 215 212 210 207 205 203 201 199 198 196 195 194 193 192 191 191 191 191 191 191 191 192 193 194 195 196 198 199 201 203 205 207 210 212 215 218 240 240 240 240 240 240 240 240 240 240 240 240 240 240 240 240 240 240 240 240 240 240 240 240 240 240 240 240 240 240 240 240 240 240 240 240 240 240 240 240 240 240 240 240 240 240 240 240 240 240 240 240 0 0 0 0 0
0 0 0 0 0 240 240 240 240 240 240 240 240 240 240 240 240 240 240 240 240 240 240 240 240 240 240 240 240 240 240 240 240 219 215 211 208 204 201 198 194 191 189 186 183 181 178 176 174 172 170 169 167 166 165 164 163 163 162 162 162 162 162 163 163 164 165 166 167 169 170 172 174 176 178 181 183 186 189 191 194 198 201 204 208 211 215 219 240 240 240 240 240 240 240 240 240 240 240 240 240 240 240 240 240 240 240 240 240 240 240 240 240 240 240 240 240 240 240 240 240 240 240 240 240 240 240 240 240 240 240 240 240 240 240 240 240 240 240 240 240 240 240 240 240 240 240 240 240 240 240 240 240 240 240 240 240 240 240 240 240 240 240 240 219 217 214 212 210 208 206 205 203 202 201 200 199 199 198 198 198 198 198 199 199 200 201 202 203 205 206 208 210 212 214 217 219 240 240 240 240 240 240 240 240 240 240 240 240 240 240 240 240 240 240 240 240 240 240 240 240 240 240 240 240 240 240 240 240 240 240 240 240 240 240 240 240 240 240 240 240 240 240 240 240 240 240 240 240 240 240 0 0 0 0 0
0 0 0 0 0 240 240 240 240 240 240 240 240 240 240 240 240 240 240 240 240 240 240 240 240 240 240 240 240 240 240 240 240 240 240 218 214 211 207 204 201 198 195 192 190 187 185 183 181 179 177 176 174 173 172 171 170 170 169 169 169 169 169 170 170 171 172 173 174 176 177 179 181 183 185 187 190 192 195 198 201 204 207 211 214 218 240 240 240 240 240 240 240 240 240 240 240 240 240 240 240 240 240 240 240 240 240 240 240 240 240 240 240 240 240 240 240 240 240 240 240 240 240 240 240 240 240 240 240 240 240 240 240 240 240 240 240 240 240 240 240 240 240 240 240 240 240 240 240 240 240 240 240 240 240 240 240 240 240 240 240 240 240 240 240 240 240 219 217 215 213 212 210 209 208 207 206 206 205 205 205 205 205 206 206 207 208 209 210 212 213 215 217 219 240 240 240 240 240 240 240 240 240 240 240 240 240 240 240 240 240 240 240 240 240 240 240 240 240 240 240 240 240 240 240 240 240 240 240 240 240 240 240 240 240 240 240 240 240 240 240 240 240 240 240 240 240 240 240 240 240 0 0 0 0 0
0 0 0 0 0 240 240 240 240 240 240 240 240 240 240 240 240 240 240 240 240 240 240 240 240 240 240 240 240 240 240 240 240 240 240 240 240 217 214 211 207 205 202 199 197 194 192 190 188 186 184 183 181 180 179 178 178 177 177 176 176 176 177 177 178 178 179 180 181 183 184 186 188 190 192 194 197 199 202 205 207 211 214 217 240 240 240 240 240 240 240 240 240 240 240 240 240 240 240 240 240 240 240 240 240 240 240 240 240 240 240 240 240 240 240 240 240 240 240 240 240 240 240 240 240 240 240 240 240 240 240 240 240 240 240 240 240 240 240 240 240 240 240 240 240 240 240 240 240 240 240 240 240 240 240 240 240 240 240 240 240 240 240 240 240 240 240 240 240 240 240 219 217 216 215 214 214 213 213 212 212 212 213 213 214 214 215 216 217 219 240 240 240 240 240 240 240 240 240 240 240 240 240 240 240 240 240 240 240 240 240 240 240 240 240 240 240 240 240 240 240 240 240 240 240 240 240 240 240 240 240 240 240 240 240 240 240 240 240 240 240 240 240 240 240 240 240 240 240 240 240 0 0 0 0 0
0 0 0 0 0 240 240 240 240 240 240 240 240 240 240 240 240 240 240 240 240 240 240 240 240 240 240 240 240 240 240 240 240 240 240 240 240 240 240 217 214 211 208 206 203 201 199 197 195 193 191 190 189 187 186 185 185 184 184 184 184 184 184 184 185 185 186 187 189 190 191 193 195 197 199 201 203 206 208 211 214 217 240 240 240 240 240 240 240 240 240 240 240 240 240 240 240 240 240 240 240 240 240 240 240 240 240 240 240 240 240 240 240 240 240 240 240 240 240 240 240 240 240 240 240 240 240 240 240 240 240 240 240 240 240 240 240 240 240 240 240 240 240 240 240 240 240 240 240 240 240 240 240 240 240 240 240 240 240 240 240 240 240 240 240 240 240 240 240 240 240 240 240 240 240 240 240 240 240 240 220 240 240 240 240 240 240 240 240 240 240 240 240 240 240 240 240 240 240 240 240 240 240 240 240 240 240 240 240 240 240 240 240 240 240 240 240 240 240 240 240 240 240 240 240 240 240 240 240 240 240 240 240 240 240 240 240 240 240 240 240 240 240 240 240 240 240 240 240 240 240 0 0 0 0 0
0 0 0 0 0 240 240 240 240 240 240 240 240 240 240 240 240 240 240 240 240 240 240 240 240 240 240 240 240 240 240 240 240 240 240 240 240 240 240 240 240 218 215 213 210 208 206 204 202 200 198 197 196 195 194 193 192 191 191 191 191 191 191 191 192 193 194 195 196 197 198 200 202 204 206 208 210 213 215 218 240 240 240 240 240 240 240 240 240 240 240 240 240 240 240 240 240 240 240 240 240 240 240 240 240 240 240 240 240 240 240 240 240 240 240 240 240 240 240 240 240 240 240 240 240 240 240 240 240 240 240 240 240 240 240 240 240 240 240 240 240 240 240 240 240 240 240 240 240 240 240 240 240 240 240 240 240 240 240 240 240 240 240 240 240 240 240 240 240 240 240 240 240 240 240 240 240 240 240 240 240 240 240 240 240 240 240 240 240 240 240 240 240 240 240 240 240 240 240 240 240 240 240 240 240 240 240 240 240 240 240 240 240 240 240 240 240 240 240 240 240 240 240 240 240 240 240 240 240 240 240 240 240 240 240 240 240 240 240 240 240 240 240 240 240 240 240 240 240 240 240 0 0 0 0 0
0 0 0 0 0 240 240 240 240 240 240 240 240 240 240 240 240 240 240 240 240 240 240 240 240 240 240 240 240 240 240 240 240 240 240 240 240 240 240 240 240 240 240 219 217 215 213 211 209 207 205 204 203 202 201 200 199 199 198 198 198 198 198 199 199 200 201 202 203 204 205 207 209 211 213 215 217 219 240 240 240 240 240 240 240 240 240 240 240 240 240 240 240 240 240 240 240 240 240 240 240 240 240 240 240 240 240 240 240 240 240 240 240 240 240 240 240 240 240 240 240 240 240 240 240 240 240 240 240 240 240 240 240 240 240 240 240 240 240 240 240 240 240 240 240 240 240 240 240 240 240 240 240 240 240 240 240 240 240 240 240 240 240 240 240 240 240 240 240 240 240 240 240 240 240 240 240 240 240 240 240 240 240 240 240 240 240 240 240 240 240 240 240 240 240 240 240 240 240 240 240 240 240 240 240 240 240 240 240 240 240 240 240 240 240 240 240 240 240 240 240 240 240 240 240 240 240 240 240 240 240 240 240 240 240 240 240 240 240 240 240 240 240 240 240 240 240 240 240 240 240 0 0 0 0 0
0 0 0 0 0 240 240 240 240 240 240 240 240 240 240 240 240 240 240 240 240 240 240 240 240 240 240 240 240 240 240 240 240 240 240 240 240 240 240 240 240 240 240 240 240 240 220 218 216 214 213 211 210 209 208 207 206 206 205 205 205 205 205 206 206 207 208 209 210 211 213 214 216 218 220 240 240 240 240 240 240 240 240 240 240 240 240 240 240 240 240 240 240 240 240 240 240 240 240 240 240 240 240 240 240 240 240 240 240 240 240 240 240 240 240 240 240 240 240 240 240 240 240 240 240 240 240 240 240 240 240 240 240 240 240 240 240 240 240 240 240 240 240 240 240 240 240 240 240 240 240 240 240 240 240 240 240 240 240 240 240 240 240 240 240 240 240 240 240 240 240 240 240 240 240 240 240 240 240 240 240 240 240 240 240 240 240 240 240 240 240 240 240 240 240 240 240 240 240 240 240 240 240 240 240 240 240 240 240 240 240 240 240 240 240 240 240 240 240 240 240 240 240 240 240 240 240 240 240 240 240 240 240 240 240 240 240 240 240 240 240 240 240 240 240 240 240 240 240 240 240 0 0 0 0 0
0 0 0 0 0 240 240 240 240 240 240 240 240 240 240 240 240 240 240 240 240 240 240 240 240 240 240 240 240 240 240 240 240 240 240 240 240 240 240 240 240 240 240 240 240 240 240 240 240 240 240 218 217 216 215 214 213 213 213 212 212 212 213 213 213 214 215 216 217 218 240 240 240 240 240 240 240 240 240 240 240 240 240 240 240 240 240 240 240 240 240 240 240 240 240 240 240 240 240 240 240 240 240 240 240 240 240 240 240 240 240 240 240 240 240 240 240 240 240 240 240 240 240 240 240 240 240 240 240 240 240 240 240 240 240 240 240 240 240 240 240 240 240 240 240 240 240 240 240 240 240 240 240 240 240 240 240 240 240 240 240 240 240 240 240 240 240 240 240 240 240 240 240 240 240 240 240 240 240 240 240 240 240 240 240 240 240 240 240 240 240 240 240 240 240 240 240 240 240 240 240 240 240 240 240 240 240 240 240 240 240 240 240 240 240 240 240 240 240 240 240 240 240 240 240 240 240 240 240 240 240 240 240 240 240 240 240 240 240 240 240 240 240 240 240 240 240 240 240 240 240 0 0 0 0 0
0 0 0 0 0 240 240 240 240 240 240 240 240 240 240 240 240 240 240 240 240 240 240 240 240 240 240 240 240 240 240 240 240 240 240 240 240 240 240 240 240 240 240 240 240 240 240 240 240 240 240 240 240 240 240 240 240 240 240 240 220 240 240 240 240 240 240 240 240 240 240 240 240 240 240 240 240 240 240 240 240 240 240 240 240 240 240 240 240 240 240 240 240 240 240 240 240 240 240 240 240 240 240 240 240 240 240 240 240 240 240 240 240 240 240 240 240 240 240 240 240 240 240 240 240 240 240 240 240 240 240 240 240 240 240 240 240 240 240 240 240 240 240 240 240 240 240 240 240 240 240 240 240 240 240 240 240 240 240 240 240 240 240 240 240 240 240 240 240 240 240 240 240 240 240 240 240 240 240 240 240 240 240 240 240 240 240 240 240 240 240 240 240 240 240 240 240 240 240 240 240 240 240 240 240 240 240 240 240 240 240 240 240 240 240 240 240 240 240 240 240 240 240 240 240 240 240 240 240 240 240 240 240 240 240 240 240 240 240 240 240 240 240 240 240 240 240 240 240 240 240 0 0 0 0 0
0 0 0 0 0 240 240 240 240 240 240 240 240 240 240 240 240 240 240 240 240 240 240 240 240 240 240 240 240 240 240 240 240 240 240 240 240 240 240 240 240 240 240 240 240 240 240 240 240 240 240 240 240 240 240 240 240 240 240 240 240 240 240 240 240 240 240 240 240 240 240 240 240 240 240 240 240 240 240 240 240 240 240 240 240 240 240 240 240 240 240 240 240 240 240 240 240 240 240 240 240 240 240 240 240 240 240 240 240 240 240 240 240 240 240 240 240 240 240 240 240 240 240 240 240 240 240 240 240 240 240 240 240 240 240 240 240 240 240 240 240 240 240 240 240 240 240 240 240 240 240 240 240 240 240 240 240 240 240 240 240 240 240 240 240 240 240 240 240 240 240 240 240 240 240 240 240 240 240 240 240 240 240 240 240 240 240 240 240 240 240 240 240 240 240 240 240 240 240 240 240 240 240 240 240 240 240 240 240 240 240 240 240 240 240 240 240 240 240 240 240 240 240 240 240 240 240 240 240 240 240 240 240 240 240 240 240 240 240 240 240 240 240 240 240 240 240 240 240 240 240 0 0 0 0 0
0 0 0 0 0 240 240 240 240 240 240 240 240 240 240 240 240 240 240 240 240 240 240 240 240 240 240 240 240 240 240 240 240 240 240 240 240 240 240 240 240 240 240 240 240 240 240 240 240 240 240 240 240 240 240 240 240 240 240 240 240 240 240 240 240 240 240 240 240 240 240 240 240 240 240 240 240 240 240 240 240 240 240 240 240 240 240 240 240 240 240 240 240 240 240 240 240 240 240 240 240 240 240 240 240 240 240 240 240 240 240 240 240 240 240 240 240 240 240 240 240 240 240 240 240 240 240 240 240 240 240 240 240 240 240 240 240 240 240 240 240 240 240 240 240 240 240 240 240 240 240 240 240 240 240 240 240 240 240 240 240 240 240 240 240 240 240 240 240 240 240 240 240 240 240 240 240 240 240 240 240 240 240 240 240 240 240 240 240 240 240 240 240 240 240 240 240 240 240 240 240 240 240 240 240 240 240 240 240 240 240 240 240 240 240 240 240 240 240 240 240 240 240 240 240 240 240 240 240 240 240 240 240 240 240 240 240 240 240 240 240 240 240 240 240 240 240 240 240 240 240 0 0 0 0 0
0 0 0 0 0 240 240 240 240 240 240 240 240 240 240 240 240 240 240 240 240 240 240 240 240 240 240 240 240 240 240 240 240 240 240 240 240 240 240 240 240 240 240 240 240 240 240 240 240 240 240 240 240 240 240 240 240 240 240 240 240 240 240 240 240 240 240 240 240 240 240 240 240 240 240 240 240 240 240 240 240 240 240 240 240 240 240 240 240 240 240 240 240 240 240 240 240 240 240 240 240 240 240 240 240 240 240 240 240 240 240 240 240 240 240 240 240 240 240 240 240 240 240 240 240 240 240 240 240 240 240 240 240 240 240 240 240 240 240 240 240 240 240 240 240 240 240 240 240 240 240 240 240 240 240 240 240 240 240 240 240 240 240 240 240 240 240 240 240 240 240 240 240 240 240 240 240 240 240 240 240 240 240 240 240 240 240 240 240 240 240 240 240 240 240 240 240 240 240 240 240 240 240 240 240 240 240 240 240 240 240 240 240 240 240 240 240 240 240 240 240 240 240 240 240 240 240 240 240 240 240 240 240 240 240 240 240 240 240 240 240 240 240 240 240 240 240 240 240 240 240 0 0 0 0 0
0 0 0 0 0 240 240 240 240 240 240 240 240 240 240 240 240 240 240 240 240 240 240 240 240 240 240 240 240 240 240 240 240 240 240 240 240 240 240 240 240 240 240 240 240 240 240 240 240 240 240 240 240 240 240 240 240 240 240 240 240 240 240 240 240 240 240 240 240 240 240 240 240 240 240 240 240 240 240 240 240 240 240 240 240 240 240 240 240 240 240 240 240 240 240 240 240 240 240 240 240 240 240 240 240 240 240 240 240 240 240 240 240 240 240 240 240 240 240 240 240 240 240 240 240 240 240 240 240 240 240 240 240 240 240 240 240 240 240 240 240 240 240 240 240 240 240 240 240 240 240 240 240 240 240 240 240 240 240 240 240 240 240 240 240 240 240 240 240 240 240 240 240 240 240 240 240 240 240 240 240 240 240 240 240 240 240 240 240 240 240 240 240 240 240 240 240 240 240 240 240 240 240 240 240 240 240 240 240 240 240 240 240 240 240 240 240 240 240 240 240 240 240 240 240 240 240 240 240 240 240 240 240 240 240 240 240 240 240 240 240 240 240 240 240 240 240 240 240 240 240 0 0 0 0 0
0 0 0 0 0 240 240 240 240 240 240 240 240 240 240 240 240 240 240 240 240 240 240 240 240 240 240 240 240 240 240 240 240 240 240 240 240 240 240 240 240 240 240 240 240 240 240 240 240 240 240 240 240 240 240 240 240 240 240 240 240 240 240 240 240 240 240 240 240 240 240 240 240 240 240 240 240 240 240 240 240 240 240 240 240 240 240 240 240 240 240 240 240 240 240 240 240 240 240 240 240 240 240 240 240 240 240 240 240 240 240 240 240 240 240 240 240 240 240 240 240 240 240 240 240 240 240 240 240 240 240 240 240 240 240 240 240 240 240 240 240 240 240 240 240 240 240 240 240 240 240 240 240 240 240 240 240 240 240 240 240 240 240 240 240 240 240 240 240 240 240 240 240 240 240 240 240 240 240 240 240 240 240 240 240 240 240 240 240 240 240 240 240 240 240 240 240 240 240 240 240 240 240 240 240 240 240 240 240 240 240 240 240 240 240 240 240 240 240 240 240 240 240 240 240 240 240 240 240 240 240 240 240 240 240 240 240 240 240 240 240 240 240 240 240 240 240 240 240 240 240 0 0 0 0 0
0 0 0 0 0 240 240 240 240 240 240 240 240 240 240 240 240 240 240 240 240 240 240 240 240 240 240 240 240 240 240 240 240 240 240 240 240 240 240 240 240 240 240 240 240 240 240 240 240 240 240 240 240 240 240 240 240 240 240 240 240 240 240 240 240 240 240 240 240 240 240 240 240 240 240 240 240 240 240 240 240 240 240 240 240 240 240 240 240 240 240 240 240 240 240 240 240 240 240 240 240 240 240 240 240 240 240 240 240 240 240 240 240 240 240 240 240 240 240 240 240 240 240 240 240 240 240 240 240 240 240 240 240 240 240 240 240 240 240 240 240 240 240 240 240 240 240 240 240 240 240 240 240 240 240 240 240 240 240 240 240 240 240 240 240 240 240 240 240 240 240 240 240 240 240 240 240 240 240 240 240 240 240 240 240 240 240 240 240 240 240 240 240 240 240 240 240 240 240 240 240 240 240 240 240 240 240 240 240 240 240 240 240 240 240 240 240 240 240 240 240 240 240 240 240 240 240 240 240 240 240 240 240 240 240 240 240 240 240 240 240 240 240 240 240 240 240 240 240 240 240 0 0 0 0 0
0 0 0 0 0 240 240 240 240 240 240 240 240 240 240 240 240 240 240 240 240 240 240 240 240 240 240 240 240 240 240 240 240 240 240 240 240 240 240 240 240 240 240 240 240 240 240 240 240 240 240 240 240 240 240 240 240 240 240 240 240 240 240 240 240 240 240 240 240 240 240 240 240 240 240 240 240 240 240 240 240 240 240 240 240 240 240 240 240 240 240 240 240 240 240 240 240 240 240 240 240 240 240 240 240 240 240 240 240 240 240 240 240 240 240 240 240 240 240 240 240 240 240 240 240 240 240 240 240 240 240 240 240 240 240 240 240 240 240 240 240 240 240 240 240 240 240 240 240 240 240 240 240 240 240 240 240 240 240 240 240 240 240 240 240 240 240 240 240 240 240 240 240 240 240 240 240 240 240 240 240 240 240 240 240 240 240 240 240 240 240 240 240 240 240 240 240 240 240 240 240 240 240 240 240 240 240 240 240 240 240 240 240 240 240 240 240 240 240 240 240 240 240 240 240 240 240 240 240 240 240 240 240 240 240 240 240 240 240 240 240 240 240 240 240 240 240 240 240 240 240 0 0 0 0 0
0 0 0 0 0 240 240 240 240 240 240 240 240 240 240 240 240 240 240 240 240 240 240 240 240 240 240 240 240 240 240 240 240 240 240 240 240 240 240 240 240 240 240 240 240 240 240 240 240 240 240 240 240 240 240 240 240 240 240 240 240 240 240 240 240 240 240 240 240 240 240 240 240 240 240 240 240 240 240 240 240 240 240 240 240 240 240 240 240 240 240 240 240 240 240 240 240 240 240 240 240 240 240 240 240 240 240 240 240 240 240 240 240 240 240 240 240 240 240 240 240 240 240 240 240 240 240 240 240 240 240 240 240 240 240 240 240 240 240 240 240 240 240 240 240 240 240 240 240 240 240 240 240 240 240 240 240 240 240 240 240 240 240 240 240 240 240 240 240 240 240 240 240 240 240 240 240 240 240 240 240 240 240 240 240 240 240 240 240 240 240 240 240 240 240 240 240 240 240 240 240 240 240 240 240 240 240 240 240 240 240 240 240 240 240 240 240 240 240 240 240 240 240 240 240 240 240 240 240 240 240 240 240 240 240 240 240 240 240 240 240 240 240 240 240 240 240 240 240 240 240 0 0 0 0 0
0 0 0 0 0 240 240 240 240 240 240 240 240 240 240 240 240 240 240 240 240 240 240 240 240 240 240 240 240 240 240 240 240 240 240 240 240 240 240 240 240 240 240 240 240 240 240 240 240 240 240 240 240 240 240 240 240 240 240 240 240 240 240 240 240 240 240 240 240 240 240 240 240 240 240 240 240 240 240 240 240 240 240 240 240 240 240 240 240 240 240 240 240 240 240 240 240 240 240 240 240 240 240 240 240 240 240 240 240 240 240 240 240 240 240 240 240 240 240 240 240 240 240 240 240 240 240 240 240 240 240 240 240 240 240 240 240 240 240 240 240 240 240 240 240 240 240 240 240 240 240 240 240 240 240 240 240 240 240 240 240 240 240 240 240 240 240 240 240 240 240 240 240 240 240 240 240 240 240 240 240 240 240 240 240 240 240 240 240 240 240 240 240 240 240 240 240 240 240 240 240 240 240 240 240 240 240 240 240 240 240 240 240 240 240 240 240 240 240 240 240 240 240 240 240 240 240 240 240 240 240 240 240 240 240 240 240 240 240 240 240 240 240 240 240 240 240 240 240 240 240 0 0 0 0 0
0 0 0 0 0 240 240 240 240 240 240 240 240 240 240 240 240 240 240 240 240 240 240 240 240 240 240 240 240 240 240 240 240 240 240 240 240 240 240 240 240 240 240 240 240 240 240 240 240 240 240 240 240 240 240 240 240 240 240 240 240 240 240 240 240 240 240 240 240 240 240 240 240 240 240 240 240 240 240 240 240 240 240 240 240 240 240 240 240 240 240 240 240 240 240 240 240 240 240 240 240 240 240 240 240 240 240 240 240 240 240 240 240 240 240 240 240 240 240 240 240 240 240 240 240 240 240 240 240 240 240 240 240 240 240 240 240 240 240 240 240 240 240 240 240 240 240 240 240 240 240 240 240 240 240 240 240 240 240 240 240 240 240 240 240 240 240 240 240 240 240 240 240 240 240 240 240 240 240 240 240 240 240 240 240 240 240 240 240 240 240 240 240 240 240 240 240 240 240 240 240 240 240 240 240 240 240 240 240 240 240 240 240 240 240 240 240 240 240 240 240 240 240 240 240 240 240 240 240 240 240 240 240 240 240 240 240 240 240 240 240 240 240 240 240 240 240 240 240 240 240 0 0 0 0 0
0 0 0 0 0 240 240 240 240 240 240 240 240 240 240 240 240 240 240 240 240 240 240 240 240 240 240 240 240 240 240 240 240 240 240 240 240 240 240 240 240 240 240 240 240 240 240 240 240 240 240 240 240 240 240 240 240 240 240 240 240 240 240 240 240 240 240 240 240 240 240 240 240 240 240 240 240 240 240 240 240 240 240 240 240 240 240 240 240 240 240 240 240 240 240 240 240 240 240 240 240 240 240 240 240 240 240 240 240 240 240 240 240 240 240 240 240 240 240 240 240 240 240 240 240 240 240 240 240 240 240 240 240 240 240 240 240 240 240 240 240 240 240 240 240 240 240 240 240 240 240 240 240 240 240 240 240 240 240 240 240 240 240 240 240 240 240 240 240 240 240 240 240 240 240 240 240 240 240 240 240 240 240 240 240 240 240 240 240 240 240 240 240 240 240 240 240 240 240 240 240 240 240 240 240 240 240 240 240 240 240 240 240 240 240 240 240 240 240 240 240 240 240 240 240 240 240 240 240 240 240 240 240 240 240 240 240 240 240 240 240 240 240 240 240 240 240 240 240 240 240 0 0 0 0 0
0 0 0 0 0 240 240 240 240 240 240 240 240 240 240 240 240 240 240 240 240 240 240 240 240 240 240 240 240 240 240 240 240 240 240 240 240 240 240 240 240 240 240 240 240 240 240 240 240 240 240 240 240 240 240 240 240 240 240 240 240 240 240 240 240 240 240 240 240 240 240 240 240 240 240 240 240 240 240 240 240 240 240 240 240 240 240 240 240 240 240 240 240 240 240 240 240 240 240 240 240 240 240 240 240 240 240 240 240 240 240 240 240 240 240 240 240 240 240 240 240 240 240 240 240 240 240 240 240 240 240 240 240 240 240 240 240 240 240 240 240 240 240 240 240 240 240 240 240 240 240 240 240 240 240 240 240 240 240 240 240 240 240 240 240 240 240 240 240 240 240 240 240 240 240 240 240 240 240 240 240 240 240 240 240 240 240 240 240 240 240 240 240 240 240 240 240 240 240 240 240 240 240 240 240 240 240 240 240 240 240 240 240 240 240 240 240 240 240 240 240 240 240 240 240 240 240 240 240 240 240 240 240 240 240 240 240 240 240 240 240 240 240 240 240 240 240 240 240 240 240 0 0 0 0 0
0 0 0 0 0 240 240 240 240 240 240 240 240 240 240 240 240 240 240 240 240 240 240 240 240 240 240 240 240 240 240 240 240 240 240 240 240 240 240 240 240 240 240 240 240 240 240 240 240 240 240 240 240 240 240 240 240 240 240 240 240 240 240 240 240 240 240 240 240 240 240 240 240 240 240 240 240 240 240 240 240 240 240 240 240 240 240 240 240 240 240 240 240 240 240 240 240 240 240 240 240 240 240 240 240 240 240 240 240 240 240 240 240 240 240 240 240 240 240 240 240 240 240 240 240 240 240 240 240 240 240 240 240 240 240 240 240 240 240 240 240 240 240 240 240 240 240 240 240 240 240 240 240 240 240 240 240 240 240 240 240 240 240 240 240 240 240 240 240 240 240 240 240 240 240 240 240 240 240 240 240 240 240 240 240 240 240 240 240 240 240 240 240 240 240 240 240 240 240 240 240 240 240 240 240 240 240 240 240 240 240 240 240 240 240 240 240 240 240 240 240 240 240 240 240 240 240 240 240 240 240 240 240 240 240 240 240 240 240 240 240 240 240 240 240 240 240 240 240 240 240 0 0 0 0 0
0 0 0 0 0 240 240 240 240 240 240 240 240 240 240 240 240 240 240 240 240 240 240 240 240 240 240 240 240 240 240 240 240 240 240 240 240 240 240 240 240 240 240 240 240 240 240 240 240 240 240 240 240 240 240 240 240 240 240 240 240 240 240 240 240 240 240 240 240 240 240 240 240 240 240 240 240 240 240 240 240 240 240 240 240 240 240 240 240 240 240 240 240 240 240 240 240 240 240 240 240 240 240 240 240 240 240 240 240 240 240 240 240 240 240 240 240 240 240 240 240 240 240 240 240 240 240 240 240 240 240 240 240 240 240 240 240 240 240 240 240 240 240 240 240 240 240 240 240 240 240 240 240 240 240 240 240 240 240 240 240 240 240 240 240 240 240 240 240 240 240 240 240 240 240 240 240 240 240 240 240 240 240 240 240 240 240 240 240 240 240 240 240 240 240 240 240 240 240 240 240 240 240 240 240 240 240 240 240 240 240 240 240 240 240 240 240 240 240 240 240 240 240 240 240 240 240 240 240 240 240 240 240 240 240 240 240 240 240 240 240 240 240 240 240 240 240 240 240 240 240 0 0 0 0 0
0 0 0 0 0 240 240 240 240 240 240 240 240 240 240 240 240 240 240 240 240 240 240 240 240 240 240 240 240 240 240 240 240 240 240 240 240 240 240 240 240 240 240 240 240 240 240 240 240 240 240 240 240 240 240 240 240 240 240 240 240 240 240 240 240 240 240 240 240 240 240 240 240 240 240 240 240 240 240 240 240 240 240 240 240 240 240 240 240 240 240 240 240 240 240 240 240 240 240 240 240 240 240 240 240 240 240 240 240 240 240 240 240 240 240 240 240 240 240 240 240 240 240 240 240 240 240 240 240 240 240 240 240 240 240 240 240 240 240 240 240 240 240 240 240 240 240 240 240 240 240 240 240 240 240 240 240 240 240 240 240 240 240 240 240 240 240 240 240 240 240 240 240 240 240 240 240 240 240 240 240 240 240 240 240 240 240 240 240 240 240 240 240 240 240 240 240 240 240 240 240 240 240 240 240 240 240 240 240 240 240 240 240 240 240 240 240 240 240 240 240 240 240 240 240 240 240 240 240 240 240 240 240 240 240 240 240 240 240 240 240 240 240 240 240 240 240 240 240 240 240 0 0 0 0 0
0 0 0 0 0 240 240 240 240 240 240 240 240 240 240 240 240 240 240 240 240 240 240 240 240 240 240 240 240 240 240 240 240 240 240 240 240 240 240 240 240 240 240 240 240 240 240 240 240 240 240 240 240 240 240 240 240 240 240 240 240 240 240 240 240 240 240 240 240 240 240 240 240 240 240 240 240 240 240 240 240 240 240 240 240 240 240 240 240 240 240 240 240 240 240 240 240 240 240 240 240 240 240 240 240 240 240 240 240 240 240 240 240 240 240 240 240 240 240 240 240 240 240 240 240 240 240 240 240 240 240 240 240 240 240 240 240 240 240 240 240 240 240 240 240 240 240 240 240 240 240 240 240 240 240 240 240 240 240 240 240 240 240 240 240 240 240 240 240 240 240 240 240 240 240 240 240 240 240 240 240 240 240 240 240 240 240 240 240 240 240 240 240 240 240 240 240 240 240 240 240 240 240 240 240 240 240 240 240 240 240 240 240 240 240 240 240 240 240 240 240 240 240 240 240 240 240 240 240 240 240 240 240 240 240 240 240 240 240 240 240 240 240 240 240 240 240 240 240 240 240 0 0 0 0 0
0 0 0 0 0 240 240 240 240 240 240 240 240 240 240 240 240 240 240 240 240 240 240 240 240 240 240 240 240 240 240 240 240 240 240 240 240 240 240 240 240 240 240 240 240 240 240 240 240 240 240 240 240 240 240 240 240 240 240 240 240 240 240 240 240 240 240 240 240 240 240 240 240 240 240 240 240 240 240 240 240 240 240 240 240 240 240 240 240 240 240 240 240 240 240 240 240 240 240 240 240 240 240 240 240 240 240 240 240 240 240 240 240 240 240 240 240 240 240 240 240 240 240 240 240 240 240 240 240 240 240 240 240 240 240 240 240 240 240 240 240 240 240 240 240 240 240 240 240 240 240 240 240 240 240 240 240 240 240 240 240 240 240 240 240 240 240 240 240 240 240 240 240 240 240 240 240 240 240 240 240 240 240 240 240 240 240 240 240 240 240 240 240 240 240 240 240 240 240 240 240 240 240 240 240 240 240 240 240 240 240 240 240 240 240 240 240 240 240 240 240 240 240 240 240 240 240 240 240 240 240 240 240 240 240 240 240 240 240 240 240 240 240 240 240 240 240 240 240 240 240 0 0 0 0 0
0 0 0 0 0 240 240 240 240 240 240 240 240 240 240 240 240 240 240 240 240 240 240 240 240 240 240 240 240 240 240 240 240 240 240 240 240 240 240 240 240 240 240 240 240 240 240 240 240 240 240 240 240 240 240 240 240 240 240 240 240 240 240 240 240 240 240 240 240 240 240 240 240 240 240 240 240 240 240 240 240 240 240 240 240 240 240 240 240 240 240 240 240 240 240 240 240 240 240 240 240 240 240 240 240 240 240 240 240 240 240 240 240 240 240 240 240 240 240 240 240 240 240 240 240 240 240 240 240 240 240 240 240 240 240 240 240 240 240 240 240 240 240 240 240 240 240 240 240 240 240 240 240 240 240 240 240 240 240 240 240 240 240 240 240 240 240 240 240 240 240 240 240 240 240 240 240 240 240 240 240 240 240 240 240 240 240 240 240 240 240 240 240 240 240 240 240 240 240 240 240 240 240 240 240 240 240 240 240 240 240 240 240 240 240 240 240 240 240 240 240 240 240 240 240 240 240 240 240 240 240 240 240 240 240 240 240 240 240 240 240 240 240 240 240 240 240 240 240 240 240 0 0 0 0 0
0 0 0 0 0 240 240 240 240 240 240 240 240 240 240 240 240 240 240 240 240 240 240 240 240 240 240 240 240 240 240 240 240 240 240 240 240 240 240 240 240 240 240 240 240 240 240 240 240 240 240 240 240 240 240 240 240 240 240 240 240 240 240 240 240 240 240 240 240 240 240 240 240 240 240 240 240 240 240 240 240 240 240 240 240 240 240 240 240 240 240 240 240 240 240 240 240 240 240 240 240 240 240 240 240 240 240 240 240 240 240 240 240 240 240 240 240 240 240 240 240 240 240 240 240 240 240 240 240 240 240 240 240 240 240 240 240 240 240 240 240 240 240 240 240 240 240 240 240 240 240 240 240 240 240 240 240 240 240 240 240 240 240 240 240 240 240 240 240 240 240 240 240 240 240 240 240 240 240 240 240 240 240 240 240 240 240 240 240 240 240 240 240 240 240 240 240 240 240 240 240 240 240 240 240 240 240 240 240 240 240 240 240 240 240 240 240 240 240 240 240 240 240 240 240 240 240 240 240 240 240 240 240 240 240 240 240 240 240 240 240 240 240 240 240 240 240 240 240 240 240 0 0 0 0 0
0 0 0 0 0 240 240 240 240 240 240 240 240 240 240 240 240 240 240 240 240 240 240 240 240 240 240 240 240 240 240 240 240 240 240 240 240 240 240 240 240 240 240 240 240 240 240 240 240 240 240 240 240 240 240 240 240 240 240 240 240 240 240 240 240 240 240 240 240 240 240 240 240 240 240 240 240 240 240 240 240 240 240 240 240 240 240 240 240 240 240 240 240 240 240 240 240 240 240 240 240 240 240 240 240 240 240 240 240 240 240 240 240 240 240 240 240 240 240 240 240 240 240 240 240 240 240 240 240 240 240 240 240 240 240 240 240 240 240 240 240 240 240 240 240 240 240 240 240 240 240 240 240 240 240 240 240 240 240 240 240 240 240 240 240 240 240 240 240 240 240 240 240 240 240 240 240 240 240 240 240 240 240 240 240 240 240 240 240 240 240 240 240 240 240 240 240 240 240 240 240 240 240 240 240 240 240 240 240 240 240 240 240 240 240 240 240 240 240 240 240 240 240 240 240 240 240 240 240 240 240 240 240 240 240 240 240 240 240 240 240 240 240 240 240 240 240 240 240 240 240 0 0 0 0 0
0 0 0 0 0 0 0 0 0 0 0 0 0 0 0 0 0 0 0 0 0 0 0 0 0 0 0 0 0 0 0 0 0 0 0 0 0 0 0 0 0 0 0 0 0 0 0 0 0 0 0 0 0 0 0 0 0 0 0 0 0 0 0 0 0 0 0 0 0 0 0 0 0 0 0 0 0 0 0 0 0 0 0 0 0 0 0 0 0 0 0 0 0 0 0 0 0 0 0 0 0 0 0 0 0 0 0 0 0 0 0 0 0 0 0 0 0 0 0 0 0 0 0 0 0 0 0 0 0 0 0 0 0 0 0 0 0 0 0 0 0 0 0 0 0 0 0 0 0 0 0 0 0 0 0 0 0 0 0 0 0 0 0 0 0 0 0 0 0 0 0 0 0 0 0 0 0 0 0 0 0 0 0 0 0 0 0 0 0 0 0 0 0 0 0 0 0 0 0 0 0 0 0 0 0 0 0 0 0 0 0 0 0 0 0 0 0 0 0 0 0 0 0 0 0 0 0 0 0 0 0 0 0 0 0 0 0 0 0 0 0 0 0 0 0 0 0 0 0 0 0 0 0 0 0 0
0 0 0 0 0 0 0 0 0 0 0 0 0 0 0 0 0 0 0 0 0 0 0 0 0 0 0 0 0 0 0 0 0 0 0 0 0 0 0 0 0 0 0 0 0 0 0 0 0 0 0 0 0 0 0 0 0 0 0 0 0 0 0 0 0 0 0 0 0 0 0 0 0 0 0 0 0 0 0 0 0 0 0 0 0 0 0 0 0 0 0 0 0 0 0 0 0 0 0 0 0 0 0 0 0 0 0 0 0 0 0 0 0 0 0 0 0 0 0 0 0 0 0 0 0 0 0 0 0 0 0 0 0 0 0 0 0 0 0 0 0 0 0 0 0 0 0 0 0 0 0 0 0 0 0 0 0 0 0 0 0 0 0 0 0 0 0 0 0 0 0 0 0 0 0 0 0 0 0 0 0 0 0 0 0 0 0 0 0 0 0 0 0 0 0 0 0 0 0 0 0 0 0 0 0 0 0 0 0 0 0 0 0 0 0 0 0 0 0 0 0 0 0 0 0 0 0 0 0 0 0 0 0 0 0 0 0 0 0 0 0 0 0 0 0 0 0 0 0 0 0 0 0 0 0 0
0 0 0 0 0 0 0 0 0 0 0 0 0 0 0 0 0 0 0 0 0 0 0 0 0 0 0 0 0 0 0 0 0 0 0 0 0 0 0 0 0 0 0 0 0 0 0 0 0 0 0 0 0 0 0 0 0 0 0 0 0 0 0 0 0 0 0 0 0 0 0 0 0 0 0 0 0 0 0 0 0 0 0 0 0 0 0 0 0 0 0 0 0 0 0 0 0 0 0 0 0 0 0 0 0 0 0 0 0 0 0 0 0 0 0 0 0 0 0 0 0 0 0 0 0 0 0 0 0 0 0 0 0 0 0 0 0 0 0 0 0 0 0 0 0 0 0 0 0 0 0 0 0 0 0 0 0 0 0 0 0 0 0 0 0 0 0 0 0 0 0 0 0 0 0 0 0 0 0 0 0 0 0 0 0 0 0 0 0 0 0 0 0 0 0 0 0 0 0 0 0 0 0 0 0 0 0 0 0 0 0 0 0 0 0 0 0 0 0 0 0 0 0 0 0 0 0 0 0 0 0 0 0 0 0 0 0 0 0 0 0 0 0 0 0 0 0 0 0 0 0 0 0 0 0 0
0 0 0 0 0 0 0 0 0 0 0 0 0 0 0 0 0 0 0 0 0 0 0 0 0 0 0 0 0 0 0 0 0 0 0 0 0 0 0 0 0 0 0 0 0 0 0 0 0 0 0 0 0 0 0 0 0 0 0 0 0 0 0 0 0 0 0 0 0 0 0 0 0 0 0 0 0 0 0 0 0 0 0 0 0 0 0 0 0 0 0 0 0 0 0 0 0 0 0 0 0 0 0 0 0 0 0 0 0 0 0 0 0 0 0 0 0 0 0 0 0 0 0 0 0 0 0 0 0 0 0 0 0 0 0 0 0 0 0 0 0 0 0 0 0 0 0 0 0 0 0 0 0 0 0 0 0 0 0 0 0 0 0 0 0 0 0 0 0 0 0 0 0 0 0 0 0 0 0 0 0 0 0 0 0 0 0 0 0 0 0 0 0 0 0 0 0 0 0 0 0 0 0 0 0 0 0 0 0 0 0 0 0 0 0 0 0 0 0 0 0 0 0 0 0 0 0 0 0 0 0 0 0 0 0 0 0 0 0 0 0 0 0 0 0 0 0 0 0 0 0 0 0 0 0 0
0 0 0 0 0 0 0 0 0 0 0 0 0 0 0 0 0 0 0 0 0 0 0 0 0 0 0 0 0 0 0 0 0 0 0 0 0 0 0 0 0 0 0 0 0 0 0 0 0 0 0 0 0 0 0 0 0 0 0 0 0 0 0 0 0 0 0 0 0 0 0 0 0 0 0 0 0 0 0 0 0 0 0 0 0 0 0 0 0 0 0 0 0 0 0 0 0 0 0 0 0 0 0 0 0 0 0 0 0 0 0 0 0 0 0 0 0 0 0 0 0 0 0 0 0 0 0 0 0 0 0 0 0 0 0 0 0 0 0 0 0 0 0 0 0 0 0 0 0 0 0 0 0 0 0 0 0 0 0 0 0 0 0 0 0 0 0 0 0 0 0 0 0 0 0 0 0 0 0 0 0 0 0 0 0 0 0 0 0 0 0 0 0 0 0 0 0 0 0 0 0 0 0 0 0 0 0 0 0 0 0 0 0 0 0 0 0 0 0 0 0 0 0 0 0 0 0 0 0 0 0 0 0 0 0 0 0 0 0 0 0 0 0 0 0 0 0 0 0 0 0 0 0 0 0 0
